P2
128 128
255
26 18 22 15 14 13 243 12 23 21 27 26 23 14 18 18 25 20 13 26 23 26 28 19 17 15 23 15 27 25 19 24 24 26 18 12 22 19 12 21 20 20 13 16 19 14 16 14 25 20 21 18 15 18 22 24 13 107 113 112 188 102 114 188 190 102 113 190 118 113 103 16 28 13 16 12 13 17 15 28 16 17 27 20 17 14 15 14 18 12 18 12 21 27 28 27 16 20 27 12 22 15 14 14 20 25 14 20 15 27 19 28 27 25 17 19 13 12 12 27 14 28 25 14 16 28 14 12
21 14 26 13 21 28 20 27 21 14 24 18 24 19 27 26 13 28 17 22 12 23 18 24 26 19 24 21 28 16 20 12 12 27 24 27 16 14 27 25 26 25 16 27 15 16 21 15 21 12 24 27 28 23 12 22 14 109 113 113 183 104 109 191 183 108 114 185 105 110 104 27 28 16 24 14 28 27 24 28 20 20 25 26 16 15 27 24 18 16 22 26 21 28 18 19 13 16 19 12 28 24 17 23 21 18 24 19 20 14 28 12 17 24 26 22 15 26 25 12 14 22 27 23 19 15 16 28
24 24 17 16 13 24 12 26 28 13 12 17 16 17 16 21 28 20 24 12 13 19 13 14 23 23 28 26 16 13 18 13 13 26 13 17 26 21 16 21 21 16 13 22 22 27 27 19 14 16 21 17 20 25 25 20 26 116 112 118 182 104 116 195 195 114 108 195 114 107 116 16 18 18 23 24 15 20 26 13 19 21 17 13 24 12 17 27 22 20 19 17 22 20 28 17 13 19 24 17 15 12 23 25 16 15 14 21 21 24 12 20 22 17 28 23 22 23 12 19 16 14 16 25 15 21 19 19
17 26 28 13 19 18 17 19 26 12 18 17 16 12 13 21 17 26 26 16 15 13 15 22 22 19 19 25 24 12 22 15 16 19 28 20 25 22 25 25 12 19 26 20 20 22 18 13 22 18 12 22 28 20 19 12 28 117 102 116 198 107 105 188 191 115 102 188 102 104 109 26 12 19 25 25 15 25 27 21 27 15 13 16 21 14 23 16 20 23 23 21 25 28 28 19 18 22 24 16 21 17 16 23 21 17 13 18 28 25 22 15 22 15 18 13 16 15 14 28 24 20 20 28 22 18 223 17
16 28 21 28 27 19 28 27 23 20 26 27 18 18 27 18 21 25 14 24 16 23 28 24 27 23 14 24 14 25 28 23 23 21 18 12 20 24 15 16 12 26 28 15 16 22 18 25 24 18 19 24 22 20 14 16 26 110 118 111 198 104 116 185 183 104 110 183 110 106 103 26 16 17 27 16 19 14 13 24 17 27 12 27 22 21 17 16 21 22 18 20 13 23 24 28 19 24 17 18 13 26 15 15 28 28 12 25 23 14 23 22 26 22 20 13 15 24 26 22 13 22 28 26 17 16 12 17
14 23 23 19 28 19 25 18 23 14 26 20 18 23 20 13 22 28 25 17 24 17 22 20 25 27 12 12 12 12 18 18 26 23 22 17 20 20 19 26 18 27 14 21 23 24 25 19 23 16 20 21 26 23 16 23 28 110 103 103 185 111 113 189 182 109 111 195 106 114 116 18 13 28 13 16 19 15 26 21 25 21 20 19 12 22 16 28 23 26 23 25 16 12 17 16 25 22 18 26 23 24 21 19 12 17 26 22 28 26 23 25 12 27 27 13 17 12 27 24 22 17 17 13 20 24 18 26
18 12 28 17 14 25 25 19 17 23 27 23 22 17 23 24 22 26 26 22 15 13 15 25 26 19 15 13 15 22 23 24 28 21 15 12 24 24 20 26 21 27 16 15 21 15 16 14 12 28 16 18 21 24 13 18 14 108 112 115 187 108 105 182 190 107 105 183 113 109 104 14 13 13 14 19 15 26 27 196 23 14 24 19 19 12 17 19 12 23 13 15 24 13 20 14 15 17 22 16 23 21 24 21 17 18 20 14 13 25 21 12 25 27 14 17 13 13 26 23 24 222 13 16 21 22 26 20
20 25 27 12 18 16 15 18 16 14 25 16 13 17 21 18 24 24 16 15 28 15 27 19 17 21 20 20 13 12 19 22 19 19 28 24 23 16 19 22 14 16 19 25 26 22 16 19 17 27 19 20 14 15 20 21 23 103 117 103 196 110 115 193 195 104 108 190 114 109 115 23 22 24 26 26 23 22 12 18 16 21 20 12 14 19 21 21 25 13 24 15 23 25 22 17 16 26 21 14 17 20 253 25 24 18 25 16 15 13 28 24 17 15 27 28 28 26 24 17 27 26 25 18 27 21 24 24
24 21 16 16 21 15 15 18 12 15 25 15 23 18 25 27 21 17 24 22 22 15 18 26 22 26 21 25 16 16 23 20 15 18 12 13 22 28 17 13 16 27 21 27 18 26 21 28 18 15 26 26 25 20 28 14 12 104 112 112 191 110 109 196 195 111 107 188 114 112 102 19 27 15 25 20 25 12 24 17 16 12 13 16 20 17 23 13 23 13 23 27 12 13 26 22 27 28 22 14 27 14 20 26 20 12 14 26 14 25 15 18 24 12 13 17 19 25 28 25 27 25 21 24 20 26 17 15
20 25 14 25 15 19 25 27 28 23 25 16 16 12 20 15 13 12 26 23 26 19 17 15 15 24 23 13 20 17 28 17 19 21 24 19 27 28 17 20 19 12 28 21 20 16 28 18 18 22 22 25 19 23 24 27 18 204 115 114 198 103 102 186 189 102 116 183 110 112 115 20 14 13 14 19 20 14 24 16 28 17 22 14 20 23 14 23 19 15 18 16 16 12 21 14 22 17 19 23 15 16 14 15 25 21 17 26 21 16 16 17 20 24 28 27 16 28 24 14 24 28 23 22 12 14 13 28
19 16 19 28 13 24 22 16 20 23 27 17 15 12 26 28 25 26 15 14 20 24 28 19 17 16 25 27 22 21 27 20 26 19 19 20 14 16 16 19 20 15 19 13 15 17 19 24 13 17 19 13 27 13 24 13 19 108 102 114 198 111 109 195 195 116 105 189 115 103 110 26 20 17 185 23 22 22 13 15 24 17 23 28 12 21 22 12 22 26 20 23 28 27 20 27 25 20 20 16 13 20 12 24 20 18 14 23 19 12 22 28 21 26 25 17 28 21 14 28 22 17 27 19 23 21 20 17
12 18 222 15 15 20 19 19 15 20 13 26 23 19 16 22 20 23 21 22 19 26 22 28 17 26 25 28 20 20 12 13 25 17 25 24 14 19 22 28 24 23 27 27 23 17 17 13 22 13 19 19 15 12 28 23 21 111 111 103 197 106 104 194 190 103 108 184 108 115 114 15 12 24 21 20 12 13 20 16 14 24 26 19 25 21 24 20 27 25 15 14 14 19 15 21 13 24 239 17 21 18 14 20 26 23 15 16 16 25 27 15 19 21 13 20 21 28 26 16 12 15 13 18 12 18 28 20
24 14 28 26 12 26 15 22 19 12 15 17 28 12 27 24 14 27 21 15 13 16 25 14 27 12 22 23 12 25 12 27 16 26 12 18 25 21 19 21 17 20 20 28 14 14 21 22 26 20 23 14 13 17 21 27 15 103 102 111 197 105 114 198 188 105 111 194 107 118 20 14 26 20 20 28 20 24 28 26 26 12 16 13 14 12 27 17 15 24 14 12 25 25 20 22 28 12 20 13 22 17 15 22 13 22 24 18 15 12 25 12 27 28 18 26 14 12 21 24 16 21 18 28 20 24 20 21
23 14 20 16 25 27 28 20 13 23 12 22 25 26 15 21 25 26 26 19 20 12 21 21 13 12 27 27 18 28 16 14 28 12 28 14 22 27 20 12 27 23 20 13 26 25 19 27 19 23 19 28 13 26 21 14 19 105 112 112 20 112 118 20 183 116 105 186 108 118 113 18 17 28 14 15 21 24 27 19 13 23 22 28 23 28 17 14 12 25 15 21 26 17 16 12 12 17 14 25 17 25 19 18 17 19 17 23 21 14 27 28 22 22 27 17 28 26 14 16 21 15 22 22 27 22 16 16
23 28 17 22 22 16 20 12 15 19 26 25 27 22 19 17 24 16 13 22 19 19 28 27 22 24 27 20 16 26 19 25 18 23 21 25 18 13 17 26 14 19 23 19 19 21 28 24 16 15 17 13 22 16 21 25 23 118 111 111 183 114 113 196 196 108 110 194 113 108 117 18 19 28 17 25 15 19 17 14 24 27 17 19 17 14 23 16 20 18 224 21 24 15 26 19 24 19 26 18 27 28 24 25 24 27 19 26 21 12 20 12 22 20 23 25 19 23 19 22 28 19 17 17 19 14 28 13
18 28 17 17 15 28 24 28 25 14 12 27 23 27 17 20 23 25 13 21 19 14 14 27 20 23 23 13 23 27 12 13 28 12 26 25 25 16 22 26 14 14 21 28 22 16 16 24 16 27 19 22 23 24 20 26 23 109 102 111 196 107 117 196 194 118 114 195 109 114 104 16 28 13 16 17 15 25 18 26 22 14 15 27 28 12 15 25 26 15 27 15 24 14 26 20 13 23 21 27 21 16 18 22 16 25 17 26 20 17 14 20 28 15 16 17 12 27 24 14 23 12 20 21 26 13 27 21
25 20 14 13 22 24 28 13 21 22 14 27 23 26 23 15 20 26 18 25 23 22 28 19 27 26 27 18 16 26 25 24 16 17 13 27 15 13 15 26 18 17 26 20 16 22 15 13 20 18 21 14 13 21 28 27 22 112 105 116 198 102 111 191 193 112 112 184 111 103 103 20 17 21 19 20 26 27 22 27 13 20 20 13 18 12 15 13 25 26 18 21 16 25 23 17 15 27 12 17 24 16 19 18 17 28 25 25 23 26 16 19 25 12 14 25 19 14 17 13 19 23 22 22 27 25 26 13
17 27 14 16 23 20 17 22 26 22 19 27 22 20 27 23 25 21 17 17 17 12 19 26 22 15 17 22 16 27 15 28 22 20 22 12 25 28 25 24 17 26 17 21 28 20 18 17 12 13 15 15 20 19 15 22 25 117 105 108 197 105 112 193 188 114 113 186 106 111 106 18 23 12 26 18 14 23 12 22 15 13 17 27 18 28 24 16 21 21 26 26 21 26 23 24 14 26 20 14 27 27 25 18 17 28 12 27 28 23 25 20 22 16 24 26 12 13 19 27 24 26 21 26 26 26 22 18
25 24 20 22 23 12 28 14 14 17 27 14 25 19 20 22 24 26 18 24 26 21 27 17 24 19 24 16 28 13 20 17 22 19 14 28 24 12 24 22 27 27 20 12 23 13 24 17 27 21 20 15 20 15 26 16 26 103 105 111 190 117 110 192 191 114 111 190 103 108 108 25 16 23 24 24 21 14 22 16 26 20 23 25 17 28 26 19 27 21 24 21 17 17 28 22 13 22 20 27 18 19 27 18 12 19 15 14 19 12 17 20 21 15 28 16 14 14 27 28 25 26 26 19 26 13 28 13
23 13 18 17 13 25 14 28 27 13 18 17 16 27 16 16 243 13 17 12 12 12 15 22 12 20 17 13 21 28 24 22 21 13 14 21 17 12 28 22 25 20 23 17 17 28 26 14 22 20 12 27 28 26 14 23 12 107 102 117 189 102 112 188 188 103 105 197 103 118 107 20 26 17 17 24 23 12 24 16 12 17 25 14 13 20 14 22 12 17 18 15 28 26 23 20 28 13 18 12 16 17 19 12 16 20 20 28 27 22 21 21 16 28 28 15 26 20 26 25 14 21 23 28 14 14 15 18
15 12 21 27 18 27 18 22 25 24 14 22 23 23 12 13 219 21 26 28 13 25 23 15 13 25 15 23 19 27 22 18 22 14 16 14 28 19 22 21 14 25 17 25 21 28 12 15 13 15 13 21 19 22 23 19 15 117 111 115 193 108 108 187 193 111 107 187 111 107 108 23 21 21 22 19 18 13 12 14 25 19 23 28 15 24 15 16 27 13 19 27 24 14 23 23 24 23 16 23 19 20 16 22 24 25 21 18 14 27 17 22 16 27 28 19 27 15 21 20 16 12 23 14 25 18 27 22
15 18 19 21 26 16 21 15 27 23 16 22 13 15 24 21 16 12 28 14 18 17 15 20 13 19 26 19 22 28 27 24 15 23 14 28 15 26 27 26 16 24 15 24 23 13 21 20 16 21 19 28 28 16 19 15 24 102 112 113 187 108 117 187 186 116 102 184 104 104 114 23 27 24 20 13 18 21 20 26 15 16 18 15 15 16 15 20 25 21 23 22 28 20 14 24 12 24 26 20 18 27 18 23 13 17 20 25 14 25 15 23 25 27 17 26 12 23 23 20 23 13 23 15 20 18 20 17
13 25 16 14 21 23 28 13 18 17 21 24 17 14 16 14 23 24 25 17 19 28 24 22 26 14 23 18 20 24 21 19 182 16 18 21 13 22 24 20 13 23 28 17 25 13 26 19 12 26 17 16 21 27 12 17 13 110 106 108 194 108 107 183 197 110 108 184 112 112 108 25 15 12 14 18 22 14 13 23 21 13 17 21 15 28 27 21 24 23 16 27 16 26 27 13 17 17 22 12 17 19 27 21 27 24 18 19 17 17 12 24 28 19 16 21 25 20 12 21 14 17 13 16 27 12 12 24
26 22 23 24 21 15 27 26 13 26 15 14 22 18 18 14 28 16 13 18 15 24 14 15 27 12 22 16 15 27 13 23 18 28 20 28 27 12 18 13 16 15 18 23 28 21 16 20 15 20 25 17 26 28 27 14 21 114 117 107 195 106 103 186 190 102 113 190 104 114 104 20 20 23 24 21 22 13 18 14 17 28 28 22 15 25 22 19 26 19 16 19 20 19 21 20 16 26 18 23 21 16 16 24 22 22 27 12 12 13 25 21 20 21 17 17 23 27 24 21 20 13 13 13 14 17 28 18
23 22 15 23 13 27 14 22 25 27 21 27 13 20 17 19 14 27 14 20 12 21 23 24 19 14 23 25 16 22 28 12 25 22 13 14 16 16 17 13 17 14 16 23 14 16 18 26 16 12 27 23 21 25 27 20 24 116 106 110 198 105 117 195 182 118 112 195 108 115 109 12 28 17 16 15 22 28 27 27 23 22 28 17 13 17 17 12 24 26 25 18 21 25 27 25 20 19 21 14 22 27 23 22 26 22 13 15 17 22 13 22 25 14 22 23 18 22 21 27 23 24 25 14 12 28 22 17
14 23 13 28 25 28 17 17 16 17 254 12 23 19 20 13 21 21 25 19 24 15 16 13 18 16 19 18 25 17 23 18 16 26 27 19 18 18 21 20 20 21 25 18 27 21 26 27 14 22 23 22 23 13 13 21 19 102 113 114 182 102 106 189 183 104 116 184 115 115 117 22 25 16 19 26 28 25 27 12 24 16 24 26 21 20 23 28 22 15 25 19 15 23 24 17 15 18 22 18 18 27 20 24 15 23 24 26 26 21 20 27 24 24 27 16 22 14 18 14 18 19 12 21 25 27 21 27
19 20 23 28 18 23 18 17 22 13 16 19 22 23 17 16 27 19 25 13 19 23 18 25 14 13 23 21 24 28 21 17 26 16 19 19 26 19 27 28 24 25 28 16 18 28 18 22 14 15 24 21 27 13 24 18 22 105 103 108 198 108 114 190 187 108 107 192 105 118 108 12 17 22 24 12 20 28 20 15 28 13 16 17 24 18 25 28 27 19 12 21 25 24 24 25 26 28 27 23 22 28 22 13 22 15 22 24 12 20 26 27 17 21 25 23 23 18 15 12 20 20 20 13 14 17 22 21
18 20 19 22 17 16 13 13 15 12 12 15 24 24 13 25 22 22 28 18 22 21 25 21 21 12 21 231 20 25 20 15 24 20 23 18 27 18 27 16 16 19 12 26 20 22 15 24 13 20 18 12 20 26 16 20 23 110 103 118 187 103 115 196 185 105 113 189 106 111 102 12 21 13 27 18 12 16 28 27 28 24 21 28 21 24 16 28 27 16 15 14 23 22 17 13 27 19 24 23 25 26 22 21 20 21 17 26 28 28 22 19 18 21 26 13 20 14 13 20 17 19 16 20 21 14 26 17
28 13 20 26 28 237 19 14 28 25 23 22 26 19 23 26 27 15 20 20 17 18 28 13 24 12 27 12 24 26 13 22 14 27 28 22 12 23 25 24 18 21 17 23 13 12 25 16 19 27 26 14 25 26 14 18 22 108 116 106 186 110 103 197 198 102 110 194 113 215 20 20 20 22 23 23 22 14 28 28 19 20 20 27 25 27 26 25 26 19 21 28 15 21 15 12 28 26 13 24 26 20 12 23 16 26 28 20 25 21 26 20 27 16 22 16 15 18 24 23 12 28 22 19 18 21 24 18
14 13 14 17 12 12 13 25 26 20 13 20 17 24 24 23 28 24 15 14 28 19 12 18 15 26 26 21 28 16 18 18 27 17 15 16 18 26 22 20 28 22 18 20 14 25 26 25 18 16 18 12 12 25 21 28 26 114 112 235 186 115 106 183 191 118 114 196 114 102 110 28 28 12 17 12 21 22 13 28 15 28 14 15 16 26 22 20 27 12 20 28 26 21 23 20 14 25 27 22 15 28 14 22 16 14 27 15 28 12 22 28 20 27 13 19 21 28 14 24 20 19 13 22 25 12 18 27
26 22 28 17 20 23 16 15 28 15 23 22 28 21 26 15 23 26 12 23 14 12 15 12 14 20 16 20 17 20 14 25 25 25 12 28 17 12 17 27 24 21 24 13 24 12 16 18 24 18 28 19 15 12 17 12 12 117 111 111 190 117 115 183 190 108 116 182 108 109 110 12 25 20 17 17 14 15 28 24 24 25 18 23 19 17 13 25 27 15 22 12 20 28 24 12 17 16 28 19 16 12 18 27 20 22 27 17 27 27 16 24 16 14 23 18 24 13 16 18 24 21 27 16 28 15 13 22
12 15 20 18 16 20 27 21 26 24 19 15 12 24 19 18 26 18 22 17 21 14 26 22 27 24 16 25 18 26 20 25 25 27 17 24 12 27 19 22 22 15 20 13 17 19 27 20 23 21 23 20 17 25 17 27 19 112 108 114 182 106 111 188 194 103 105 196 115 115 102 12 14 207 17 23 12 16 24 16 23 18 12 16 13 22 28 18 14 14 23 27 15 26 16 28 20 24 13 24 27 24 21 26 22 21 24 22 27 20 23 23 15 18 22 19 13 27 15 17 22 14 14 22 16 27 14 14
17 26 14 24 12 27 26 17 26 12 20 24 17 23 28 12 26 25 24 26 24 17 27 20 28 23 23 13 18 26 14 27 18 18 18 23 16 14 22 28 20 26 16 19 21 14 19 20 23 20 14 15 21 28 27 13 13 105 105 109 191 111 104 191 195 109 112 191 115 116 113 12 26 12 26 12 23 12 19 18 15 16 13 28 13 12 20 13 21 28 15 15 12 17 15 24 17 14 12 23 19 18 15 25 22 25 13 27 27 22 15 24 15 20 17 16 16 20 21 21 21 28 17 26 15 27 14 15
25 13 28 26 14 12 19 17 12 26 22 21 12 28 21 17 16 28 19 27 214 16 16 28 13 18 16 23 27 26 21 13 14 14 26 200 16 14 13 26 16 14 15 27 19 19 23 23 21 16 18 25 21 15 28 12 20 108 112 111 191 105 106 193 189 110 111 196 102 107 117 14 24 14 14 23 18 19 16 27 15 26 17 24 15 22 22 24 12 26 19 23 27 20 28 17 20 17 27 17 15 17 28 12 26 13 14 24 23 23 24 25 17 15 27 17 27 21 25 216 23 12 23 19 27 16 26 15
211 12 22 19 25 15 26 24 21 25 25 25 18 28 24 26 14 27 24 28 25 18 26 17 23 23 19 12 18 24 20 15 23 19 25 15 19 12 15 12 20 26 27 196 28 22 21 23 14 16 23 16 21 20 19 26 28 106 116 115 183 106 112 185 196 113 117 194 118 115 117 15 20 20 22 21 16 20 20 15 25 17 23 14 28 13 16 14 14 24 20 22 20 12 20 21 26 21 26 12 25 23 26 12 14 13 18 26 12 24 22 21 22 24 15 28 16 12 23 23 23 13 15 27 13 17 19 14
26 25 21 13 27 28 16 20 24 27 15 16 12 19 13 21 14 19 14 20 17 23 26 22 13 13 14 19 23 16 15 13 12 23 28 22 19 19 19 25 22 26 25 13 23 15 14 13 28 21 17 27 22 12 25 26 18 113 107 106 189 111 114 196 191 104 106 187 117 116 113 23 25 25 19 27 27 25 12 26 27 17 19 17 22 17 23 17 24 24 28 24 13 16 21 24 20 25 16 25 18 19 25 19 14 23 16 22 21 24 24 12 26 17 26 15 23 20 19 23 24 15 27 19 17 13 25 19
28 23 23 16 17 25 22 15 17 19 19 13 15 14 19 16 12 13 16 13 16 21 26 20 28 27 22 15 12 12 15 24 24 27 23 25 28 15 27 24 24 16 23 26 28 20 12 25 12 25 17 25 21 15 21 13 17 117 110 111 197 114 102 189 183 110 105 189 112 115 116 17 25 18 27 18 24 20 28 16 18 23 12 17 14 24 24 21 26 15 17 14 17 28 17 24 23 14 27 23 19 26 28 12 22 28 16 25 25 22 27 19 21 17 20 13 28 13 12 23 21 28 13 25 19 14 28 19
15 16 22 14 26 19 20 12 20 28 20 220 12 26 21 17 23 27 12 26 25 25 25 14 16 12 20 22 14 19 23 14 24 22 23 23 21 27 22 22 23 24 26 25 25 25 19 26 26 17 19 26 21 27 22 16 25 109 117 106 185 118 107 185 197 117 105 185 111 114 102 26 16 17 23 15 19 13 28 15 17 12 22 28 24 27 14 28 18 17 26 12 16 17 25 20 27 15 27 22 12 20 23 28 18 17 26 21 27 21 24 26 22 24 28 20 12 18 19 24 18 16 18 28 27 14 28 28
28 17 28 18 24 27 17 20 18 28 27 13 18 22 27 16 27 17 25 24 20 25 15 27 21 28 21 15 15 28 24 24 16 12 17 16 12 24 14 21 27 26 20 27 15 26 17 16 17 18 19 27 28 17 25 17 23 114 118 112 197 111 116 194 183 103 114 192 112 110 104 15 23 16 21 26 13 12 21 26 28 23 15 26 22 12 27 21 28 14 27 20 24 15 19 13 27 17 25 21 24 15 13 20 15 18 28 22 13 17 18 26 24 14 27 15 16 13 21 14 21 14 28 13 17 14 18 16
19 27 26 18 13 20 14 28 24 12 17 24 15 26 18 24 25 24 25 12 28 14 25 14 15 22 26 22 25 25 25 25 20 19 16 15 22 24 27 25 19 17 15 14 16 27 16 14 19 23 27 25 24 23 15 23 17 111 118 188 190 112 107 188 198 108 109 185 113 114 110 19 20 20 13 20 17 16 15 20 15 15 14 21 22 25 21 18 14 21 21 27 23 12 26 12 15 12 20 27 25 23 28 18 23 26 25 24 16 12 17 18 25 18 19 17 13 22 13 19 16 27 18 27 25 27 24 20
20 15 25 17 27 28 19 13 23 26 24 19 14 13 20 15 12 26 24 27 28 24 26 15 13 26 21 22 16 24 17 17 24 13 16 21 13 20 13 15 18 18 27 26 25 14 21 17 28 16 18 15 27 25 28 15 22 118 103 112 20 107 115 189 189 117 113 198 103 102 112 24 28 14 19 25 14 15 24 16 15 24 13 16 19 24 24 14 24 17 18 18 12 27 26 25 17 28 18 23 25 21 28 28 13 26 20 13 28 26 25 28 17 19 13 18 22 24 13 17 18 20 20 15 25 18 19 23
25 15 18 17 19 27 27 20 18 27 28 12 19 13 20 17 26 22 19 27 23 19 14 15 20 27 19 22 22 21 20 27 28 19 24 17 12 26 14 24 13 24 16 26 17 23 12 18 23 17 20 16 20 12 23 20 25 112 114 102 192 104 106 193 191 106 118 182 117 116 114 19 25 22 20 24 13 15 17 22 14 13 20 192 23 20 27 19 13 12 28 27 18 12 26 24 13 23 25 17 20 15 13 25 20 13 12 25 14 19 15 18 217 25 27 12 26 22 25 15 23 14 27 22 14 23 16 19
13 20 19 12 28 22 26 18 24 15 15 26 17 17 21 20 22 15 15 27 22 25 18 15 27 17 19 18 25 23 24 21 13 17 20 16 20 19 26 18 25 26 28 27 12 22 28 19 21 21 20 27 26 13 19 28 20 110 110 117 198 110 102 190 194 109 107 184 113 107 107 27 197 16 23 28 12 20 24 25 18 25 19 17 20 20 24 27 25 13 25 25 17 12 19 20 24 23 17 26 17 16 20 15 15 21 12 26 22 25 25 26 20 22 15 14 20 19 26 28 23 25 26 16 20 20 22 12
27 20 16 18 26 16 26 25 21 25 24 253 20 18 28 22 23 18 20 18 28 13 28 21 25 23 25 15 12 27 18 14 19 18 17 25 15 26 25 21 21 13 19 12 20 13 22 24 22 28 12 19 19 23 27 21 21 117 115 118 190 114 108 186 183 117 255 197 116 114 115 14 22 21 20 21 20 16 12 12 18 16 17 22 18 23 27 13 22 14 16 22 24 21 15 20 17 20 20 25 26 25 20 25 26 13 28 27 13 20 22 22 15 13 23 28 24 27 27 18 21 14 23 25 14 27 14 15
24 24 27 20 18 26 15 16 19 22 20 25 23 21 23 27 23 28 21 14 14 18 17 21 24 25 22 14 14 22 22 12 21 13 24 13 17 21 28 28 25 15 15 20 23 19 16 19 15 18 26 16 17 28 22 22 14 112 116 111 185 104 103 196 187 113 108 193 114 113 107 225 225 16 26 12 12 27 21 12 16 28 28 26 17 28 15 13 25 13 20 24 23 26 20 15 14 19 18 25 14 25 15 17 17 14 21 27 21 14 23 23 27 16 26 22 17 23 17 13 14 17 13 21 17 28 25 28
23 18 27 23 27 16 24 15 26 14 19 25 27 26 23 21 22 20 20 18 19 26 20 23 15 12 26 22 26 24 12 25 17 27 23 13 24 28 19 14 17 24 17 26 28 24 26 22 14 16 24 22 25 28 20 18 12 109 109 113 196 113 115 197 196 117 117 194 104 104 115 25 17 18 26 13 22 24 20 18 12 25 13 25 21 25 19 27 19 14 26 28 28 16 13 14 25 14 27 12 19 27 19 27 12 23 16 28 26 19 26 18 21 26 14 26 25 28 27 21 23 25 23 23 28 12 15 13
23 24 26 24 18 20 15 16 20 21 15 25 28 18 14 14 21 17 19 15 20 16 20 28 26 27 16 16 14 14 14 21 18 19 25 24 18 20 28 24 27 22 14 20 24 24 17 28 26 22 15 21 27 20 12 12 26 115 110 181 187 115 108 186 185 117 103 189 116 118 107 13 21 18 15 26 27 15 28 18 25 20 19 20 17 180 26 25 18 18 14 25 18 16 26 25 15 19 24 26 15 21 26 27 20 13 15 16 14 14 21 14 18 19 15 18 21 12 27 19 22 23 24 12 19 22 21 18
21 24 13 28 20 23 20 17 28 25 20 28 13 28 19 13 20 17 20 23 16 23 20 22 23 18 26 24 12 15 25 22 12 13 16 14 21 22 15 24 28 12 26 27 28 24 12 20 26 20 22 19 27 26 22 26 13 109 106 113 194 113 113 197 193 118 115 184 116 103 105 19 15 15 17 18 23 19 24 27 27 15 24 19 18 21 21 18 12 24 19 28 26 19 26 19 27 24 26 19 22 12 24 15 13 27 16 23 23 12 28 20 20 225 20 12 12 13 26 20 24 15 18 22 24 21 23 26
25 22 27 23 16 23 17 15 24 28 26 14 18 27 21 21 23 12 18 24 19 27 27 13 16 13 16 12 23 27 21 13 15 28 17 20 19 19 17 20 15 22 13 27 20 18 18 12 14 20 13 24 26 27 22 22 13 109 117 113 184 103 112 182 182 106 117 193 103 108 112 25 15 14 26 14 21 25 22 15 17 16 14 28 23 17 17 18 14 19 19 28 13 12 21 24 17 21 16 21 12 13 13 12 21 26 18 24 19 25 22 12 14 22 13 21 12 22 21 13 16 23 12 28 20 28 18 18
19 26 26 21 12 25 15 184 17 17 27 24 12 15 16 12 12 20 18 17 28 15 16 24 19 24 19 24 28 14 20 25 20 12 17 17 14 27 28 20 15 22 25 28 15 15 27 15 17 18 20 14 18 12 25 23 28 111 113 111 183 110 112 195 190 117 116 188 111 115 112 21 26 23 27 26 23 20 16 19 18 16 16 21 26 19 13 19 12 23 12 18 24 16 12 12 16 20 22 21 13 21 19 22 20 26 12 24 16 15 27 14 27 13 26 28 12 27 22 21 18 23 193 27 14 15 21 22
23 23 23 27 27 24 17 16 22 18 21 15 26 19 17 23 24 27 20 12 16 13 17 15 26 25 26 14 17 12 15 20 15 26 19 18 27 27 13 16 13 25 23 18 16 27 26 17 21 16 18 27 15 26 16 24 26 110 110 117 185 109 116 194 186 107 106 186 109 116 111 20 13 12 25 16 17 28 19 20 24 16 14 16 14 22 21 18 27 12 14 15 20 28 25 22 19 21 19 18 23 20 14 15 20 16 17 21 24 22 21 18 20 13 25 24 19 23 12 14 24 26 14 19 22 17 28 28
13 17 15 23 25 25 27 26 26 25 23 21 20 20 24 27 19 14 14 25 26 21 21 28 23 20 23 14 28 13 14 13 13 13 14 18 12 28 19 18 12 26 14 16 25 19 12 16 23 18 13 28 17 21 26 15 12 115 103 118 186 114 102 188 182 114 107 187 114 105 106 16 28 21 27 23 23 17 23 24 23 14 21 20 27 12 23 12 18 14 17 26 28 19 19 22 25 12 23 12 28 27 13 26 13 21 13 28 21 17 12 26 16 25 20 16 21 19 27 21 20 14 22 26 24 25 23 26
28 16 21 17 26 17 23 13 24 24 17 23 18 28 17 27 27 25 14 18 12 25 24 12 15 13 19 26 13 26 14 25 12 21 24 20 14 21 27 21 20 14 24 20 18 16 21 18 223 13 21 17 20 28 16 12 22 109 113 116 187 115 109 193 188 110 114 190 116 112 109 28 28 15 26 21 19 23 26 25 17 25 24 14 13 19 14 13 26 21 17 18 28 14 12 24 25 19 18 13 26 18 26 23 19 13 12 17 20 22 18 17 26 13 27 26 196 17 21 17 15 19 28 24 13 24 22 16
24 25 20 24 28 17 25 20 26 17 27 13 14 28 12 26 22 24 20 23 13 20 13 27 19 21 12 14 17 21 20 13 28 15 28 25 28 16 27 18 19 22 17 26 17 20 19 15 14 22 23 20 14 21 24 17 24 106 114 117 196 103 109 195 189 117 111 187 117 115 103 15 27 12 13 24 27 20 15 17 20 19 26 19 12 24 20 16 20 20 23 14 13 27 25 24 28 16 22 16 13 24 27 20 27 15 20 19 20 13 16 13 21 23 24 27 13 18 12 23 21 19 21 26 15 23 26 17
12 25 12 17 16 26 16 15 21 13 25 19 24 25 19 20 21 17 19 25 23 20 18 24 18 22 12 14 14 26 13 15 25 18 12 15 13 19 20 17 27 25 20 16 20 20 28 19 14 20 15 25 13 18 15 24 13 110 105 111 191 108 105 193 185 111 106 192 108 107 103 22 27 25 16 12 20 16 24 21 25 23 18 18 17 27 22 23 14 17 26 25 12 20 22 17 23 12 17 15 21 17 19 28 12 14 14 27 23 23 19 18 21 18 19 26 20 27 15 27 16 24 27 13 13 13 27 21
27 15 27 22 24 21 23 20 19 18 14 23 24 13 13 24 27 26 28 25 13 17 16 26 22 12 17 13 20 226 24 17 28 27 15 25 16 25 25 14 21 15 26 13 16 18 21 23 22 27 17 21 12 18 12 20 21 106 106 114 185 104 112 198 198 104 115 182 106 118 113 13 26 25 13 27 26 20 25 27 21 27 27 20 15 24 15 27 26 25 15 12 20 28 27 14 14 18 16 27 26 22 20 12 13 22 21 19 16 23 24 26 17 24 12 22 14 23 19 27 17 25 28 27 27 22 26 16
19 19 12 24 28 16 28 27 22 26 21 27 23 17 27 13 18 19 15 24 13 24 25 18 18 27 12 19 20 225 21 22 19 12 26 16 14 13 20 21 12 20 21 27 13 18 26 12 14 17 15 14 16 21 14 19 25 114 104 114 182 110 110 192 183 106 107 191 118 102 106 21 27 20 25 16 21 20 26 17 16 19 24 18 16 28 18 18 22 12 19 13 28 20 19 26 21 17 15 12 28 27 25 23 19 13 27 23 14 16 21 25 22 15 17 24 22 13 27 26 15 28 24 28 25 19 24 27
107 105 105 106 112 117 116 110 110 111 116 111 118 103 118 102 111 106 113 107 113 117 108 105 107 111 108 108 118 108 105 104 113 115 114 116 113 115 105 114 112 110 115 107 112 118 118 115 104 20 110 110 106 116 111 111 114 105 117 110 188 114 108 193 193 109 107 183 108 117 105 112 249 249 243 115 112 110 108 249 238 251 108 104 116 102 117 106 117 114 109 111 113 110 109 105 246 250 240 118 113 102 107 107 107 116 117 102 111 103 105 108 112 102 113 110 117 111 104 106 106 114 112 106 118 109 116 117
112 110 109 117 108 114 109 117 113 118 113 112 108 117 113 117 117 106 111 115 111 113 107 114 103 113 115 112 112 105 114 111 106 109 115 118 107 116 103 115 109 108 117 116 115 104 107 104 103 116 118 116 104 110 102 106 115 107 110 105 197 102 109 188 198 110 107 183 102 109 106 248 249 239 247 108 115 237 237 249 245 251 115 107 106 107 104 102 110 111 113 117 111 110 103 239 244 237 252 107 109 102 114 115 105 115 107 105 109 112 109 102 109 117 118 117 108 109 112 114 113 117 104 114 103 110 109 110
116 114 113 108 115 115 103 111 106 114 106 116 113 106 112 113 113 102 114 111 102 107 103 105 116 117 116 105 112 102 111 108 105 103 115 108 116 115 108 115 113 115 106 118 113 112 112 111 115 118 103 106 117 103 106 115 103 103 110 108 186 107 118 197 191 109 116 189 118 116 117 241 251 241 239 117 103 243 245 243 250 238 105 104 102 109 102 114 112 110 112 112 117 106 102 249 243 249 250 103 114 109 105 113 118 110 118 108 114 112 104 117 116 108 103 114 104 116 110 106 115 118 114 111 113 118 109 108
191 182 185 196 196 188 184 190 193 197 183 187 185 189 183 185 195 196 183 182 194 196 188 195 195 197 195 194 185 197 196 197 182 186 194 185 187 187 195 193 196 189 186 184 192 182 198 183 193 187 192 196 192 188 182 192 182 107 113 103 194 105 112 184 182 102 105 196 102 118 102 196 182 187 182 185 192 186 184 191 187 188 192 192 191 184 188 188 187 195 189 192 188 182 187 186 194 190 182 193 191 185 197 190 189 197 185 187 196 184 196 193 188 196 184 194 183 185 192 183 193 186 190 194 192 195 198 191
108 102 115 111 116 115 103 116 117 118 107 106 116 113 115 102 114 109 117 104 114 107 105 108 108 117 106 105 114 108 110 117 108 104 112 104 114 109 20 108 105 110 104 113 112 115 111 105 113 116 113 115 104 109 104 110 117 114 107 116 188 117 116 184 194 115 116 190 105 106 113 115 199 116 103 107 105 111 103 112 102 102 110 105 111 105 115 251 252 245 245 105 103 103 102 116 111 118 102 112 108 111 118 108 113 103 102 107 107 117 116 109 104 111 116 109 103 111 114 107 113 111 116 105 102 115 116 115
109 109 116 117 111 104 112 117 107 113 117 102 109 116 111 114 104 112 108 102 116 107 108 111 109 104 105 111 107 114 113 113 105 117 118 114 110 117 117 115 113 114 110 104 103 111 102 116 109 111 109 113 116 102 106 111 113 118 107 114 189 103 110 189 190 113 114 194 118 104 111 109 118 112 116 112 109 116 112 109 115 105 116 107 113 106 117 243 246 250 239 110 103 107 102 102 113 118 108 106 103 115 115 104 115 116 104 103 113 110 111 102 114 105 103 118 113 104 116 103 112 102 103 111 117 109 114 108
187 187 193 186 191 185 184 186 194 194 187 185 186 195 185 191 197 198 188 187 193 182 189 192 190 185 182 194 189 197 197 191 191 190 198 186 192 195 197 20 192 188 184 190 187 184 187 197 190 183 197 184 187 192 186 196 195 20 109 118 197 112 115 190 198 115 111 189 111 116 114 183 195 185 196 190 196 197 189 195 185 185 197 198 198 187 192 241 251 245 185 195 197 191 196 190 197 198 183 184 183 198 198 187 183 193 197 193 194 185 182 197 191 195 187 186 185 185 187 194 182 188 196 198 194 195 193 190
192 198 194 183 190 185 186 194 190 191 189 185 188 187 187 193 193 197 20 190 198 188 195 183 195 186 195 196 183 190 191 185 198 188 182 185 187 187 188 185 186 185 194 186 191 194 193 184 182 190 197 194 187 187 194 188 193 102 104 109 194 111 113 182 197 103 20 197 113 106 106 187 198 186 198 188 187 197 196 191 20 184 186 246 20 183 183 192 182 195 190 194 187 189 20 184 187 197 183 188 185 198 185 187 188 190 185 188 192 185 187 182 182 191 198 189 191 190 184 193 196 197 193 187 191 193 195 186
106 107 111 112 114 104 113 109 102 109 111 109 111 105 105 114 117 118 104 105 110 114 111 118 115 112 108 102 114 104 109 110 112 110 106 105 106 111 115 113 111 112 109 109 114 107 117 118 113 113 106 103 116 111 110 110 103 102 102 112 188 109 116 191 195 107 109 185 107 106 107 114 103 104 103 105 108 110 105 106 116 102 109 116 114 111 118 108 109 110 110 118 104 109 107 114 107 106 115 109 104 106 109 118 112 110 103 106 113 118 102 112 108 108 113 117 106 108 118 105 105 109 107 105 110 102 106 105
117 112 105 118 114 111 103 104 113 111 107 118 118 115 102 117 102 109 102 106 102 110 114 113 111 105 105 111 116 107 105 115 20 109 109 118 116 112 106 108 110 107 105 104 112 110 110 114 111 108 106 111 114 107 112 103 105 112 103 111 184 106 106 193 192 109 117 188 107 105 118 116 113 112 111 115 113 109 110 118 104 109 108 112 115 105 112 113 113 105 104 116 109 102 114 108 114 117 117 105 104 118 113 116 108 111 106 117 111 106 111 201 104 111 107 112 104 117 115 110 103 106 115 117 20 107 103 105
187 192 185 190 184 184 182 187 184 191 198 192 187 198 185 197 190 192 194 184 189 190 198 185 183 196 185 182 196 191 193 197 197 196 183 188 185 185 192 195 183 183 196 192 195 193 187 197 188 192 188 198 192 192 198 197 197 103 102 105 184 102 113 197 196 113 104 188 102 112 106 183 190 193 198 194 191 183 194 196 192 191 190 194 192 192 196 189 197 190 187 195 188 194 182 183 192 191 188 191 195 192 198 192 195 190 198 185 191 188 188 190 198 198 195 194 197 189 187 193 198 197 184 197 183 197 197 196
116 112 105 104 106 110 113 111 115 114 109 118 104 117 103 108 102 111 107 103 118 108 108 117 116 104 116 116 108 112 117 103 108 106 111 118 112 103 107 114 109 114 118 104 108 105 112 108 112 117 103 111 109 104 104 104 105 103 110 112 183 108 115 193 182 117 115 196 105 109 116 113 107 106 116 114 103 113 104 103 110 115 115 117 103 115 20 107 103 114 104 108 113 111 116 112 102 20 113 111 110 112 104 108 117 116 105 105 118 107 109 105 116 108 112 118 109 110 108 116 105 114 115 113 109 115 103 114
109 113 113 113 115 114 108 104 113 104 102 110 111 105 106 104 118 109 111 118 114 112 108 104 117 111 112 112 111 104 109 107 107 108 105 117 108 116 110 106 107 109 117 104 107 116 109 109 116 115 106 111 107 106 111 108 114 103 107 107 196 104 118 198 188 117 103 194 118 113 108 106 105 102 116 108 205 105 104 113 116 109 104 112 103 109 112 102 114 105 111 114 115 111 108 104 107 108 112 110 112 102 105 112 116 108 117 104 102 108 117 116 111 107 113 115 108 109 111 117 106 111 114 114 116 111 112 217
107 108 113 102 113 104 112 103 109 102 109 111 117 113 106 111 115 104 118 106 113 104 116 108 106 104 107 117 118 111 111 104 103 105 111 102 20 108 103 117 117 107 103 118 113 118 110 103 117 103 109 107 103 111 104 113 113 112 110 117 195 111 113 182 187 110 106 188 118 115 107 118 113 117 117 108 102 109 115 117 117 109 107 115 111 117 104 104 115 116 116 103 110 105 102 109 117 105 107 102 112 114 115 108 116 109 103 117 106 104 115 103 111 112 105 118 117 109 102 116 117 117 112 107 118 118 106 117
17 24 22 13 28 21 15 26 14 15 15 12 219 230 12 19 20 26 24 18 27 20 20 12 15 15 14 28 23 12 23 14 19 24 14 17 21 24 21 17 27 23 16 17 20 27 23 21 17 27 13 12 27 18 17 12 25 105 111 109 182 118 114 191 182 117 104 192 102 106 116 18 19 27 25 18 28 19 15 18 19 26 12 26 26 25 15 22 13 21 16 18 17 22 12 12 26 19 17 17 22 18 28 27 16 17 28 24 27 24 23 27 19 18 24 20 21 28 17 16 12 14 23 26 12 25 15 14
13 21 21 25 28 27 24 23 28 16 26 28 230 225 24 15 14 15 13 27 19 25 17 26 23 25 13 19 15 28 28 18 15 25 25 26 24 13 14 23 20 21 20 14 20 14 19 28 27 22 20 26 12 13 26 24 22 114 102 108 187 109 112 192 196 118 104 198 116 111 103 19 27 26 16 28 16 15 18 28 12 15 15 27 20 13 26 23 15 20 21 26 18 27 27 14 18 17 22 12 26 14 21 16 19 13 19 20 12 24 20 25 22 14 27 28 18 22 13 16 18 17 25 19 22 18 25 12
23 16 19 15 23 21 27 19 14 21 15 14 23 25 15 26 14 19 12 13 28 20 14 12 24 16 27 24 20 16 20 19 26 24 16 19 28 13 27 13 17 17 19 197 17 15 16 19 14 12 19 23 17 25 15 24 20 117 117 106 187 118 118 194 194 106 105 194 105 109 116 17 20 25 12 26 26 12 23 18 12 26 25 24 15 14 16 20 20 14 23 15 19 24 17 17 23 24 18 16 27 12 15 24 20 24 12 19 22 20 18 13 23 22 18 16 22 19 26 13 17 14 27 14 25 21 12 25
17 15 26 22 28 19 21 18 20 17 13 16 13 28 19 23 23 17 25 24 26 23 23 17 28 18 13 24 27 22 20 24 23 12 24 17 14 24 24 19 28 24 22 25 28 21 23 26 26 26 18 17 21 15 16 12 27 117 111 20 187 117 104 192 197 103 105 198 106 107 118 24 23 28 13 20 28 26 12 19 13 20 26 24 24 17 16 19 14 22 23 19 27 20 13 22 20 13 17 28 18 14 16 25 24 24 21 19 13 27 14 18 28 25 24 28 22 22 24 24 12 15 12 22 21 14 12 12
14 23 19 12 23 28 17 19 18 21 25 12 15 22 24 20 18 24 18 25 24 20 24 20 22 15 19 22 14 27 26 23 23 23 13 15 27 28 26 22 13 16 27 21 13 27 18 23 20 17 21 17 25 24 15 25 19 115 111 105 189 108 114 184 185 116 108 183 112 118 118 25 13 22 28 24 22 24 12 26 14 15 12 14 24 18 223 13 25 12 22 20 14 13 16 16 25 18 19 18 22 17 16 18 28 27 16 13 28 14 21 28 23 15 17 26 20 24 12 14 16 17 28 18 27 15 24 19
26 20 21 19 14 15 28 21 13 21 21 26 21 22 14 13 16 15 20 20 27 12 15 25 28 28 25 23 12 27 26 22 24 20 24 19 18 26 22 15 24 23 13 27 15 28 19 13 17 15 20 27 17 18 25 18 25 115 111 107 198 105 103 188 195 116 102 184 105 107 102 25 24 25 23 20 26 22 18 14 235 27 22 26 13 15 20 17 20 15 13 19 13 26 21 22 19 26 24 23 14 23 14 19 207 23 13 15 24 24 28 26 13 16 23 19 28 14 14 19 24 18 16 28 25 25 20 22
27 12 21 15 14 20 26 15 19 15 16 21 23 16 23 25 238 25 12 28 18 23 26 27 15 28 17 18 13 27 21 21 24 25 25 16 17 15 12 14 21 24 15 26 23 23 22 25 25 18 18 19 13 21 17 15 25 118 106 105 192 109 109 186 190 106 114 198 102 102 116 15 27 26 22 27 22 19 22 22 15 20 12 21 18 27 15 19 22 25 19 13 16 19 25 24 16 22 13 26 15 17 16 14 26 17 17 14 20 27 24 21 17 23 13 15 23 13 13 18 23 27 28 18 25 23 24 18
21 26 24 20 20 26 18 28 16 22 26 25 17 28 22 18 19 26 26 26 27 26 18 24 22 12 19 13 20 18 24 25 25 25 16 21 17 14 13 24 20 24 20 27 18 17 19 27 14 27 18 13 13 16 15 28 12 116 113 103 188 105 102 193 186 104 105 192 110 118 107 25 25 12 20 28 27 19 21 28 23 13 25 24 12 28 21 15 25 24 15 22 20 28 14 25 20 18 21 20 26 22 18 16 27 19 19 15 18 22 13 12 21 23 20 18 19 18 15 12 24 24 12 22 20 19 28 22
14 14 16 24 19 27 13 26 14 22 23 12 18 13 12 13 20 15 20 15 14 26 23 19 24 28 23 27 20 16 23 190 24 21 18 21 18 19 24 17 22 13 13 27 13 13 21 16 15 17 25 21 20 17 19 22 27 116 113 115 190 110 103 192 193 117 102 185 104 103 109 13 16 20 12 22 26 16 27 18 18 23 22 13 13 16 28 19 22 26 18 14 19 23 16 17 19 25 17 16 17 17 27 27 18 27 14 15 15 16 25 23 25 18 16 25 25 22 215 18 17 26 21 25 18 28 20 24
16 12 28 26 19 13 16 12 18 27 16 25 23 13 26 13 18 25 13 26 21 20 26 28 28 19 18 12 17 14 16 16 27 12 22 15 20 16 16 24 14 17 16 20 19 12 17 22 15 17 25 22 19 18 14 24 15 118 107 116 188 118 20 183 193 112 108 186 111 102 112 26 27 28 13 17 22 14 26 26 22 14 25 16 23 23 14 14 18 21 27 14 20 28 15 22 15 12 22 19 15 26 16 28 22 23 28 17 17 23 27 24 18 13 22 16 12 24 24 17 17 21 18 16 14 26 28 27
23 28 23 26 20 15 16 28 28 12 20 14 25 17 13 24 28 27 12 25 20 22 13 25 20 20 19 17 20 20 27 25 12 13 12 20 18 22 18 28 14 27 27 26 25 16 12 22 13 16 19 24 25 18 26 13 27 111 105 103 187 104 102 182 184 110 103 185 108 106 116 18 22 20 16 16 26 19 20 21 15 18 19 23 25 21 21 13 27 25 23 22 21 17 24 12 13 22 21 26 25 22 14 19 22 16 24 14 24 24 18 26 18 21 25 27 23 14 26 22 13 18 17 19 13 18 23 28
20 28 22 24 23 21 13 18 187 15 20 17 16 17 25 25 21 15 24 21 26 14 25 28 12 20 22 16 26 22 20 23 26 18 26 14 27 28 12 20 17 24 15 25 13 180 14 18 17 19 26 21 17 24 21 15 24 109 103 112 195 105 107 185 187 113 117 191 108 118 104 15 25 26 16 16 28 19 21 27 21 25 15 22 19 18 23 23 19 12 27 20 16 19 15 13 24 19 22 12 25 27 13 26 20 16 27 19 19 28 16 12 12 15 25 22 21 19 13 26 15 27 25 27 23 25 18 28
23 20 13 27 24 20 20 27 27 13 22 22 18 19 25 15 13 22 23 16 12 20 27 22 22 25 18 13 18 23 25 26 21 23 23 15 12 14 20 20 24 14 26 21 24 16 18 21 27 16 27 28 27 13 14 17 16 103 102 105 191 105 114 189 184 110 106 192 114 113 114 24 20 17 18 25 25 13 17 26 20 20 17 14 18 12 15 27 12 22 15 12 21 19 15 22 15 12 15 17 22 25 17 14 18 13 25 27 14 14 24 16 19 18 18 20 24 21 20 13 21 24 15 27 20 18 16 19
20 25 21 24 24 12 15 12 15 21 14 16 12 23 27 23 27 28 20 26 20 21 25 24 22 13 26 15 27 27 17 16 27 20 17 24 15 27 22 209 19 16 14 21 15 26 27 20 28 19 16 28 13 23 17 24 23 103 102 102 184 114 108 182 193 113 110 185 116 107 118 15 13 16 16 24 20 25 12 15 25 15 12 23 24 18 20 27 20 18 25 16 21 27 28 22 16 25 15 13 12 19 16 14 27 22 14 16 26 14 25 17 25 12 23 23 12 12 18 15 12 25 23 20 24 25 19 21
16 20 20 25 19 16 25 13 24 21 22 26 21 15 16 16 18 16 20 25 17 24 19 17 17 14 17 22 16 15 14 26 16 28 19 22 19 17 16 18 20 27 13 19 17 24 19 24 21 27 19 16 27 27 17 19 28 110 111 112 191 109 113 194 186 112 113 183 115 111 106 20 16 20 16 20 15 18 28 18 21 13 22 17 14 15 26 23 22 26 12 20 26 18 18 23 15 13 20 21 26 26 13 20 28 13 23 27 13 15 20 13 22 14 24 26 20 14 26 22 24 17 24 20 12 19 25 15
25 20 15 25 21 20 28 25 27 18 13 27 13 18 25 19 28 24 28 21 15 19 21 14 20 15 22 14 18 22 15 13 24 12 22 13 16 16 20 27 28 14 20 27 19 14 27 28 22 15 25 12 18 13 19 25 20 105 115 106 196 110 109 197 187 115 107 197 106 105 102 25 18 15 24 19 27 18 14 13 21 17 21 20 23 21 20 15 17 18 14 224 16 28 20 14 20 18 19 12 23 24 14 28 17 17 20 20 24 28 17 25 26 15 13 27 22 27 27 24 12 25 26 24 19 28 25 28
12 16 28 21 22 23 20 24 25 21 27 26 16 20 23 14 23 12 16 203 12 20 17 22 20 23 28 19 21 17 21 27 16 13 26 14 20 15 20 19 28 27 27 15 26 21 20 14 20 18 16 24 25 28 18 26 19 117 103 113 186 107 113 191 197 104 110 183 112 106 107 13 24 16 24 14 26 14 22 20 16 14 21 21 17 25 20 14 25 17 26 16 16 15 13 23 15 26 19 12 15 22 12 23 27 14 26 27 12 15 15 24 25 12 12 24 20 20 23 26 15 12 19 22 15 15 23 24
14 26 20 26 14 20 19 19 18 20 23 25 14 12 15 18 20 25 16 12 15 13 28 20 17 12 25 28 22 12 18 12 15 12 14 24 20 12 16 17 22 12 14 12 12 13 12 16 13 13 14 26 23 21 22 13 23 241 111 116 198 110 103 188 190 113 114 186 114 113 105 27 19 28 23 13 22 20 17 25 24 21 17 14 25 28 26 28 23 23 28 20 18 14 21 26 21 20 15 18 22 23 15 16 14 28 28 18 27 24 28 21 14 22 22 17 20 16 24 28 196 25 19 12 17 17 21 25
28 15 13 18 17 12 24 27 21 25 22 23 25 18 12 22 24 28 21 18 14 23 21 26 16 13 15 16 22 14 26 27 12 28 18 17 18 20 20 23 27 28 17 26 27 13 23 19 22 15 18 21 12 17 28 19 13 108 117 110 188 20 113 195 191 105 118 182 102 117 111 20 15 27 15 27 26 22 28 21 23 23 13 28 23 28 25 12 20 20 26 25 17 27 13 21 14 22 18 13 25 15 12 14 24 14 13 23 21 24 26 19 28 24 23 12 26 12 20 27 24 20 24 21 14 23 26 16
17 20 18 16 16 17 12 27 22 24 26 23 24 26 25 16 26 12 12 21 28 20 24 25 28 12 24 16 13 27 16 26 24 28 27 24 24 24 24 25 15 25 17 14 13 21 15 12 27 23 28 25 14 23 22 12 28 110 109 102 20 114 108 182 182 106 114 187 116 111 107 23 19 25 13 22 27 20 28 28 18 25 20 28 27 22 18 12 27 25 15 24 26 26 16 21 12 12 20 26 27 25 12 21 17 14 19 16 25 16 13 18 21 23 15 13 19 20 17 14 21 20 23 19 28 28 21 12
14 18 27 14 21 26 15 22 20 28 26 17 26 26 20 15 14 20 25 17 19 25 14 17 23 18 20 15 23 12 24 16 20 20 21 28 22 26 18 20 12 25 12 25 24 26 20 22 27 18 28 20 23 26 17 14 13 113 106 105 184 107 105 189 186 104 104 184 112 103 108 21 22 26 24 26 12 19 16 16 26 28 13 13 21 20 12 28 25 27 19 14 16 12 22 19 22 27 21 28 22 26 24 16 12 19 13 27 27 14 13 13 14 13 28 17 23 25 27 19 16 18 19 25 17 12 21 27
27 26 12 22 19 27 23 15 27 18 28 15 15 22 21 17 24 25 22 15 19 24 24 28 28 17 16 14 16 23 21 16 20 22 28 21 22 26 25 17 26 21 20 21 15 19 27 12 28 23 18 14 19 22 27 24 18 109 104 113 185 108 106 186 198 111 102 182 110 105 116 24 20 20 21 20 27 21 26 19 21 16 27 27 21 24 22 17 26 15 25 28 19 23 13 20 15 27 13 24 22 13 19 24 18 26 16 18 12 28 23 24 13 15 17 24 17 24 21 26 26 21 19 14 14 26 21 19
27 19 12 22 26 20 23 21 27 26 27 19 24 23 23 18 17 15 16 19 15 18 21 25 21 24 24 20 21 24 12 27 23 15 24 23 24 13 12 13 27 17 17 22 20 19 20 15 20 14 20 15 18 19 20 12 23 106 102 109 189 111 112 197 184 109 114 194 117 111 107 20 17 25 23 16 16 14 20 13 23 20 26 15 16 26 28 14 26 24 23 20 24 19 15 14 25 26 14 16 23 24 13 16 22 18 25 22 24 26 27 21 23 28 17 13 22 14 20 19 16 26 18 23 22 21 26 14
21 18 13 12 21 21 13 28 26 28 25 22 20 27 19 15 16 27 26 12 17 28 23 13 19 21 16 22 25 20 18 21 22 24 13 21 21 22 12 26 24 27 28 15 12 21 28 26 25 23 25 20 23 28 15 26 20 117 115 103 184 114 113 187 184 105 109 187 109 109 105 226 228 17 18 23 15 28 13 22 24 26 22 12 24 17 13 14 17 249 20 22 15 28 14 25 12 12 28 17 26 17 23 27 23 19 21 21 15 16 19 25 24 242 12 24 21 25 14 18 14 21 21 14 19 16 19 18
21 23 19 25 27 21 12 22 24 27 21 14 20 19 16 21 15 20 27 20 23 25 23 16 25 16 23 21 27 18 14 26 25 28 15 26 28 16 26 19 28 27 25 17 12 19 16 27 22 14 20 15 20 28 20 26 17 104 116 20 196 110 104 184 183 104 113 193 102 111 112 22 17 14 16 22 14 14 17 12 26 19 24 17 12 17 14 25 15 16 21 20 12 16 26 27 19 12 14 28 24 25 22 14 13 14 18 14 21 16 24 26 22 16 15 13 19 14 20 28 15 26 28 24 27 22 14 12
17 27 19 25 24 23 24 16 24 26 15 16 21 12 14 17 16 14 14 26 16 22 25 21 17 24 16 20 26 18 25 14 20 15 17 24 17 14 23 28 15 18 19 16 15 13 26 17 17 25 25 19 24 22 16 13 28 114 117 104 188 109 115 186 192 109 103 197 110 104 107 21 23 23 24 20 19 14 22 15 26 26 22 23 14 25 14 18 14 23 18 26 21 26 17 26 12 22 22 12 19 19 14 15 19 21 12 18 14 23 16 23 14 28 13 20 15 26 20 19 26 28 20 26 26 20 12 12
24 24 26 13 18 27 18 25 23 24 28 18 14 19 20 26 21 19 28 26 24 20 16 15 27 19 28 26 19 14 24 19 25 12 12 26 16 23 25 14 17 18 13 23 24 18 19 26 22 15 14 23 14 17 19 17 19 110 102 105 189 110 105 183 184 107 116 185 114 106 104 13 22 19 19 17 24 21 22 22 21 16 14 21 19 20 28 12 24 27 14 27 24 12 16 22 18 14 18 17 21 20 17 21 26 19 16 17 22 19 22 17 21 25 14 26 26 25 17 13 22 19 20 12 13 21 16 25
24 12 19 23 25 27 15 18 27 20 28 15 19 17 19 16 12 21 22 27 22 23 22 27 21 27 18 26 17 16 14 17 15 20 15 16 23 20 25 27 15 19 14 21 13 21 23 12 23 12 24 21 18 13 28 22 22 109 115 108 182 115 115 186 194 116 107 197 103 102 107 23 24 28 16 20 21 20 27 15 23 15 28 19 16 17 19 15 26 27 27 15 19 16 14 24 25 20 14 17 18 16 28 21 24 20 26 20 28 17 21 17 19 27 19 21 22 19 18 27 26 25 22 17 27 28 26 19
19 19 18 28 23 18 12 17 15 27 22 12 13 20 19 21 20 24 15 27 20 17 21 21 26 13 26 16 21 24 17 22 26 26 17 28 20 16 19 28 18 14 22 19 24 19 23 23 13 24 13 19 26 28 17 15 25 111 108 108 184 108 110 182 186 108 109 193 116 112 118 19 21 23 16 16 21 16 19 23 26 20 16 21 22 19 18 27 20 16 24 19 17 13 25 15 23 24 21 18 28 17 14 14 22 16 16 28 26 25 27 28 26 27 24 22 27 14 25 20 22 13 15 25 24 23 25 19
22 21 25 18 27 26 17 18 19 27 12 23 13 16 21 18 27 19 26 14 28 28 28 27 12 16 26 21 17 25 15 18 20 23 17 16 28 23 23 28 16 23 17 27 15 16 14 20 18 22 28 23 16 19 28 14 26 118 102 106 185 104 112 191 186 114 108 187 111 111 116 22 25 12 21 27 28 24 26 19 18 27 28 25 16 16 12 17 27 28 21 20 216 16 20 27 25 15 20 26 13 15 18 27 17 24 25 22 20 17 12 16 22 12 22 28 15 14 23 24 17 21 19 28 13 21 18 17
21 22 16 17 18 27 26 24 28 27 25 19 17 18 15 21 23 21 16 22 24 27 12 26 27 22 24 14 21 24 22 25 28 28 25 28 24 20 21 27 25 26 22 22 28 23 16 12 13 21 12 23 24 21 21 24 12 114 111 104 192 115 108 193 188 117 109 184 114 116 113 19 21 20 25 19 17 24 24 27 26 18 19 20 12 14 14 19 21 25 24 20 27 19 23 28 18 27 16 12 18 20 26 16 24 17 23 15 25 12 20 16 21 15 17 20 24 13 24 16 22 25 26 14 26 13 28 19
22 28 16 16 24 25 19 15 23 26 23 20 28 12 17 21 27 14 20 25 12 20 20 16 25 27 17 25 20 21 17 20 19 27 17 20 16 14 17 18 24 25 21 24 23 24 15 16 16 20 25 18 23 20 28 26 12 103 118 117 183 107 107 190 193 105 113 185 111 111 111 26 26 24 16 16 20 21 22 26 21 14 23 27 24 19 19 23 24 28 16 18 28 19 26 17 16 25 25 24 26 27 16 28 22 13 17 12 27 28 15 15 24 25 24 17 14 14 21 18 25 27 17 21 26 18 13 22
12 19 14 17 19 21 22 21 20 28 22 18 15 20 12 22 14 18 15 21 22 22 20 24 12 28 12 13 13 13 20 209 26 13 20 14 22 19 22 24 28 22 24 28 15 18 18 17 19 18 17 17 21 18 20 22 14 112 105 104 186 102 115 190 198 107 108 194 110 116 108 15 13 18 17 17 25 17 28 13 13 13 28 25 26 23 17 12 26 18 25 24 12 23 26 26 26 20 23 25 25 23 26 17 15 27 12 23 23 23 18 12 16 19 18 15 17 23 21 24 21 17 26 17 25 19 12 21
22 18 27 16 16 27 18 19 26 14 17 22 14 19 22 17 21 25 21 24 25 18 230 27 27 24 28 16 23 12 14 14 18 12 13 23 14 23 21 17 22 19 21 18 23 20 24 25 28 28 13 22 28 17 15 12 27 106 111 108 184 106 108 195 186 110 113 189 108 104 110 18 24 24 23 17 13 25 21 28 15 21 23 17 13 15 18 13 24 16 23 12 20 27 23 24 14 12 25 17 22 20 21 25 16 17 25 23 17 18 26 20 19 12 25 24 16 25 22 16 18 26 14 25 15 18 20 15
17 12 19 18 14 12 27 20 23 17 18 27 27 26 27 16 24 28 15 22 26 18 24 13 16 13 27 27 24 16 12 26 27 28 24 20 16 14 19 15 21 24 24 12 27 17 20 13 26 26 27 16 21 23 12 18 21 112 104 114 191 109 108 189 195 118 105 187 116 106 107 21 12 18 25 20 19 15 13 25 22 17 27 22 17 27 19 12 26 15 16 27 20 19 17 25 18 26 17 16 16 18 14 24 23 24 26 28 16 26 12 19 16 22 25 22 17 18 18 19 28 26 17 18 14 26 19 16
16 28 18 17 22 18 28 18 28 23 22 22 20 15 15 28 17 21 23 18 14 16 26 12 13 21 21 23 25 17 12 28 18 14 16 26 14 14 19 26 27 26 19 28 22 24 23 19 16 21 19 26 19 18 28 23 23 103 105 110 191 103 110 198 20 109 107 190 112 106 115 25 21 15 12 23 23 16 23 17 18 21 15 18 20 16 23 28 20 26 28 22 18 14 12 16 17 13 16 19 17 26 27 18 23 25 23 24 20 27 23 27 22 20 17 23 26 26 22 25 16 26 27 18 18 23 24 13
26 13 19 18 24 27 25 28 24 14 26 19 23 22 22 17 20 18 21 12 16 16 213 16 25 14 23 20 26 19 15 21 28 25 19 20 25 13 23 27 17 13 19 20 16 15 26 13 24 27 21 13 24 28 22 14 17 118 106 109 191 111 102 182 196 108 106 194 116 112 117 19 16 20 20 21 27 16 15 18 18 26 18 28 21 13 16 14 26 14 26 16 14 13 27 27 15 19 16 15 26 22 20 17 16 25 21 27 18 20 26 26 12 21 19 20 28 17 19 23 28 22 26 14 14 19 26 18
19 12 22 13 23 20 17 14 20 21 20 21 12 26 20 17 28 25 15 28 12 18 17 23 20 20 13 23 24 26 26 19 21 20 21 19 18 15 24 28 22 24 27 17 14 16 28 21 19 13 20 25 18 15 254 22 14 102 106 107 194 104 114 197 190 102 113 190 106 103 110 189 20 28 17 22 25 21 14 21 13 14 19 19 16 28 24 23 12 17 20 19 17 22 22 24 26 20 13 23 28 16 14 25 20 15 20 13 24 28 25 23 15 24 27 15 17 18 13 12 20 13 24 13 13 17 25 14
15 18 20 20 13 27 23 26 22 18 28 25 14 27 19 15 12 15 19 18 25 19 28 22 27 16 20 17 28 14 15 26 28 27 28 15 16 26 13 24 27 15 22 14 14 27 17 20 14 25 16 27 27 13 14 20 12 109 103 105 190 109 102 198 192 110 114 196 105 113 108 24 12 16 14 21 28 28 22 24 21 17 16 21 28 18 24 17 25 27 13 21 19 22 22 26 12 14 27 28 27 12 17 14 25 27 12 25 24 17 16 25 13 28 28 22 20 15 28 28 25 25 26 22 16 17 23 18
13 24 27 12 25 27 28 23 17 17 19 14 17 14 22 21 14 20 23 17 17 24 27 28 27 23 14 13 22 18 18 23 14 15 16 19 20 19 18 12 18 21 15 17 22 18 17 12 27 26 27 24 13 28 13 15 25 110 104 110 195 109 111 190 197 112 113 186 116 116 116 24 15 23 13 25 28 22 28 22 13 13 24 14 14 24 27 15 18 24 17 27 23 22 22 14 26 13 27 12 25 22 28 13 17 16 25 23 15 26 28 19 14 22 18 14 28 28 13 24 19 16 23 17 23 28 19 24
12 26 14 16 18 19 28 27 24 14 13 15 21 21 21 25 27 21 13 20 19 26 16 28 12 22 18 26 21 26 24 22 13 18 20 26 21 19 24 19 16 28 21 18 14 25 12 15 27 14 28 26 14 24 12 27 16 110 115 105 196 103 106 194 192 117 102 187 107 102 115 21 26 17 232 23 28 27 24 23 20 28 23 17 21 15 17 15 26 17 25 26 23 19 14 14 25 23 14 27 16 12 26 18 27 18 28 14 26 12 26 21 13 27 23 18 28 16 22 19 26 14 18 19 18 23 26 16
20 21 17 21 24 19 14 18 20 15 13 24 18 23 26 20 20 13 24 24 26 21 25 19 26 17 21 16 22 25 13 28 14 14 25 12 20 13 23 12 24 22 25 26 215 21 20 12 26 24 13 23 211 25 25 28 24 118 107 104 182 104 115 190 191 114 108 189 111 106 112 23 12 25 16 26 24 13 16 27 26 14 14 12 28 12 17 14 26 17 25 22 26 22 17 25 24 20 22 23 13 16 27 17 27 24 19 15 18 12 13 16 16 18 28 16 24 19 22 18 17 25 18 14 24 26 18 20
13 21 17 24 28 18 26 22 25 14 25 19 16 28 25 20 17 21 18 12 19 21 13 26 17 14 12 12 23 15 22 21 26 22 25 17 21 25 20 13 22 19 16 14 18 25 18 12 17 24 17 26 19 23 14 17 23 113 103 113 182 110 111 188 194 110 104 197 104 103 108 21 22 28 26 17 12 22 15 17 20 21 15 22 22 23 24 17 13 12 19 22 18 14 17 12 24 22 13 23 21 21 21 21 16 17 20 27 26 27 16 16 28 23 18 27 13 19 14 19 16 20 13 26 19 22 26 12
20 28 15 28 21 24 19 16 14 17 12 22 13 20 18 13 28 12 21 22 24 21 22 12 15 21 26 12 26 17 23 28 23 28 13 13 25 19 27 17 21 21 14 17 21 24 25 19 16 17 16 25 22 19 21 20 26 106 111 103 187 116 110 188 183 118 115 193 102 107 117 23 13 20 20 12 25 22 24 27 26 20 17 18 15 18 22 22 18 12 23 25 20 21 15 15 24 14 27 27 16 15 18 28 15 20 18 23 23 15 17 16 22 22 21 14 28 13 26 24 18 27 17 14 20 24 27 27
20 14 13 27 21 15 15 19 24 18 16 21 17 15 18 24 21 27 15 20 15 23 23 12 19 27 20 12 20 27 14 19 12 12 24 17 15 21 24 20 19 20 16 15 24 16 21 23 14 28 24 14 18 24 27 18 26 110 111 102 182 103 117 193 193 104 113 188 113 117 105 16 16 14 21 25 23 25 27 15 12 20 14 17 26 23 27 15 22 25 20 14 16 13 28 24 22 16 15 14 20 26 20 14 24 26 27 17 21 18 26 19 15 12 19 21 16 24 19 28 18 27 13 22 12 20 27 25
13 26 28 28 28 28 13 26 27 13 23 25 13 23 20 27 26 15 17 26 13 13 23 25 22 25 22 22 15 20 27 20 12 18 28 13 26 25 22 13 15 26 22 18 21 24 24 20 27 20 17 22 26 19 28 18 21 118 118 109 192 117 118 195 188 115 114 193 110 105 102 17 28 14 18 26 24 24 13 22 23 18 18 12 24 18 19 19 237 26 23 17 26 21 14 12 27 12 21 20 15 24 12 26 17 18 18 25 26 15 20 21 18 27 19 15 18 24 18 16 13 20 28 26 23 23 18 21
27 13 25 17 20 28 23 22 12 26 28 27 17 17 12 22 25 26 28 15 16 18 27 23 27 18 26 17 14 19 27 27 12 19 16 24 20 23 22 21 21 20 19 17 16 14 23 14 22 12 14 25 18 22 16 21 12 105 117 113 193 111 113 188 186 104 103 182 103 118 103 21 25 24 14 16 23 27 28 24 15 26 211 17 13 16 14 20 16 23 25 26 15 20 28 17 15 14 27 23 20 21 22 19 19 21 15 13 21 13 25 13 13 20 14 28 28 19 19 19 14 20 28 22 18 26 28 25
26 22 27 21 12 15 12 19 19 26 25 14 19 17 18 19 24 28 27 22 14 20 18 21 181 27 15 28 23 27 20 12 21 20 15 20 28 27 18 21 28 25 24 20 23 26 16 20 25 15 13 20 20 17 24 20 20 102 114 110 190 112 117 190 184 104 115 194 108 102 116 17 27 24 21 22 23 14 12 15 23 19 18 18 17 13 22 22 17 15 23 23 27 19 25 22 17 15 21 21 22 18 24 19 27 14 24 27 22 19 13 20 22 16 16 19 22 22 19 14 21 14 25 25 27 17 20 27
23 13 22 199 19 16 26 15 23 28 24 14 18 13 18 27 19 18 15 24 21 23 12 27 27 22 18 25 27 12 15 17 15 20 24 22 13 19 26 28 25 12 26 15 18 26 17 18 16 19 28 27 15 18 15 20 26 106 106 118 198 110 114 192 182 107 114 192 109 116 111 20 26 18 13 23 18 13 19 18 27 22 25 24 14 20 25 26 12 18 15 17 16 26 17 26 23 26 13 14 21 22 25 13 15 13 22 19 16 16 27 16 15 22 27 18 24 26 13 21 22 19 28 28 18 15 22 21
26 27 27 20 19 19 20 17 22 20 19 17 17 22 23 26 19 22 13 17 16 20 26 20 28 28 20 24 25 16 20 12 21 13 22 20 27 22 12 19 14 12 17 17 19 16 23 24 16 19 17 25 27 15 15 13 21 107 102 113 196 118 106 184 195 110 114 195 111 112 111 22 28 14 19 25 24 22 19 13 18 19 12 15 25 28 20 19 14 20 22 23 15 28 19 20 14 22 17 15 25 25 27 17 28 15 18 16 12 19 15 28 25 13 24 19 20 13 17 28 25 21 22 14 22 26 18 15
26 28 12 27 25 19 21 12 28 19 25 19 16 20 21 19 15 26 21 18 21 22 22 26 22 19 27 19 21 16 25 25 12 25 26 26 20 18 17 26 19 15 12 16 28 23 24 24 12 24 15 20 26 20 12 21 18 103 110 110 197 112 116 198 188 112 115 183 112 105 110 22 16 14 24 24 12 22 28 27 17 26 27 14 15 14 27 26 13 20 26 17 13 15 19 26 23 23 20 18 19 14 19 21 15 25 21 28 28 19 28 16 22 27 23 12 17 16 21 13 16 20 16 20 12 23 27 16
17 28 21 15 26 17 22 25 19 16 15 20 23 16 16 18 28 18 15 24 26 17 24 25 25 27 12 22 28 15 14 25 12 13 15 21 22 22 16 16 14 19 13 17 18 23 12 21 14 17 26 17 22 20 27 28 12 111 105 115 187 114 116 185 197 20 118 186 108 105 107 15 27 27 14 22 16 23 18 19 23 14 12 25 25 17 17 20 12 22 13 18 20 14 28 23 17 12 24 25 27 24 21 15 17 21 21 15 24 23 24 13 20 21 12 24 24 25 13 16 14 16 26 209 25 21 18 12
24 12 12 16 16 28 26 25 26 21 20 12 27 20 28 14 21 22 25 20 27 18 19 14 13 16 20 19 12 14 26 19 28 12 22 18 17 26 17 17 20 25 27 20 19 17 25 24 17 28 17 24 24 28 14 16 15 108 102 118 184 110 111 193 188 114 108 189 112 111 115 15 26 18 24 20 16 25 23 27 13 25 28 27 17 25 15 27 17 27 18 14 15 25 20 23 23 21 12 13 14 18 23 17 17 12 13 18 14 14 12 21 13 20 20 22 23 19 19 26 24 28 17 18 17 18 25 20
13 21 21 25 24 22 26 28 27 28 14 20 27 16 23 21 18 22 13 27 20 27 19 28 21 13 27 21 20 19 24 27 23 27 17 13 28 13 28 16 13 25 13 23 14 18 14 18 24 20 15 22 20 17 20 23 28 104 117 103 182 114 103 188 197 107 112 20 102 110 112 12 28 28 24 25 24 15 28 21 20 16 17 23 13 25 24 28 15 28 24 16 21 24 16 27 15 26 27 15 18 12 19 21 22 12 19 19 15 21 15 26 21 14 25 23 14 17 20 19 27 21 20 24 19 12 15 21
15 25 14 14 26 14 19 22 12 15 13 17 26 14 15 13 26 17 12 19 20 14 24 20 16 23 25 21 20 25 19 15 18 17 14 26 26 15 27 19 15 23 22 23 23 14 18 26 24 12 19 21 23 14 25 27 17 115 106 112 188 116 113 191 186 111 107 192 117 105 118 15 22 24 27 23 18 28 18 26 28 14 16 22 19 21 15 16 23 25 26 16 27 23 26 13 16 12 21 21 23 16 26 22 18 21 20 12 21 21 25 13 19 18 13 12 19 25 15 25 22 15 14 27 20 25 23 22
27 12 13 23 12 22 13 17 17 28 20 16 21 26 16 20 22 23 21 20 27 24 25 12 22 15 24 24 15 26 28 13 16 28 12 14 27 25 27 15 28 13 20 24 24 18 28 21 24 13 27 16 16 18 26 13 21 111 107 113 182 108 116 194 191 104 106 196 108 104 117 14 18 27 17 28 20 18 24 18 23 20 24 17 23 22 18 23 21 14 21 22 25 23 13 26 21 12 12 23 12 14 17 26 20 12 20 17 25 18 18 17 17 28 18 14 22 22 12 27 28 26 15 19 25 25 21 15
13 26 27 12 23 17 28 24 24 22 27 14 12 20 23 14 20 27 16 26 20 12 22 25 21 21 12 27 17 16 12 20 19 13 25 20 25 18 15 12 18 27 16 21 26 15 26 15 24 28 24 13 28 21 25 23 23 115 118 107 187 105 112 183 186 110 118 198 111 118 116 22 27 22 18 27 28 26 26 17 22 18 25 19 17 23 13 12 24 16 27 12 21 20 18 25 20 22 15 24 25 17 24 22 21 19 16 20 18 20 14 16 26 19 23 15 20 16 16 17 12 17 17 28 21 23 16 27
