P3
128 128
255
43 33 23 43 33 23 43 33 23 43 33 23 43 33 23 43 33 23 43 33 23 43 33 23 43 33 23 43 33 23 43 33 23 43 33 23 43 33 23 43 33 23 43 33 23 43 33 23 43 33 23 43 33 23 43 33 23 43 33 23 43 33 23 43 33 23 43 33 23 43 33 23 43 33 23 43 33 23 43 33 23 43 33 23 43 33 23 43 33 23 43 33 23 43 33 23 43 33 23 43 33 23 43 33 23 43 33 23 43 33 23 43 33 23 43 33 23 43 33 23 43 33 23 43 33 23 43 33 23 43 33 23 43 33 23 43 33 23 43 33 23 43 33 23 43 33 23 43 33 23 43 33 23 43 33 23 43 33 23 43 33 23 43 33 23 43 33 23 43 33 23 96 99 88 96 99 88 96 99 88 245 208 97 96 99 88 96 99 88 245 208 97 245 208 97 96 99 88 96 99 88 245 208 97 96 99 88 96 99 88 96 99 88 43 33 23 43 33 23 43 33 23 43 33 23 43 33 23 43 33 23 43 33 23 43 33 23 43 33 23 43 33 23 43 33 23 43 33 23 43 33 23 43 33 23 43 33 23 43 33 23 43 33 23 43 33 23 43 33 23 43 33 23 43 33 23 43 33 23 43 33 23 43 33 23 43 33 23 43 33 23 43 33 23 43 33 23 43 33 23 43 33 23 43 33 23 43 33 23 43 33 23 43 33 23 43 33 23 43 33 23 43 33 23 43 33 23 43 33 23 43 33 23 43 33 23 43 33 23 43 33 23 43 33 23 43 33 23 43 33 23 43 33 23 43 33 23 43 33 23 43 33 23 43 33 23 43 33 23 43 33 23 43 33 23 43 33 23 43 33 23 43 33 23
43 33 23 43 33 23 43 33 23 43 33 23 43 33 23 43 33 23 43 33 23 43 33 23 43 33 23 43 33 23 43 33 23 43 33 23 43 33 23 43 33 23 43 33 23 43 33 23 43 33 23 43 33 23 43 33 23 43 33 23 43 33 23 43 33 23 43 33 23 43 33 23 43 33 23 43 33 23 43 33 23 43 33 23 43 33 23 43 33 23 43 33 23 43 33 23 43 33 23 43 33 23 43 33 23 43 33 23 43 33 23 43 33 23 43 33 23 43 33 23 43 33 23 43 33 23 43 33 23 43 33 23 43 33 23 43 33 23 43 33 23 43 33 23 43 33 23 43 33 23 43 33 23 43 33 23 43 33 23 43 33 23 43 33 23 43 33 23 43 33 23 96 99 88 96 99 88 96 99 88 245 208 97 96 99 88 96 99 88 245 208 97 245 208 97 96 99 88 96 99 88 245 208 97 96 99 88 96 99 88 96 99 88 43 33 23 43 33 23 43 33 23 43 33 23 43 33 23 43 33 23 43 33 23 43 33 23 43 33 23 43 33 23 43 33 23 43 33 23 43 33 23 43 33 23 43 33 23 43 33 23 43 33 23 43 33 23 43 33 23 43 33 23 43 33 23 43 33 23 43 33 23 43 33 23 43 33 23 43 33 23 43 33 23 43 33 23 43 33 23 43 33 23 43 33 23 43 33 23 43 33 23 43 33 23 43 33 23 43 33 23 43 33 23 43 33 23 43 33 23 43 33 23 43 33 23 43 33 23 43 33 23 43 33 23 43 33 23 43 33 23 43 33 23 43 33 23 43 33 23 43 33 23 43 33 23 43 33 23 43 33 23 43 33 23 43 33 23 43 33 23 43 33 23
43 33 23 43 33 23 43 33 23 43 33 23 43 33 23 43 33 23 43 33 23 43 33 23 43 33 23 43 33 23 43 33 23 43 33 23 43 33 23 43 33 23 43 33 23 43 33 23 43 33 23 43 33 23 43 33 23 43 33 23 43 33 23 43 33 23 43 33 23 43 33 23 43 33 23 43 33 23 43 33 23 43 33 23 43 33 23 43 33 23 43 33 23 43 33 23 43 33 23 43 33 23 43 33 23 43 33 23 43 33 23 43 33 23 43 33 23 43 33 23 43 33 23 43 33 23 43 33 23 43 33 23 43 33 23 43 33 23 43 33 23 43 33 23 43 33 23 43 33 23 43 33 23 43 33 23 43 33 23 43 33 23 43 33 23 43 33 23 43 33 23 96 99 88 96 99 88 96 99 88 245 208 97 96 99 88 96 99 88 245 208 97 245 208 97 96 99 88 96 99 88 245 208 97 96 99 88 96 99 88 96 99 88 43 33 23 43 33 23 43 33 23 43 33 23 43 33 23 43 33 23 43 33 23 43 33 23 43 33 23 43 33 23 43 33 23 43 33 23 43 33 23 43 33 23 43 33 23 43 33 23 43 33 23 43 33 23 43 33 23 43 33 23 43 33 23 43 33 23 43 33 23 43 33 23 43 33 23 43 33 23 43 33 23 43 33 23 43 33 23 43 33 23 43 33 23 43 33 23 43 33 23 43 33 23 43 33 23 43 33 23 43 33 23 43 33 23 43 33 23 43 33 23 43 33 23 43 33 23 43 33 23 43 33 23 43 33 23 43 33 23 43 33 23 43 33 23 43 33 23 43 33 23 43 33 23 43 33 23 43 33 23 43 33 23 43 33 23 43 33 23 43 33 23
43 33 23 43 33 23 43 33 23 43 33 23 43 33 23 43 33 23 43 33 23 43 33 23 43 33 23 43 33 23 43 33 23 43 33 23 43 33 23 43 33 23 43 33 23 43 33 23 43 33 23 43 33 23 43 33 23 43 33 23 43 33 23 43 33 23 43 33 23 43 33 23 43 33 23 43 33 23 43 33 23 43 33 23 43 33 23 43 33 23 43 33 23 43 33 23 43 33 23 43 33 23 43 33 23 43 33 23 43 33 23 43 33 23 43 33 23 43 33 23 43 33 23 43 33 23 43 33 23 43 33 23 43 33 23 43 33 23 43 33 23 43 33 23 43 33 23 43 33 23 43 33 23 43 33 23 43 33 23 43 33 23 43 33 23 43 33 23 43 33 23 96 99 88 96 99 88 96 99 88 245 208 97 96 99 88 96 99 88 245 208 97 245 208 97 96 99 88 96 99 88 245 208 97 96 99 88 96 99 88 96 99 88 43 33 23 43 33 23 43 33 23 43 33 23 43 33 23 43 33 23 43 33 23 43 33 23 43 33 23 43 33 23 43 33 23 43 33 23 43 33 23 43 33 23 43 33 23 43 33 23 43 33 23 43 33 23 43 33 23 43 33 23 43 33 23 43 33 23 43 33 23 43 33 23 43 33 23 43 33 23 43 33 23 43 33 23 43 33 23 43 33 23 43 33 23 43 33 23 43 33 23 43 33 23 43 33 23 43 33 23 43 33 23 43 33 23 43 33 23 43 33 23 43 33 23 43 33 23 43 33 23 43 33 23 43 33 23 43 33 23 43 33 23 43 33 23 43 33 23 43 33 23 43 33 23 43 33 23 43 33 23 43 33 23 43 33 23 43 33 23 43 33 23
43 33 23 43 33 23 43 33 23 43 33 23 43 33 23 43 33 23 43 33 23 43 33 23 43 33 23 43 33 23 43 33 23 43 33 23 43 33 23 43 33 23 43 33 23 43 33 23 43 33 23 43 33 23 43 33 23 43 33 23 43 33 23 43 33 23 43 33 23 43 33 23 43 33 23 43 33 23 43 33 23 43 33 23 43 33 23 43 33 23 43 33 23 43 33 23 43 33 23 43 33 23 43 33 23 43 33 23 43 33 23 43 33 23 43 33 23 43 33 23 43 33 23 43 33 23 43 33 23 43 33 23 43 33 23 43 33 23 43 33 23 43 33 23 43 33 23 43 33 23 43 33 23 43 33 23 43 33 23 43 33 23 43 33 23 43 33 23 43 33 23 96 99 88 96 99 88 96 99 88 245 208 97 96 99 88 96 99 88 245 208 97 245 208 97 96 99 88 96 99 88 245 208 97 96 99 88 96 99 88 96 99 88 43 33 23 43 33 23 43 33 23 43 33 23 43 33 23 43 33 23 43 33 23 43 33 23 43 33 23 43 33 23 43 33 23 43 33 23 43 33 23 43 33 23 43 33 23 43 33 23 43 33 23 43 33 23 43 33 23 43 33 23 43 33 23 43 33 23 43 33 23 43 33 23 43 33 23 43 33 23 43 33 23 43 33 23 43 33 23 43 33 23 43 33 23 43 33 23 43 33 23 43 33 23 43 33 23 43 33 23 43 33 23 43 33 23 43 33 23 43 33 23 43 33 23 43 33 23 43 33 23 43 33 23 43 33 23 43 33 23 43 33 23 43 33 23 43 33 23 43 33 23 43 33 23 43 33 23 43 33 23 43 33 23 43 33 23 43 33 23 43 33 23
43 33 23 43 33 23 43 33 23 43 33 23 43 33 23 43 33 23 43 33 23 43 33 23 43 33 23 43 33 23 43 33 23 43 33 23 43 33 23 43 33 23 43 33 23 43 33 23 43 33 23 43 33 23 43 33 23 43 33 23 43 33 23 43 33 23 43 33 23 43 33 23 43 33 23 43 33 23 43 33 23 43 33 23 43 33 23 43 33 23 43 33 23 43 33 23 43 33 23 43 33 23 43 33 23 43 33 23 43 33 23 43 33 23 43 33 23 43 33 23 43 33 23 43 33 23 43 33 23 43 33 23 43 33 23 43 33 23 43 33 23 43 33 23 43 33 23 43 33 23 43 33 23 43 33 23 43 33 23 43 33 23 43 33 23 43 33 23 43 33 23 96 99 88 96 99 88 96 99 88 245 208 97 96 99 88 96 99 88 245 208 97 245 208 97 96 99 88 96 99 88 245 208 97 96 99 88 96 99 88 96 99 88 43 33 23 43 33 23 43 33 23 43 33 23 43 33 23 43 33 23 43 33 23 43 33 23 43 33 23 43 33 23 43 33 23 43 33 23 43 33 23 43 33 23 43 33 23 43 33 23 43 33 23 43 33 23 43 33 23 43 33 23 43 33 23 43 33 23 43 33 23 43 33 23 43 33 23 43 33 23 43 33 23 43 33 23 43 33 23 43 33 23 43 33 23 43 33 23 43 33 23 43 33 23 43 33 23 43 33 23 43 33 23 43 33 23 43 33 23 43 33 23 43 33 23 43 33 23 43 33 23 43 33 23 43 33 23 43 33 23 43 33 23 43 33 23 43 33 23 43 33 23 43 33 23 43 33 23 43 33 23 43 33 23 43 33 23 43 33 23 43 33 23
43 33 23 43 33 23 43 33 23 43 33 23 43 33 23 43 33 23 43 33 23 43 33 23 43 33 23 43 33 23 43 33 23 43 33 23 43 33 23 43 33 23 43 33 23 43 33 23 43 33 23 43 33 23 43 33 23 43 33 23 43 33 23 43 33 23 43 33 23 43 33 23 43 33 23 43 33 23 43 33 23 43 33 23 43 33 23 43 33 23 43 33 23 43 33 23 43 33 23 43 33 23 43 33 23 43 33 23 43 33 23 43 33 23 43 33 23 43 33 23 43 33 23 43 33 23 43 33 23 43 33 23 43 33 23 43 33 23 43 33 23 43 33 23 43 33 23 43 33 23 43 33 23 43 33 23 43 33 23 43 33 23 43 33 23 43 33 23 43 33 23 96 99 88 96 99 88 96 99 88 245 208 97 96 99 88 96 99 88 245 208 97 245 208 97 96 99 88 96 99 88 245 208 97 96 99 88 96 99 88 96 99 88 43 33 23 43 33 23 43 33 23 43 33 23 43 33 23 43 33 23 43 33 23 43 33 23 43 33 23 43 33 23 43 33 23 43 33 23 43 33 23 43 33 23 43 33 23 43 33 23 43 33 23 43 33 23 43 33 23 43 33 23 43 33 23 43 33 23 43 33 23 43 33 23 43 33 23 43 33 23 43 33 23 43 33 23 43 33 23 43 33 23 43 33 23 43 33 23 43 33 23 43 33 23 43 33 23 43 33 23 43 33 23 43 33 23 43 33 23 43 33 23 43 33 23 43 33 23 43 33 23 43 33 23 43 33 23 43 33 23 43 33 23 43 33 23 43 33 23 43 33 23 43 33 23 43 33 23 43 33 23 43 33 23 43 33 23 43 33 23 43 33 23
43 33 23 43 33 23 43 33 23 43 33 23 43 33 23 43 33 23 43 33 23 43 33 23 43 33 23 43 33 23 43 33 23 43 33 23 43 33 23 43 33 23 43 33 23 43 33 23 43 33 23 43 33 23 43 33 23 43 33 23 43 33 23 43 33 23 43 33 23 43 33 23 43 33 23 43 33 23 43 33 23 43 33 23 43 33 23 43 33 23 43 33 23 43 33 23 43 33 23 43 33 23 43 33 23 43 33 23 43 33 23 43 33 23 43 33 23 43 33 23 43 33 23 43 33 23 43 33 23 43 33 23 43 33 23 43 33 23 43 33 23 43 33 23 43 33 23 43 33 23 43 33 23 43 33 23 43 33 23 43 33 23 43 33 23 43 33 23 43 33 23 96 99 88 96 99 88 96 99 88 245 208 97 96 99 88 96 99 88 245 208 97 245 208 97 96 99 88 96 99 88 245 208 97 96 99 88 96 99 88 96 99 88 43 33 23 43 33 23 43 33 23 43 33 23 43 33 23 43 33 23 43 33 23 43 33 23 43 33 23 43 33 23 43 33 23 43 33 23 43 33 23 43 33 23 43 33 23 43 33 23 43 33 23 43 33 23 43 33 23 43 33 23 43 33 23 43 33 23 43 33 23 43 33 23 43 33 23 43 33 23 43 33 23 43 33 23 43 33 23 43 33 23 43 33 23 43 33 23 43 33 23 43 33 23 43 33 23 43 33 23 43 33 23 43 33 23 43 33 23 43 33 23 43 33 23 43 33 23 43 33 23 43 33 23 43 33 23 43 33 23 43 33 23 43 33 23 43 33 23 43 33 23 43 33 23 43 33 23 43 33 23 43 33 23 43 33 23 43 33 23 43 33 23
43 33 23 43 33 23 43 33 23 43 33 23 43 33 23 43 33 23 43 33 23 43 33 23 43 33 23 43 33 23 43 33 23 43 33 23 43 33 23 43 33 23 43 33 23 43 33 23 43 33 23 43 33 23 43 33 23 43 33 23 43 33 23 43 33 23 43 33 23 43 33 23 43 33 23 43 33 23 43 33 23 43 33 23 43 33 23 43 33 23 43 33 23 43 33 23 43 33 23 43 33 23 43 33 23 43 33 23 43 33 23 43 33 23 43 33 23 43 33 23 43 33 23 43 33 23 43 33 23 43 33 23 43 33 23 43 33 23 43 33 23 43 33 23 43 33 23 43 33 23 43 33 23 43 33 23 43 33 23 43 33 23 43 33 23 43 33 23 43 33 23 96 99 88 96 99 88 96 99 88 245 208 97 96 99 88 96 99 88 245 208 97 245 208 97 96 99 88 96 99 88 245 208 97 96 99 88 96 99 88 96 99 88 43 33 23 43 33 23 43 33 23 43 33 23 43 33 23 43 33 23 43 33 23 43 33 23 43 33 23 43 33 23 43 33 23 43 33 23 43 33 23 43 33 23 43 33 23 43 33 23 43 33 23 43 33 23 43 33 23 43 33 23 43 33 23 43 33 23 43 33 23 43 33 23 43 33 23 43 33 23 43 33 23 43 33 23 43 33 23 43 33 23 43 33 23 43 33 23 43 33 23 43 33 23 43 33 23 43 33 23 43 33 23 43 33 23 43 33 23 43 33 23 43 33 23 43 33 23 43 33 23 43 33 23 43 33 23 43 33 23 43 33 23 43 33 23 43 33 23 43 33 23 43 33 23 43 33 23 43 33 23 43 33 23 43 33 23 43 33 23 43 33 23
43 33 23 43 33 23 43 33 23 43 33 23 43 33 23 43 33 23 43 33 23 43 33 23 43 33 23 43 33 23 43 33 23 43 33 23 43 33 23 43 33 23 43 33 23 43 33 23 43 33 23 43 33 23 43 33 23 43 33 23 43 33 23 43 33 23 43 33 23 43 33 23 43 33 23 43 33 23 43 33 23 43 33 23 43 33 23 43 33 23 43 33 23 43 33 23 43 33 23 43 33 23 43 33 23 43 33 23 43 33 23 43 33 23 43 33 23 43 33 23 43 33 23 43 33 23 43 33 23 43 33 23 43 33 23 43 33 23 43 33 23 43 33 23 43 33 23 43 33 23 43 33 23 43 33 23 43 33 23 43 33 23 43 33 23 43 33 23 43 33 23 96 99 88 96 99 88 96 99 88 245 208 97 96 99 88 96 99 88 245 208 97 245 208 97 96 99 88 96 99 88 245 208 97 96 99 88 96 99 88 96 99 88 43 33 23 43 33 23 43 33 23 43 33 23 43 33 23 43 33 23 43 33 23 43 33 23 43 33 23 43 33 23 43 33 23 43 33 23 43 33 23 43 33 23 43 33 23 43 33 23 43 33 23 43 33 23 43 33 23 43 33 23 43 33 23 43 33 23 43 33 23 43 33 23 43 33 23 43 33 23 43 33 23 43 33 23 43 33 23 43 33 23 43 33 23 43 33 23 43 33 23 43 33 23 43 33 23 43 33 23 43 33 23 43 33 23 43 33 23 43 33 23 43 33 23 43 33 23 43 33 23 43 33 23 43 33 23 43 33 23 43 33 23 43 33 23 43 33 23 43 33 23 43 33 23 43 33 23 43 33 23 43 33 23 43 33 23 43 33 23 43 33 23
43 33 23 43 33 23 43 33 23 43 33 23 43 33 23 43 33 23 43 33 23 43 33 23 43 33 23 43 33 23 43 33 23 43 33 23 43 33 23 43 33 23 43 33 23 43 33 23 43 33 23 43 33 23 43 33 23 43 33 23 43 33 23 43 33 23 43 33 23 43 33 23 43 33 23 43 33 23 43 33 23 43 33 23 43 33 23 43 33 23 43 33 23 43 33 23 43 33 23 43 33 23 43 33 23 43 33 23 43 33 23 43 33 23 43 33 23 43 33 23 43 33 23 43 33 23 43 33 23 43 33 23 43 33 23 43 33 23 43 33 23 43 33 23 43 33 23 43 33 23 43 33 23 43 33 23 43 33 23 43 33 23 43 33 23 43 33 23 43 33 23 96 99 88 96 99 88 96 99 88 245 208 97 96 99 88 96 99 88 245 208 97 245 208 97 96 99 88 96 99 88 245 208 97 96 99 88 96 99 88 96 99 88 43 33 23 43 33 23 43 33 23 43 33 23 43 33 23 43 33 23 43 33 23 43 33 23 43 33 23 43 33 23 43 33 23 43 33 23 43 33 23 43 33 23 43 33 23 43 33 23 43 33 23 43 33 23 43 33 23 43 33 23 43 33 23 43 33 23 43 33 23 43 33 23 43 33 23 43 33 23 43 33 23 43 33 23 43 33 23 43 33 23 43 33 23 43 33 23 43 33 23 43 33 23 43 33 23 43 33 23 43 33 23 43 33 23 43 33 23 43 33 23 43 33 23 43 33 23 43 33 23 43 33 23 43 33 23 43 33 23 43 33 23 43 33 23 43 33 23 43 33 23 43 33 23 43 33 23 43 33 23 43 33 23 43 33 23 43 33 23 43 33 23
43 33 23 43 33 23 43 33 23 43 33 23 43 33 23 43 33 23 43 33 23 43 33 23 43 33 23 43 33 23 43 33 23 43 33 23 43 33 23 43 33 23 43 33 23 43 33 23 43 33 23 43 33 23 43 33 23 43 33 23 43 33 23 43 33 23 43 33 23 43 33 23 43 33 23 43 33 23 43 33 23 43 33 23 43 33 23 43 33 23 43 33 23 43 33 23 43 33 23 43 33 23 43 33 23 43 33 23 43 33 23 43 33 23 43 33 23 43 33 23 43 33 23 43 33 23 43 33 23 43 33 23 43 33 23 43 33 23 43 33 23 43 33 23 43 33 23 43 33 23 43 33 23 43 33 23 43 33 23 43 33 23 43 33 23 43 33 23 43 33 23 96 99 88 96 99 88 96 99 88 245 208 97 96 99 88 96 99 88 245 208 97 245 208 97 96 99 88 96 99 88 245 208 97 96 99 88 96 99 88 96 99 88 43 33 23 43 33 23 43 33 23 43 33 23 43 33 23 43 33 23 43 33 23 43 33 23 43 33 23 43 33 23 43 33 23 43 33 23 43 33 23 43 33 23 43 33 23 43 33 23 43 33 23 43 33 23 43 33 23 43 33 23 43 33 23 43 33 23 43 33 23 43 33 23 43 33 23 43 33 23 43 33 23 43 33 23 43 33 23 43 33 23 43 33 23 43 33 23 43 33 23 43 33 23 43 33 23 43 33 23 43 33 23 43 33 23 43 33 23 43 33 23 43 33 23 43 33 23 43 33 23 43 33 23 43 33 23 43 33 23 43 33 23 43 33 23 43 33 23 43 33 23 43 33 23 43 33 23 43 33 23 43 33 23 43 33 23 43 33 23 43 33 23
43 33 23 43 33 23 43 33 23 43 33 23 43 33 23 43 33 23 43 33 23 43 33 23 43 33 23 43 33 23 43 33 23 43 33 23 43 33 23 43 33 23 43 33 23 43 33 23 43 33 23 43 33 23 43 33 23 43 33 23 43 33 23 43 33 23 43 33 23 43 33 23 43 33 23 43 33 23 43 33 23 43 33 23 43 33 23 43 33 23 43 33 23 43 33 23 43 33 23 43 33 23 43 33 23 43 33 23 43 33 23 43 33 23 43 33 23 43 33 23 43 33 23 43 33 23 43 33 23 43 33 23 43 33 23 43 33 23 43 33 23 43 33 23 43 33 23 43 33 23 43 33 23 43 33 23 43 33 23 43 33 23 43 33 23 43 33 23 43 33 23 96 99 88 96 99 88 96 99 88 245 208 97 96 99 88 96 99 88 245 208 97 245 208 97 96 99 88 96 99 88 245 208 97 96 99 88 96 99 88 96 99 88 43 33 23 43 33 23 43 33 23 43 33 23 43 33 23 43 33 23 43 33 23 43 33 23 43 33 23 43 33 23 43 33 23 43 33 23 43 33 23 43 33 23 43 33 23 43 33 23 43 33 23 43 33 23 43 33 23 43 33 23 43 33 23 43 33 23 43 33 23 43 33 23 43 33 23 43 33 23 43 33 23 43 33 23 43 33 23 43 33 23 43 33 23 43 33 23 43 33 23 43 33 23 43 33 23 43 33 23 43 33 23 43 33 23 43 33 23 43 33 23 43 33 23 43 33 23 43 33 23 43 33 23 43 33 23 43 33 23 43 33 23 43 33 23 43 33 23 43 33 23 43 33 23 43 33 23 43 33 23 43 33 23 43 33 23 43 33 23 43 33 23
43 33 23 43 33 23 43 33 23 43 33 23 43 33 23 43 33 23 43 33 23 43 33 23 43 33 23 43 33 23 43 33 23 43 33 23 43 33 23 43 33 23 43 33 23 43 33 23 43 33 23 43 33 23 43 33 23 43 33 23 43 33 23 43 33 23 43 33 23 43 33 23 43 33 23 43 33 23 43 33 23 43 33 23 43 33 23 43 33 23 43 33 23 43 33 23 43 33 23 43 33 23 43 33 23 43 33 23 43 33 23 43 33 23 43 33 23 43 33 23 43 33 23 43 33 23 43 33 23 43 33 23 43 33 23 43 33 23 43 33 23 43 33 23 43 33 23 43 33 23 43 33 23 43 33 23 43 33 23 43 33 23 43 33 23 43 33 23 43 33 23 96 99 88 96 99 88 96 99 88 245 208 97 96 99 88 96 99 88 245 208 97 245 208 97 96 99 88 96 99 88 245 208 97 96 99 88 96 99 88 96 99 88 43 33 23 43 33 23 43 33 23 43 33 23 43 33 23 43 33 23 43 33 23 43 33 23 43 33 23 43 33 23 43 33 23 43 33 23 43 33 23 43 33 23 43 33 23 43 33 23 43 33 23 43 33 23 43 33 23 43 33 23 43 33 23 43 33 23 43 33 23 43 33 23 43 33 23 43 33 23 43 33 23 43 33 23 43 33 23 43 33 23 43 33 23 43 33 23 43 33 23 43 33 23 43 33 23 43 33 23 43 33 23 43 33 23 43 33 23 43 33 23 43 33 23 43 33 23 43 33 23 43 33 23 43 33 23 43 33 23 43 33 23 43 33 23 43 33 23 43 33 23 43 33 23 43 33 23 43 33 23 43 33 23 43 33 23 43 33 23 43 33 23
43 33 23 43 33 23 43 33 23 43 33 23 43 33 23 43 33 23 43 33 23 43 33 23 43 33 23 43 33 23 43 33 23 43 33 23 43 33 23 43 33 23 43 33 23 43 33 23 43 33 23 43 33 23 43 33 23 43 33 23 43 33 23 43 33 23 43 33 23 43 33 23 43 33 23 43 33 23 43 33 23 43 33 23 43 33 23 43 33 23 43 33 23 43 33 23 43 33 23 43 33 23 43 33 23 43 33 23 43 33 23 43 33 23 43 33 23 43 33 23 43 33 23 43 33 23 43 33 23 43 33 23 43 33 23 43 33 23 43 33 23 43 33 23 43 33 23 43 33 23 43 33 23 43 33 23 43 33 23 43 33 23 43 33 23 43 33 23 43 33 23 96 99 88 96 99 88 96 99 88 245 208 97 96 99 88 96 99 88 245 208 97 245 208 97 96 99 88 96 99 88 245 208 97 96 99 88 96 99 88 96 99 88 43 33 23 43 33 23 43 33 23 43 33 23 43 33 23 43 33 23 43 33 23 43 33 23 43 33 23 43 33 23 43 33 23 43 33 23 43 33 23 43 33 23 43 33 23 43 33 23 43 33 23 43 33 23 43 33 23 43 33 23 43 33 23 43 33 23 43 33 23 43 33 23 43 33 23 43 33 23 43 33 23 43 33 23 43 33 23 43 33 23 43 33 23 43 33 23 43 33 23 43 33 23 43 33 23 43 33 23 43 33 23 43 33 23 43 33 23 43 33 23 43 33 23 43 33 23 43 33 23 43 33 23 43 33 23 43 33 23 43 33 23 43 33 23 43 33 23 43 33 23 43 33 23 43 33 23 43 33 23 43 33 23 43 33 23 43 33 23 43 33 23
43 33 23 43 33 23 43 33 23 43 33 23 43 33 23 43 33 23 43 33 23 43 33 23 43 33 23 43 33 23 43 33 23 43 33 23 43 33 23 43 33 23 43 33 23 43 33 23 43 33 23 43 33 23 43 33 23 43 33 23 43 33 23 43 33 23 43 33 23 43 33 23 43 33 23 43 33 23 43 33 23 43 33 23 43 33 23 43 33 23 43 33 23 43 33 23 43 33 23 43 33 23 43 33 23 43 33 23 43 33 23 43 33 23 43 33 23 43 33 23 43 33 23 43 33 23 43 33 23 43 33 23 43 33 23 43 33 23 43 33 23 43 33 23 43 33 23 43 33 23 43 33 23 43 33 23 43 33 23 43 33 23 43 33 23 43 33 23 43 33 23 96 99 88 96 99 88 96 99 88 245 208 97 96 99 88 96 99 88 245 208 97 245 208 97 96 99 88 96 99 88 245 208 97 96 99 88 96 99 88 96 99 88 43 33 23 43 33 23 43 33 23 43 33 23 43 33 23 43 33 23 43 33 23 43 33 23 43 33 23 43 33 23 43 33 23 43 33 23 43 33 23 43 33 23 43 33 23 43 33 23 43 33 23 43 33 23 43 33 23 43 33 23 43 33 23 43 33 23 43 33 23 43 33 23 43 33 23 43 33 23 43 33 23 43 33 23 43 33 23 43 33 23 43 33 23 43 33 23 43 33 23 43 33 23 43 33 23 43 33 23 43 33 23 43 33 23 43 33 23 43 33 23 43 33 23 43 33 23 43 33 23 43 33 23 43 33 23 43 33 23 43 33 23 43 33 23 43 33 23 43 33 23 43 33 23 43 33 23 43 33 23 43 33 23 43 33 23 43 33 23 43 33 23
43 33 23 43 33 23 43 33 23 43 33 23 43 33 23 43 33 23 43 33 23 43 33 23 43 33 23 43 33 23 43 33 23 43 33 23 43 33 23 43 33 23 43 33 23 43 33 23 43 33 23 43 33 23 43 33 23 43 33 23 43 33 23 43 33 23 43 33 23 43 33 23 43 33 23 43 33 23 43 33 23 43 33 23 43 33 23 43 33 23 43 33 23 43 33 23 43 33 23 43 33 23 43 33 23 43 33 23 43 33 23 43 33 23 43 33 23 43 33 23 43 33 23 43 33 23 43 33 23 43 33 23 43 33 23 43 33 23 43 33 23 43 33 23 43 33 23 43 33 23 43 33 23 43 33 23 43 33 23 43 33 23 43 33 23 43 33 23 43 33 23 96 99 88 96 99 88 96 99 88 245 208 97 96 99 88 96 99 88 245 208 97 245 208 97 96 99 88 96 99 88 245 208 97 96 99 88 96 99 88 96 99 88 43 33 23 43 33 23 43 33 23 43 33 23 43 33 23 43 33 23 43 33 23 43 33 23 43 33 23 43 33 23 43 33 23 43 33 23 43 33 23 43 33 23 43 33 23 43 33 23 43 33 23 43 33 23 43 33 23 43 33 23 43 33 23 43 33 23 43 33 23 43 33 23 43 33 23 43 33 23 43 33 23 43 33 23 43 33 23 43 33 23 43 33 23 43 33 23 43 33 23 43 33 23 43 33 23 43 33 23 43 33 23 43 33 23 43 33 23 43 33 23 43 33 23 43 33 23 43 33 23 43 33 23 43 33 23 43 33 23 43 33 23 43 33 23 43 33 23 43 33 23 43 33 23 43 33 23 43 33 23 43 33 23 43 33 23 43 33 23 43 33 23
43 33 23 43 33 23 43 33 23 43 33 23 43 33 23 43 33 23 43 33 23 43 33 23 43 33 23 43 33 23 43 33 23 43 33 23 43 33 23 43 33 23 43 33 23 43 33 23 43 33 23 43 33 23 43 33 23 43 33 23 43 33 23 43 33 23 43 33 23 43 33 23 43 33 23 43 33 23 43 33 23 43 33 23 43 33 23 43 33 23 43 33 23 43 33 23 43 33 23 43 33 23 43 33 23 43 33 23 43 33 23 43 33 23 43 33 23 43 33 23 43 33 23 43 33 23 43 33 23 43 33 23 43 33 23 43 33 23 43 33 23 43 33 23 43 33 23 43 33 23 43 33 23 43 33 23 43 33 23 43 33 23 43 33 23 43 33 23 43 33 23 96 99 88 96 99 88 96 99 88 245 208 97 96 99 88 96 99 88 245 208 97 245 208 97 96 99 88 96 99 88 245 208 97 96 99 88 96 99 88 96 99 88 43 33 23 43 33 23 43 33 23 43 33 23 43 33 23 43 33 23 43 33 23 43 33 23 43 33 23 43 33 23 43 33 23 43 33 23 43 33 23 43 33 23 43 33 23 43 33 23 43 33 23 43 33 23 43 33 23 43 33 23 43 33 23 43 33 23 43 33 23 43 33 23 43 33 23 43 33 23 43 33 23 43 33 23 43 33 23 43 33 23 43 33 23 43 33 23 43 33 23 43 33 23 43 33 23 43 33 23 43 33 23 43 33 23 43 33 23 43 33 23 43 33 23 43 33 23 43 33 23 43 33 23 43 33 23 43 33 23 43 33 23 43 33 23 43 33 23 43 33 23 43 33 23 43 33 23 43 33 23 43 33 23 43 33 23 43 33 23 43 33 23
43 33 23 43 33 23 43 33 23 43 33 23 43 33 23 43 33 23 43 33 23 43 33 23 43 33 23 43 33 23 43 33 23 43 33 23 43 33 23 43 33 23 43 33 23 43 33 23 43 33 23 43 33 23 43 33 23 43 33 23 43 33 23 43 33 23 43 33 23 43 33 23 43 33 23 43 33 23 43 33 23 43 33 23 43 33 23 43 33 23 43 33 23 43 33 23 43 33 23 43 33 23 43 33 23 43 33 23 43 33 23 43 33 23 43 33 23 43 33 23 43 33 23 43 33 23 43 33 23 43 33 23 43 33 23 43 33 23 43 33 23 43 33 23 43 33 23 43 33 23 43 33 23 43 33 23 43 33 23 43 33 23 43 33 23 43 33 23 43 33 23 96 99 88 96 99 88 96 99 88 245 208 97 96 99 88 96 99 88 245 208 97 245 208 97 96 99 88 96 99 88 245 208 97 96 99 88 96 99 88 96 99 88 43 33 23 43 33 23 43 33 23 43 33 23 43 33 23 43 33 23 43 33 23 43 33 23 43 33 23 43 33 23 43 33 23 43 33 23 43 33 23 43 33 23 43 33 23 43 33 23 43 33 23 43 33 23 43 33 23 43 33 23 43 33 23 43 33 23 43 33 23 43 33 23 43 33 23 43 33 23 43 33 23 43 33 23 43 33 23 43 33 23 43 33 23 43 33 23 43 33 23 43 33 23 43 33 23 43 33 23 43 33 23 43 33 23 43 33 23 43 33 23 43 33 23 43 33 23 43 33 23 43 33 23 43 33 23 43 33 23 43 33 23 43 33 23 43 33 23 43 33 23 43 33 23 43 33 23 43 33 23 43 33 23 43 33 23 43 33 23 43 33 23
43 33 23 43 33 23 43 33 23 43 33 23 43 33 23 43 33 23 43 33 23 43 33 23 43 33 23 43 33 23 43 33 23 43 33 23 43 33 23 43 33 23 43 33 23 43 33 23 43 33 23 43 33 23 43 33 23 43 33 23 43 33 23 43 33 23 43 33 23 43 33 23 43 33 23 43 33 23 43 33 23 43 33 23 43 33 23 43 33 23 43 33 23 43 33 23 43 33 23 43 33 23 43 33 23 43 33 23 43 33 23 43 33 23 43 33 23 43 33 23 43 33 23 43 33 23 43 33 23 43 33 23 43 33 23 43 33 23 43 33 23 43 33 23 43 33 23 43 33 23 43 33 23 43 33 23 43 33 23 43 33 23 43 33 23 43 33 23 43 33 23 96 99 88 96 99 88 96 99 88 245 208 97 96 99 88 96 99 88 245 208 97 245 208 97 96 99 88 96 99 88 245 208 97 96 99 88 96 99 88 96 99 88 43 33 23 43 33 23 43 33 23 43 33 23 43 33 23 43 33 23 43 33 23 43 33 23 43 33 23 43 33 23 43 33 23 43 33 23 43 33 23 43 33 23 43 33 23 43 33 23 43 33 23 43 33 23 43 33 23 43 33 23 43 33 23 43 33 23 43 33 23 43 33 23 43 33 23 43 33 23 43 33 23 43 33 23 43 33 23 43 33 23 43 33 23 43 33 23 43 33 23 43 33 23 43 33 23 43 33 23 43 33 23 43 33 23 43 33 23 43 33 23 43 33 23 43 33 23 43 33 23 43 33 23 43 33 23 43 33 23 43 33 23 43 33 23 43 33 23 43 33 23 43 33 23 43 33 23 43 33 23 43 33 23 43 33 23 43 33 23 43 33 23
43 33 23 43 33 23 43 33 23 43 33 23 43 33 23 43 33 23 43 33 23 43 33 23 43 33 23 43 33 23 43 33 23 43 33 23 43 33 23 43 33 23 43 33 23 43 33 23 43 33 23 43 33 23 43 33 23 43 33 23 43 33 23 43 33 23 43 33 23 43 33 23 43 33 23 43 33 23 43 33 23 43 33 23 43 33 23 43 33 23 43 33 23 43 33 23 43 33 23 43 33 23 43 33 23 43 33 23 43 33 23 43 33 23 43 33 23 43 33 23 43 33 23 43 33 23 43 33 23 43 33 23 43 33 23 43 33 23 43 33 23 43 33 23 43 33 23 43 33 23 43 33 23 43 33 23 43 33 23 43 33 23 43 33 23 43 33 23 43 33 23 96 99 88 96 99 88 96 99 88 245 208 97 96 99 88 96 99 88 245 208 97 245 208 97 96 99 88 96 99 88 245 208 97 96 99 88 96 99 88 96 99 88 43 33 23 43 33 23 43 33 23 43 33 23 43 33 23 43 33 23 43 33 23 43 33 23 43 33 23 43 33 23 43 33 23 43 33 23 43 33 23 43 33 23 43 33 23 43 33 23 43 33 23 43 33 23 43 33 23 43 33 23 43 33 23 43 33 23 43 33 23 43 33 23 43 33 23 43 33 23 43 33 23 43 33 23 43 33 23 43 33 23 43 33 23 43 33 23 43 33 23 43 33 23 43 33 23 43 33 23 43 33 23 43 33 23 43 33 23 43 33 23 43 33 23 43 33 23 43 33 23 43 33 23 43 33 23 43 33 23 43 33 23 43 33 23 43 33 23 43 33 23 43 33 23 43 33 23 43 33 23 43 33 23 43 33 23 43 33 23 43 33 23
43 33 23 43 33 23 43 33 23 43 33 23 43 33 23 43 33 23 43 33 23 43 33 23 43 33 23 43 33 23 43 33 23 43 33 23 43 33 23 43 33 23 43 33 23 43 33 23 43 33 23 43 33 23 43 33 23 43 33 23 43 33 23 43 33 23 43 33 23 43 33 23 43 33 23 43 33 23 43 33 23 43 33 23 43 33 23 43 33 23 43 33 23 43 33 23 43 33 23 43 33 23 43 33 23 43 33 23 43 33 23 43 33 23 43 33 23 43 33 23 43 33 23 43 33 23 43 33 23 43 33 23 43 33 23 43 33 23 43 33 23 43 33 23 43 33 23 43 33 23 43 33 23 43 33 23 43 33 23 43 33 23 43 33 23 43 33 23 43 33 23 96 99 88 96 99 88 96 99 88 245 208 97 96 99 88 96 99 88 245 208 97 245 208 97 96 99 88 96 99 88 245 208 97 96 99 88 96 99 88 96 99 88 43 33 23 43 33 23 43 33 23 43 33 23 43 33 23 43 33 23 43 33 23 43 33 23 43 33 23 43 33 23 43 33 23 43 33 23 43 33 23 43 33 23 43 33 23 43 33 23 43 33 23 43 33 23 43 33 23 43 33 23 43 33 23 43 33 23 43 33 23 43 33 23 43 33 23 43 33 23 43 33 23 43 33 23 43 33 23 43 33 23 43 33 23 43 33 23 43 33 23 43 33 23 43 33 23 43 33 23 43 33 23 43 33 23 43 33 23 43 33 23 43 33 23 43 33 23 43 33 23 43 33 23 43 33 23 43 33 23 43 33 23 43 33 23 43 33 23 43 33 23 43 33 23 43 33 23 43 33 23 43 33 23 43 33 23 43 33 23 43 33 23
43 33 23 43 33 23 43 33 23 43 33 23 43 33 23 43 33 23 43 33 23 43 33 23 43 33 23 43 33 23 43 33 23 43 33 23 43 33 23 43 33 23 43 33 23 43 33 23 43 33 23 43 33 23 43 33 23 43 33 23 43 33 23 43 33 23 43 33 23 43 33 23 43 33 23 43 33 23 43 33 23 43 33 23 43 33 23 43 33 23 43 33 23 43 33 23 43 33 23 43 33 23 43 33 23 43 33 23 43 33 23 43 33 23 43 33 23 43 33 23 43 33 23 43 33 23 43 33 23 43 33 23 43 33 23 43 33 23 43 33 23 43 33 23 43 33 23 43 33 23 43 33 23 43 33 23 43 33 23 43 33 23 43 33 23 43 33 23 43 33 23 96 99 88 96 99 88 96 99 88 245 208 97 96 99 88 96 99 88 245 208 97 245 208 97 96 99 88 96 99 88 245 208 97 96 99 88 96 99 88 96 99 88 43 33 23 43 33 23 43 33 23 43 33 23 43 33 23 43 33 23 43 33 23 43 33 23 43 33 23 43 33 23 43 33 23 43 33 23 43 33 23 43 33 23 43 33 23 43 33 23 43 33 23 43 33 23 43 33 23 43 33 23 43 33 23 43 33 23 43 33 23 43 33 23 43 33 23 43 33 23 43 33 23 43 33 23 43 33 23 43 33 23 43 33 23 43 33 23 43 33 23 43 33 23 43 33 23 43 33 23 43 33 23 43 33 23 43 33 23 43 33 23 43 33 23 43 33 23 43 33 23 43 33 23 43 33 23 43 33 23 43 33 23 43 33 23 43 33 23 43 33 23 43 33 23 43 33 23 43 33 23 43 33 23 43 33 23 43 33 23 43 33 23
43 33 23 43 33 23 43 33 23 43 33 23 43 33 23 43 33 23 43 33 23 43 33 23 43 33 23 43 33 23 43 33 23 43 33 23 43 33 23 43 33 23 43 33 23 43 33 23 43 33 23 43 33 23 43 33 23 43 33 23 43 33 23 43 33 23 43 33 23 43 33 23 43 33 23 43 33 23 43 33 23 43 33 23 43 33 23 43 33 23 43 33 23 43 33 23 43 33 23 43 33 23 43 33 23 43 33 23 43 33 23 43 33 23 43 33 23 43 33 23 43 33 23 43 33 23 43 33 23 43 33 23 43 33 23 43 33 23 43 33 23 43 33 23 43 33 23 43 33 23 43 33 23 43 33 23 43 33 23 43 33 23 43 33 23 43 33 23 43 33 23 96 99 88 96 99 88 96 99 88 245 208 97 96 99 88 96 99 88 245 208 97 245 208 97 96 99 88 96 99 88 245 208 97 96 99 88 96 99 88 96 99 88 43 33 23 43 33 23 43 33 23 43 33 23 43 33 23 43 33 23 43 33 23 43 33 23 43 33 23 43 33 23 43 33 23 43 33 23 43 33 23 43 33 23 43 33 23 43 33 23 43 33 23 43 33 23 43 33 23 43 33 23 43 33 23 43 33 23 43 33 23 43 33 23 43 33 23 43 33 23 43 33 23 43 33 23 43 33 23 43 33 23 43 33 23 43 33 23 43 33 23 43 33 23 43 33 23 43 33 23 43 33 23 43 33 23 43 33 23 43 33 23 43 33 23 43 33 23 43 33 23 43 33 23 43 33 23 43 33 23 43 33 23 43 33 23 43 33 23 43 33 23 43 33 23 43 33 23 43 33 23 43 33 23 43 33 23 43 33 23 43 33 23
43 33 23 43 33 23 43 33 23 43 33 23 43 33 23 43 33 23 43 33 23 43 33 23 43 33 23 43 33 23 43 33 23 43 33 23 43 33 23 43 33 23 43 33 23 43 33 23 43 33 23 43 33 23 43 33 23 43 33 23 43 33 23 43 33 23 43 33 23 43 33 23 43 33 23 43 33 23 43 33 23 43 33 23 43 33 23 43 33 23 43 33 23 43 33 23 43 33 23 43 33 23 43 33 23 43 33 23 43 33 23 43 33 23 43 33 23 43 33 23 43 33 23 43 33 23 43 33 23 43 33 23 43 33 23 43 33 23 43 33 23 43 33 23 43 33 23 43 33 23 43 33 23 43 33 23 43 33 23 43 33 23 43 33 23 43 33 23 43 33 23 96 99 88 96 99 88 96 99 88 245 208 97 96 99 88 96 99 88 245 208 97 245 208 97 96 99 88 96 99 88 245 208 97 96 99 88 96 99 88 96 99 88 43 33 23 43 33 23 43 33 23 43 33 23 43 33 23 43 33 23 43 33 23 43 33 23 43 33 23 43 33 23 43 33 23 43 33 23 43 33 23 43 33 23 43 33 23 43 33 23 43 33 23 43 33 23 43 33 23 43 33 23 43 33 23 43 33 23 43 33 23 43 33 23 43 33 23 43 33 23 43 33 23 43 33 23 43 33 23 43 33 23 43 33 23 43 33 23 43 33 23 43 33 23 43 33 23 43 33 23 43 33 23 43 33 23 43 33 23 43 33 23 43 33 23 43 33 23 43 33 23 43 33 23 43 33 23 43 33 23 43 33 23 43 33 23 43 33 23 43 33 23 43 33 23 43 33 23 43 33 23 43 33 23 43 33 23 43 33 23 43 33 23
43 33 23 43 33 23 43 33 23 43 33 23 43 33 23 43 33 23 43 33 23 43 33 23 43 33 23 43 33 23 43 33 23 43 33 23 43 33 23 43 33 23 43 33 23 43 33 23 43 33 23 43 33 23 43 33 23 43 33 23 43 33 23 43 33 23 43 33 23 43 33 23 43 33 23 43 33 23 43 33 23 43 33 23 43 33 23 43 33 23 43 33 23 43 33 23 43 33 23 43 33 23 43 33 23 43 33 23 43 33 23 43 33 23 43 33 23 43 33 23 43 33 23 43 33 23 43 33 23 43 33 23 43 33 23 43 33 23 43 33 23 43 33 23 43 33 23 43 33 23 43 33 23 43 33 23 43 33 23 43 33 23 43 33 23 43 33 23 43 33 23 96 99 88 96 99 88 96 99 88 245 208 97 96 99 88 96 99 88 245 208 97 245 208 97 96 99 88 96 99 88 245 208 97 96 99 88 96 99 88 96 99 88 43 33 23 43 33 23 43 33 23 43 33 23 43 33 23 43 33 23 43 33 23 43 33 23 43 33 23 43 33 23 43 33 23 43 33 23 43 33 23 43 33 23 43 33 23 43 33 23 43 33 23 43 33 23 43 33 23 43 33 23 43 33 23 43 33 23 43 33 23 43 33 23 43 33 23 43 33 23 43 33 23 43 33 23 43 33 23 43 33 23 43 33 23 43 33 23 43 33 23 43 33 23 43 33 23 43 33 23 43 33 23 43 33 23 43 33 23 43 33 23 43 33 23 43 33 23 43 33 23 43 33 23 43 33 23 43 33 23 43 33 23 43 33 23 43 33 23 43 33 23 43 33 23 43 33 23 43 33 23 43 33 23 43 33 23 43 33 23 43 33 23
43 33 23 43 33 23 43 33 23 43 33 23 43 33 23 43 33 23 43 33 23 43 33 23 43 33 23 43 33 23 43 33 23 43 33 23 43 33 23 43 33 23 43 33 23 43 33 23 43 33 23 43 33 23 43 33 23 43 33 23 43 33 23 43 33 23 43 33 23 43 33 23 43 33 23 43 33 23 43 33 23 43 33 23 43 33 23 43 33 23 43 33 23 43 33 23 43 33 23 43 33 23 43 33 23 43 33 23 43 33 23 43 33 23 43 33 23 43 33 23 43 33 23 43 33 23 43 33 23 43 33 23 43 33 23 43 33 23 43 33 23 43 33 23 43 33 23 43 33 23 43 33 23 43 33 23 43 33 23 43 33 23 43 33 23 43 33 23 43 33 23 96 99 88 96 99 88 96 99 88 245 208 97 96 99 88 96 99 88 245 208 97 245 208 97 96 99 88 96 99 88 245 208 97 96 99 88 96 99 88 96 99 88 43 33 23 43 33 23 43 33 23 43 33 23 43 33 23 43 33 23 43 33 23 43 33 23 43 33 23 43 33 23 43 33 23 43 33 23 43 33 23 43 33 23 43 33 23 43 33 23 43 33 23 43 33 23 43 33 23 43 33 23 43 33 23 43 33 23 43 33 23 43 33 23 43 33 23 43 33 23 43 33 23 43 33 23 43 33 23 43 33 23 43 33 23 43 33 23 43 33 23 43 33 23 43 33 23 43 33 23 43 33 23 43 33 23 43 33 23 43 33 23 43 33 23 43 33 23 43 33 23 43 33 23 43 33 23 43 33 23 43 33 23 43 33 23 43 33 23 43 33 23 43 33 23 43 33 23 43 33 23 43 33 23 43 33 23 43 33 23 43 33 23
43 33 23 43 33 23 43 33 23 43 33 23 43 33 23 43 33 23 43 33 23 43 33 23 43 33 23 43 33 23 43 33 23 43 33 23 43 33 23 43 33 23 43 33 23 43 33 23 43 33 23 43 33 23 43 33 23 43 33 23 43 33 23 43 33 23 43 33 23 43 33 23 43 33 23 43 33 23 43 33 23 43 33 23 43 33 23 43 33 23 43 33 23 43 33 23 43 33 23 43 33 23 43 33 23 43 33 23 43 33 23 43 33 23 43 33 23 43 33 23 43 33 23 43 33 23 43 33 23 43 33 23 43 33 23 43 33 23 43 33 23 43 33 23 43 33 23 43 33 23 43 33 23 43 33 23 43 33 23 43 33 23 43 33 23 43 33 23 43 33 23 96 99 88 96 99 88 96 99 88 245 208 97 96 99 88 96 99 88 245 208 97 245 208 97 96 99 88 96 99 88 245 208 97 96 99 88 96 99 88 96 99 88 43 33 23 43 33 23 43 33 23 43 33 23 43 33 23 43 33 23 43 33 23 43 33 23 43 33 23 43 33 23 43 33 23 43 33 23 43 33 23 43 33 23 43 33 23 43 33 23 43 33 23 43 33 23 43 33 23 43 33 23 43 33 23 43 33 23 43 33 23 43 33 23 43 33 23 43 33 23 43 33 23 43 33 23 43 33 23 43 33 23 43 33 23 43 33 23 43 33 23 43 33 23 43 33 23 43 33 23 43 33 23 43 33 23 43 33 23 43 33 23 43 33 23 43 33 23 43 33 23 43 33 23 43 33 23 43 33 23 43 33 23 43 33 23 43 33 23 43 33 23 43 33 23 43 33 23 43 33 23 43 33 23 43 33 23 43 33 23 43 33 23
43 33 23 43 33 23 43 33 23 43 33 23 43 33 23 43 33 23 43 33 23 43 33 23 43 33 23 43 33 23 43 33 23 43 33 23 43 33 23 43 33 23 43 33 23 43 33 23 43 33 23 43 33 23 43 33 23 43 33 23 43 33 23 43 33 23 43 33 23 43 33 23 43 33 23 43 33 23 43 33 23 43 33 23 43 33 23 43 33 23 43 33 23 43 33 23 43 33 23 43 33 23 43 33 23 43 33 23 43 33 23 43 33 23 43 33 23 43 33 23 43 33 23 43 33 23 43 33 23 43 33 23 43 33 23 43 33 23 43 33 23 43 33 23 43 33 23 43 33 23 43 33 23 43 33 23 43 33 23 43 33 23 43 33 23 43 33 23 43 33 23 96 99 88 96 99 88 96 99 88 245 208 97 96 99 88 96 99 88 245 208 97 245 208 97 96 99 88 96 99 88 245 208 97 96 99 88 96 99 88 96 99 88 43 33 23 43 33 23 43 33 23 43 33 23 43 33 23 43 33 23 43 33 23 43 33 23 43 33 23 43 33 23 43 33 23 43 33 23 43 33 23 43 33 23 43 33 23 43 33 23 43 33 23 43 33 23 43 33 23 43 33 23 43 33 23 43 33 23 43 33 23 43 33 23 43 33 23 43 33 23 43 33 23 43 33 23 43 33 23 43 33 23 43 33 23 43 33 23 43 33 23 43 33 23 43 33 23 43 33 23 43 33 23 43 33 23 43 33 23 43 33 23 43 33 23 43 33 23 43 33 23 43 33 23 43 33 23 43 33 23 43 33 23 43 33 23 43 33 23 43 33 23 43 33 23 43 33 23 43 33 23 43 33 23 43 33 23 43 33 23 43 33 23
43 33 23 43 33 23 43 33 23 43 33 23 43 33 23 43 33 23 43 33 23 43 33 23 43 33 23 43 33 23 43 33 23 43 33 23 43 33 23 43 33 23 43 33 23 43 33 23 43 33 23 43 33 23 43 33 23 43 33 23 43 33 23 43 33 23 43 33 23 43 33 23 43 33 23 43 33 23 43 33 23 43 33 23 43 33 23 43 33 23 43 33 23 43 33 23 43 33 23 43 33 23 43 33 23 43 33 23 43 33 23 43 33 23 43 33 23 43 33 23 43 33 23 43 33 23 43 33 23 43 33 23 43 33 23 43 33 23 43 33 23 43 33 23 43 33 23 43 33 23 43 33 23 43 33 23 43 33 23 43 33 23 43 33 23 43 33 23 43 33 23 96 99 88 96 99 88 96 99 88 245 208 97 96 99 88 96 99 88 245 208 97 245 208 97 96 99 88 96 99 88 245 208 97 96 99 88 96 99 88 96 99 88 43 33 23 43 33 23 43 33 23 43 33 23 43 33 23 43 33 23 43 33 23 43 33 23 43 33 23 43 33 23 43 33 23 43 33 23 43 33 23 43 33 23 43 33 23 43 33 23 43 33 23 43 33 23 43 33 23 43 33 23 43 33 23 43 33 23 43 33 23 43 33 23 43 33 23 43 33 23 43 33 23 43 33 23 43 33 23 43 33 23 43 33 23 43 33 23 43 33 23 43 33 23 43 33 23 43 33 23 43 33 23 43 33 23 43 33 23 43 33 23 43 33 23 43 33 23 43 33 23 43 33 23 43 33 23 43 33 23 43 33 23 43 33 23 43 33 23 43 33 23 43 33 23 43 33 23 43 33 23 43 33 23 43 33 23 43 33 23 43 33 23
43 33 23 43 33 23 43 33 23 43 33 23 43 33 23 43 33 23 43 33 23 43 33 23 43 33 23 43 33 23 43 33 23 43 33 23 43 33 23 43 33 23 43 33 23 43 33 23 43 33 23 43 33 23 43 33 23 43 33 23 43 33 23 43 33 23 43 33 23 43 33 23 43 33 23 43 33 23 43 33 23 43 33 23 43 33 23 43 33 23 43 33 23 43 33 23 43 33 23 43 33 23 43 33 23 43 33 23 43 33 23 43 33 23 43 33 23 43 33 23 43 33 23 43 33 23 43 33 23 43 33 23 43 33 23 43 33 23 43 33 23 43 33 23 43 33 23 43 33 23 43 33 23 43 33 23 43 33 23 43 33 23 43 33 23 43 33 23 43 33 23 96 99 88 96 99 88 96 99 88 245 208 97 96 99 88 96 99 88 245 208 97 245 208 97 96 99 88 96 99 88 245 208 97 96 99 88 96 99 88 96 99 88 43 33 23 43 33 23 43 33 23 43 33 23 43 33 23 43 33 23 43 33 23 43 33 23 43 33 23 43 33 23 43 33 23 43 33 23 43 33 23 43 33 23 43 33 23 43 33 23 43 33 23 43 33 23 43 33 23 43 33 23 43 33 23 43 33 23 43 33 23 43 33 23 43 33 23 43 33 23 43 33 23 43 33 23 43 33 23 43 33 23 43 33 23 43 33 23 43 33 23 43 33 23 43 33 23 43 33 23 43 33 23 43 33 23 43 33 23 43 33 23 43 33 23 43 33 23 43 33 23 43 33 23 43 33 23 43 33 23 43 33 23 43 33 23 43 33 23 43 33 23 43 33 23 43 33 23 43 33 23 43 33 23 43 33 23 43 33 23 43 33 23
43 33 23 43 33 23 43 33 23 43 33 23 43 33 23 43 33 23 43 33 23 43 33 23 43 33 23 43 33 23 43 33 23 43 33 23 43 33 23 43 33 23 43 33 23 43 33 23 43 33 23 43 33 23 43 33 23 43 33 23 43 33 23 43 33 23 43 33 23 43 33 23 43 33 23 43 33 23 43 33 23 43 33 23 43 33 23 43 33 23 43 33 23 43 33 23 43 33 23 43 33 23 43 33 23 43 33 23 43 33 23 43 33 23 43 33 23 43 33 23 43 33 23 43 33 23 43 33 23 43 33 23 43 33 23 43 33 23 43 33 23 43 33 23 43 33 23 43 33 23 43 33 23 43 33 23 43 33 23 43 33 23 43 33 23 43 33 23 43 33 23 96 99 88 96 99 88 96 99 88 245 208 97 96 99 88 96 99 88 245 208 97 245 208 97 96 99 88 96 99 88 245 208 97 96 99 88 96 99 88 96 99 88 43 33 23 43 33 23 43 33 23 43 33 23 43 33 23 43 33 23 43 33 23 43 33 23 43 33 23 43 33 23 43 33 23 43 33 23 43 33 23 43 33 23 43 33 23 43 33 23 43 33 23 43 33 23 43 33 23 43 33 23 43 33 23 43 33 23 43 33 23 43 33 23 43 33 23 43 33 23 43 33 23 43 33 23 43 33 23 43 33 23 43 33 23 43 33 23 43 33 23 43 33 23 43 33 23 43 33 23 43 33 23 43 33 23 43 33 23 43 33 23 43 33 23 43 33 23 43 33 23 43 33 23 43 33 23 43 33 23 43 33 23 43 33 23 43 33 23 43 33 23 43 33 23 43 33 23 43 33 23 43 33 23 43 33 23 43 33 23 43 33 23
43 33 23 43 33 23 43 33 23 43 33 23 43 33 23 43 33 23 43 33 23 43 33 23 43 33 23 43 33 23 43 33 23 43 33 23 43 33 23 43 33 23 43 33 23 43 33 23 43 33 23 43 33 23 43 33 23 43 33 23 43 33 23 43 33 23 43 33 23 43 33 23 43 33 23 43 33 23 43 33 23 43 33 23 43 33 23 43 33 23 43 33 23 43 33 23 43 33 23 43 33 23 43 33 23 43 33 23 43 33 23 43 33 23 43 33 23 43 33 23 43 33 23 43 33 23 43 33 23 43 33 23 43 33 23 43 33 23 43 33 23 43 33 23 43 33 23 43 33 23 43 33 23 43 33 23 43 33 23 43 33 23 43 33 23 43 33 23 43 33 23 96 99 88 96 99 88 96 99 88 245 208 97 96 99 88 96 99 88 245 208 97 245 208 97 96 99 88 96 99 88 245 208 97 96 99 88 96 99 88 96 99 88 43 33 23 43 33 23 43 33 23 43 33 23 43 33 23 43 33 23 43 33 23 43 33 23 43 33 23 43 33 23 43 33 23 43 33 23 43 33 23 43 33 23 43 33 23 43 33 23 43 33 23 43 33 23 43 33 23 43 33 23 43 33 23 43 33 23 43 33 23 43 33 23 43 33 23 43 33 23 43 33 23 43 33 23 43 33 23 43 33 23 43 33 23 43 33 23 43 33 23 43 33 23 43 33 23 43 33 23 43 33 23 43 33 23 43 33 23 43 33 23 43 33 23 43 33 23 43 33 23 43 33 23 43 33 23 43 33 23 43 33 23 43 33 23 43 33 23 43 33 23 43 33 23 43 33 23 43 33 23 43 33 23 43 33 23 43 33 23 43 33 23
43 33 23 43 33 23 43 33 23 43 33 23 43 33 23 43 33 23 43 33 23 43 33 23 43 33 23 43 33 23 43 33 23 43 33 23 43 33 23 43 33 23 43 33 23 43 33 23 43 33 23 43 33 23 43 33 23 43 33 23 43 33 23 43 33 23 43 33 23 43 33 23 43 33 23 43 33 23 43 33 23 43 33 23 43 33 23 43 33 23 43 33 23 43 33 23 43 33 23 43 33 23 43 33 23 43 33 23 43 33 23 43 33 23 43 33 23 43 33 23 43 33 23 43 33 23 43 33 23 43 33 23 43 33 23 43 33 23 43 33 23 43 33 23 43 33 23 43 33 23 43 33 23 43 33 23 43 33 23 43 33 23 43 33 23 43 33 23 43 33 23 96 99 88 96 99 88 96 99 88 245 208 97 96 99 88 96 99 88 245 208 97 245 208 97 96 99 88 96 99 88 245 208 97 96 99 88 96 99 88 96 99 88 43 33 23 43 33 23 43 33 23 43 33 23 43 33 23 43 33 23 43 33 23 43 33 23 43 33 23 43 33 23 43 33 23 43 33 23 43 33 23 43 33 23 43 33 23 43 33 23 43 33 23 43 33 23 43 33 23 43 33 23 43 33 23 43 33 23 43 33 23 43 33 23 43 33 23 43 33 23 43 33 23 43 33 23 43 33 23 43 33 23 43 33 23 43 33 23 43 33 23 43 33 23 43 33 23 43 33 23 43 33 23 43 33 23 43 33 23 43 33 23 43 33 23 43 33 23 43 33 23 43 33 23 43 33 23 43 33 23 43 33 23 43 33 23 43 33 23 43 33 23 43 33 23 43 33 23 43 33 23 43 33 23 43 33 23 43 33 23 43 33 23
43 33 23 43 33 23 43 33 23 43 33 23 43 33 23 43 33 23 43 33 23 43 33 23 43 33 23 43 33 23 43 33 23 43 33 23 43 33 23 43 33 23 43 33 23 43 33 23 43 33 23 43 33 23 43 33 23 43 33 23 43 33 23 43 33 23 43 33 23 43 33 23 43 33 23 43 33 23 43 33 23 43 33 23 43 33 23 43 33 23 43 33 23 43 33 23 43 33 23 43 33 23 43 33 23 43 33 23 43 33 23 43 33 23 43 33 23 43 33 23 43 33 23 43 33 23 43 33 23 43 33 23 43 33 23 43 33 23 43 33 23 43 33 23 43 33 23 43 33 23 43 33 23 43 33 23 43 33 23 43 33 23 43 33 23 43 33 23 43 33 23 96 99 88 96 99 88 96 99 88 245 208 97 96 99 88 96 99 88 245 208 97 245 208 97 96 99 88 96 99 88 245 208 97 96 99 88 96 99 88 96 99 88 43 33 23 43 33 23 43 33 23 43 33 23 43 33 23 43 33 23 43 33 23 43 33 23 43 33 23 43 33 23 43 33 23 43 33 23 43 33 23 43 33 23 43 33 23 43 33 23 43 33 23 43 33 23 43 33 23 43 33 23 43 33 23 43 33 23 43 33 23 43 33 23 43 33 23 43 33 23 43 33 23 43 33 23 43 33 23 43 33 23 43 33 23 43 33 23 43 33 23 43 33 23 43 33 23 43 33 23 43 33 23 43 33 23 43 33 23 43 33 23 43 33 23 43 33 23 43 33 23 43 33 23 43 33 23 43 33 23 43 33 23 43 33 23 43 33 23 43 33 23 43 33 23 43 33 23 43 33 23 43 33 23 43 33 23 43 33 23 43 33 23
43 33 23 43 33 23 43 33 23 43 33 23 43 33 23 43 33 23 43 33 23 43 33 23 43 33 23 43 33 23 43 33 23 43 33 23 43 33 23 43 33 23 43 33 23 43 33 23 43 33 23 43 33 23 43 33 23 43 33 23 43 33 23 43 33 23 43 33 23 43 33 23 43 33 23 43 33 23 43 33 23 43 33 23 43 33 23 43 33 23 43 33 23 43 33 23 43 33 23 43 33 23 43 33 23 43 33 23 43 33 23 43 33 23 43 33 23 43 33 23 43 33 23 43 33 23 43 33 23 43 33 23 43 33 23 43 33 23 43 33 23 43 33 23 43 33 23 43 33 23 43 33 23 43 33 23 43 33 23 43 33 23 43 33 23 43 33 23 43 33 23 96 99 88 96 99 88 96 99 88 245 208 97 96 99 88 96 99 88 245 208 97 245 208 97 96 99 88 96 99 88 245 208 97 96 99 88 96 99 88 96 99 88 43 33 23 43 33 23 43 33 23 43 33 23 43 33 23 43 33 23 43 33 23 43 33 23 43 33 23 43 33 23 43 33 23 43 33 23 43 33 23 43 33 23 43 33 23 43 33 23 43 33 23 43 33 23 43 33 23 43 33 23 43 33 23 43 33 23 43 33 23 43 33 23 43 33 23 43 33 23 43 33 23 43 33 23 43 33 23 43 33 23 43 33 23 43 33 23 43 33 23 43 33 23 43 33 23 43 33 23 43 33 23 43 33 23 43 33 23 43 33 23 43 33 23 43 33 23 43 33 23 43 33 23 43 33 23 43 33 23 43 33 23 43 33 23 43 33 23 43 33 23 43 33 23 43 33 23 43 33 23 43 33 23 43 33 23 43 33 23 43 33 23
43 33 23 43 33 23 43 33 23 43 33 23 43 33 23 43 33 23 43 33 23 43 33 23 43 33 23 43 33 23 43 33 23 43 33 23 43 33 23 43 33 23 43 33 23 43 33 23 43 33 23 43 33 23 43 33 23 43 33 23 43 33 23 43 33 23 43 33 23 43 33 23 43 33 23 43 33 23 43 33 23 43 33 23 43 33 23 43 33 23 43 33 23 43 33 23 43 33 23 43 33 23 43 33 23 43 33 23 43 33 23 43 33 23 43 33 23 43 33 23 43 33 23 43 33 23 43 33 23 43 33 23 43 33 23 43 33 23 43 33 23 43 33 23 43 33 23 43 33 23 43 33 23 43 33 23 43 33 23 43 33 23 43 33 23 43 33 23 43 33 23 96 99 88 96 99 88 96 99 88 245 208 97 96 99 88 96 99 88 245 208 97 245 208 97 96 99 88 96 99 88 245 208 97 96 99 88 96 99 88 96 99 88 43 33 23 43 33 23 43 33 23 43 33 23 43 33 23 43 33 23 43 33 23 43 33 23 43 33 23 43 33 23 43 33 23 43 33 23 43 33 23 43 33 23 43 33 23 43 33 23 43 33 23 43 33 23 43 33 23 43 33 23 43 33 23 43 33 23 43 33 23 43 33 23 43 33 23 43 33 23 43 33 23 43 33 23 43 33 23 43 33 23 43 33 23 43 33 23 43 33 23 43 33 23 43 33 23 43 33 23 43 33 23 43 33 23 43 33 23 43 33 23 43 33 23 43 33 23 43 33 23 43 33 23 43 33 23 43 33 23 43 33 23 43 33 23 43 33 23 43 33 23 43 33 23 43 33 23 43 33 23 43 33 23 43 33 23 43 33 23 43 33 23
43 33 23 43 33 23 43 33 23 43 33 23 43 33 23 43 33 23 43 33 23 43 33 23 43 33 23 43 33 23 43 33 23 43 33 23 43 33 23 43 33 23 43 33 23 43 33 23 43 33 23 43 33 23 43 33 23 43 33 23 43 33 23 43 33 23 43 33 23 43 33 23 43 33 23 43 33 23 43 33 23 43 33 23 43 33 23 43 33 23 43 33 23 43 33 23 43 33 23 43 33 23 43 33 23 43 33 23 43 33 23 43 33 23 43 33 23 43 33 23 43 33 23 43 33 23 43 33 23 43 33 23 43 33 23 43 33 23 43 33 23 43 33 23 43 33 23 43 33 23 43 33 23 43 33 23 43 33 23 43 33 23 43 33 23 43 33 23 43 33 23 96 99 88 96 99 88 96 99 88 245 208 97 96 99 88 96 99 88 245 208 97 245 208 97 96 99 88 96 99 88 245 208 97 96 99 88 96 99 88 96 99 88 43 33 23 43 33 23 43 33 23 43 33 23 43 33 23 43 33 23 43 33 23 43 33 23 43 33 23 43 33 23 43 33 23 43 33 23 43 33 23 43 33 23 43 33 23 43 33 23 43 33 23 43 33 23 43 33 23 43 33 23 43 33 23 43 33 23 43 33 23 43 33 23 43 33 23 43 33 23 43 33 23 43 33 23 43 33 23 43 33 23 43 33 23 43 33 23 43 33 23 43 33 23 43 33 23 43 33 23 43 33 23 43 33 23 43 33 23 43 33 23 43 33 23 43 33 23 43 33 23 43 33 23 43 33 23 43 33 23 43 33 23 43 33 23 43 33 23 43 33 23 43 33 23 43 33 23 43 33 23 43 33 23 43 33 23 43 33 23 43 33 23
43 33 23 43 33 23 43 33 23 43 33 23 43 33 23 43 33 23 43 33 23 43 33 23 43 33 23 43 33 23 43 33 23 43 33 23 43 33 23 43 33 23 43 33 23 43 33 23 43 33 23 43 33 23 43 33 23 43 33 23 43 33 23 43 33 23 43 33 23 43 33 23 43 33 23 43 33 23 43 33 23 43 33 23 43 33 23 43 33 23 43 33 23 43 33 23 43 33 23 43 33 23 43 33 23 43 33 23 43 33 23 43 33 23 43 33 23 43 33 23 43 33 23 43 33 23 43 33 23 43 33 23 43 33 23 43 33 23 43 33 23 43 33 23 43 33 23 43 33 23 43 33 23 43 33 23 43 33 23 43 33 23 43 33 23 43 33 23 43 33 23 96 99 88 96 99 88 96 99 88 245 208 97 96 99 88 96 99 88 245 208 97 245 208 97 96 99 88 96 99 88 245 208 97 96 99 88 96 99 88 96 99 88 43 33 23 43 33 23 43 33 23 43 33 23 43 33 23 43 33 23 43 33 23 43 33 23 43 33 23 43 33 23 43 33 23 43 33 23 43 33 23 43 33 23 43 33 23 43 33 23 43 33 23 43 33 23 43 33 23 43 33 23 43 33 23 43 33 23 43 33 23 43 33 23 43 33 23 43 33 23 43 33 23 43 33 23 43 33 23 43 33 23 43 33 23 43 33 23 43 33 23 43 33 23 43 33 23 43 33 23 43 33 23 43 33 23 43 33 23 43 33 23 43 33 23 43 33 23 43 33 23 43 33 23 43 33 23 43 33 23 43 33 23 43 33 23 43 33 23 43 33 23 43 33 23 43 33 23 43 33 23 43 33 23 43 33 23 43 33 23 43 33 23
43 33 23 43 33 23 43 33 23 43 33 23 43 33 23 43 33 23 43 33 23 43 33 23 43 33 23 43 33 23 43 33 23 43 33 23 43 33 23 43 33 23 43 33 23 43 33 23 43 33 23 43 33 23 43 33 23 43 33 23 43 33 23 43 33 23 43 33 23 43 33 23 43 33 23 43 33 23 43 33 23 43 33 23 43 33 23 43 33 23 43 33 23 43 33 23 43 33 23 43 33 23 43 33 23 43 33 23 43 33 23 43 33 23 43 33 23 43 33 23 43 33 23 43 33 23 43 33 23 43 33 23 43 33 23 43 33 23 43 33 23 43 33 23 43 33 23 43 33 23 43 33 23 43 33 23 43 33 23 43 33 23 43 33 23 43 33 23 43 33 23 96 99 88 96 99 88 96 99 88 245 208 97 96 99 88 96 99 88 245 208 97 245 208 97 96 99 88 96 99 88 245 208 97 96 99 88 96 99 88 96 99 88 43 33 23 43 33 23 43 33 23 43 33 23 43 33 23 43 33 23 43 33 23 43 33 23 43 33 23 43 33 23 43 33 23 43 33 23 43 33 23 43 33 23 43 33 23 43 33 23 43 33 23 43 33 23 43 33 23 43 33 23 43 33 23 43 33 23 43 33 23 43 33 23 43 33 23 43 33 23 43 33 23 43 33 23 43 33 23 43 33 23 43 33 23 43 33 23 43 33 23 43 33 23 43 33 23 43 33 23 43 33 23 43 33 23 43 33 23 43 33 23 43 33 23 43 33 23 43 33 23 43 33 23 43 33 23 43 33 23 43 33 23 43 33 23 43 33 23 43 33 23 43 33 23 43 33 23 43 33 23 43 33 23 43 33 23 43 33 23 43 33 23
43 33 23 43 33 23 43 33 23 43 33 23 43 33 23 43 33 23 43 33 23 43 33 23 43 33 23 43 33 23 43 33 23 43 33 23 43 33 23 43 33 23 43 33 23 43 33 23 43 33 23 43 33 23 43 33 23 43 33 23 43 33 23 43 33 23 43 33 23 43 33 23 43 33 23 43 33 23 43 33 23 43 33 23 43 33 23 43 33 23 43 33 23 43 33 23 43 33 23 43 33 23 43 33 23 43 33 23 43 33 23 43 33 23 43 33 23 43 33 23 43 33 23 43 33 23 43 33 23 43 33 23 43 33 23 43 33 23 43 33 23 43 33 23 43 33 23 43 33 23 43 33 23 43 33 23 43 33 23 43 33 23 43 33 23 43 33 23 43 33 23 96 99 88 96 99 88 96 99 88 245 208 97 96 99 88 96 99 88 245 208 97 245 208 97 96 99 88 96 99 88 245 208 97 96 99 88 96 99 88 96 99 88 43 33 23 43 33 23 43 33 23 43 33 23 43 33 23 43 33 23 43 33 23 43 33 23 43 33 23 43 33 23 43 33 23 43 33 23 43 33 23 43 33 23 43 33 23 43 33 23 43 33 23 43 33 23 43 33 23 43 33 23 43 33 23 43 33 23 43 33 23 43 33 23 43 33 23 43 33 23 43 33 23 43 33 23 43 33 23 43 33 23 43 33 23 43 33 23 43 33 23 43 33 23 43 33 23 43 33 23 43 33 23 43 33 23 43 33 23 43 33 23 43 33 23 43 33 23 43 33 23 43 33 23 43 33 23 43 33 23 43 33 23 43 33 23 43 33 23 43 33 23 43 33 23 43 33 23 43 33 23 43 33 23 43 33 23 43 33 23 43 33 23
43 33 23 43 33 23 43 33 23 43 33 23 43 33 23 43 33 23 43 33 23 43 33 23 43 33 23 43 33 23 43 33 23 43 33 23 43 33 23 43 33 23 43 33 23 43 33 23 43 33 23 43 33 23 43 33 23 43 33 23 43 33 23 43 33 23 43 33 23 43 33 23 43 33 23 43 33 23 43 33 23 43 33 23 43 33 23 43 33 23 43 33 23 43 33 23 43 33 23 43 33 23 43 33 23 43 33 23 43 33 23 43 33 23 43 33 23 43 33 23 43 33 23 43 33 23 43 33 23 43 33 23 43 33 23 43 33 23 43 33 23 43 33 23 43 33 23 43 33 23 43 33 23 43 33 23 43 33 23 43 33 23 43 33 23 43 33 23 43 33 23 96 99 88 96 99 88 96 99 88 245 208 97 96 99 88 96 99 88 245 208 97 245 208 97 96 99 88 96 99 88 245 208 97 96 99 88 96 99 88 96 99 88 43 33 23 43 33 23 43 33 23 43 33 23 43 33 23 43 33 23 43 33 23 43 33 23 43 33 23 43 33 23 43 33 23 43 33 23 43 33 23 43 33 23 43 33 23 43 33 23 43 33 23 43 33 23 43 33 23 43 33 23 43 33 23 43 33 23 43 33 23 43 33 23 43 33 23 43 33 23 43 33 23 43 33 23 43 33 23 43 33 23 43 33 23 43 33 23 43 33 23 43 33 23 43 33 23 43 33 23 43 33 23 43 33 23 43 33 23 43 33 23 43 33 23 43 33 23 43 33 23 43 33 23 43 33 23 43 33 23 43 33 23 43 33 23 43 33 23 43 33 23 43 33 23 43 33 23 43 33 23 43 33 23 43 33 23 43 33 23 43 33 23
43 33 23 43 33 23 43 33 23 43 33 23 43 33 23 43 33 23 43 33 23 43 33 23 43 33 23 43 33 23 43 33 23 43 33 23 43 33 23 43 33 23 43 33 23 43 33 23 43 33 23 43 33 23 43 33 23 43 33 23 43 33 23 43 33 23 43 33 23 43 33 23 43 33 23 43 33 23 43 33 23 43 33 23 43 33 23 43 33 23 43 33 23 43 33 23 43 33 23 43 33 23 43 33 23 43 33 23 43 33 23 43 33 23 43 33 23 43 33 23 43 33 23 43 33 23 43 33 23 43 33 23 43 33 23 43 33 23 43 33 23 43 33 23 43 33 23 43 33 23 43 33 23 43 33 23 43 33 23 43 33 23 43 33 23 43 33 23 43 33 23 96 99 88 96 99 88 96 99 88 245 208 97 96 99 88 96 99 88 245 208 97 245 208 97 96 99 88 96 99 88 245 208 97 96 99 88 96 99 88 96 99 88 43 33 23 43 33 23 43 33 23 43 33 23 43 33 23 43 33 23 43 33 23 43 33 23 43 33 23 43 33 23 43 33 23 43 33 23 43 33 23 43 33 23 43 33 23 43 33 23 43 33 23 43 33 23 43 33 23 43 33 23 43 33 23 43 33 23 43 33 23 43 33 23 43 33 23 43 33 23 43 33 23 43 33 23 43 33 23 43 33 23 43 33 23 43 33 23 43 33 23 43 33 23 43 33 23 43 33 23 43 33 23 43 33 23 43 33 23 43 33 23 43 33 23 43 33 23 43 33 23 43 33 23 43 33 23 43 33 23 43 33 23 43 33 23 43 33 23 43 33 23 43 33 23 43 33 23 43 33 23 43 33 23 43 33 23 43 33 23 43 33 23
43 33 23 43 33 23 43 33 23 43 33 23 43 33 23 43 33 23 43 33 23 43 33 23 43 33 23 43 33 23 43 33 23 43 33 23 43 33 23 43 33 23 43 33 23 43 33 23 43 33 23 43 33 23 43 33 23 43 33 23 43 33 23 43 33 23 43 33 23 43 33 23 43 33 23 43 33 23 43 33 23 43 33 23 43 33 23 43 33 23 43 33 23 43 33 23 43 33 23 43 33 23 43 33 23 43 33 23 43 33 23 43 33 23 43 33 23 43 33 23 43 33 23 43 33 23 43 33 23 43 33 23 43 33 23 43 33 23 43 33 23 43 33 23 43 33 23 43 33 23 43 33 23 43 33 23 43 33 23 43 33 23 43 33 23 43 33 23 43 33 23 96 99 88 96 99 88 96 99 88 245 208 97 96 99 88 96 99 88 245 208 97 245 208 97 96 99 88 96 99 88 245 208 97 96 99 88 96 99 88 96 99 88 43 33 23 43 33 23 43 33 23 43 33 23 43 33 23 43 33 23 43 33 23 43 33 23 43 33 23 43 33 23 43 33 23 43 33 23 43 33 23 43 33 23 43 33 23 43 33 23 43 33 23 43 33 23 43 33 23 43 33 23 43 33 23 43 33 23 43 33 23 43 33 23 43 33 23 43 33 23 43 33 23 43 33 23 43 33 23 43 33 23 43 33 23 43 33 23 43 33 23 43 33 23 43 33 23 43 33 23 43 33 23 43 33 23 43 33 23 43 33 23 43 33 23 43 33 23 43 33 23 43 33 23 43 33 23 43 33 23 43 33 23 43 33 23 43 33 23 43 33 23 43 33 23 43 33 23 43 33 23 43 33 23 43 33 23 43 33 23 43 33 23
43 33 23 43 33 23 43 33 23 43 33 23 43 33 23 43 33 23 43 33 23 43 33 23 43 33 23 43 33 23 43 33 23 43 33 23 43 33 23 43 33 23 43 33 23 43 33 23 43 33 23 43 33 23 43 33 23 43 33 23 43 33 23 43 33 23 43 33 23 43 33 23 43 33 23 43 33 23 43 33 23 43 33 23 43 33 23 43 33 23 43 33 23 43 33 23 43 33 23 43 33 23 43 33 23 43 33 23 43 33 23 43 33 23 43 33 23 43 33 23 43 33 23 43 33 23 43 33 23 43 33 23 43 33 23 43 33 23 43 33 23 43 33 23 43 33 23 43 33 23 43 33 23 43 33 23 43 33 23 43 33 23 43 33 23 43 33 23 43 33 23 96 99 88 96 99 88 96 99 88 245 208 97 96 99 88 96 99 88 245 208 97 245 208 97 96 99 88 96 99 88 245 208 97 96 99 88 96 99 88 96 99 88 15 124 115 15 124 115 43 33 23 43 33 23 43 33 23 43 33 23 43 33 23 43 33 23 43 33 23 43 33 23 43 33 23 43 33 23 43 33 23 43 33 23 43 33 23 43 33 23 43 33 23 43 33 23 43 33 23 43 33 23 43 33 23 43 33 23 43 33 23 43 33 23 43 33 23 43 33 23 43 33 23 43 33 23 43 33 23 43 33 23 43 33 23 43 33 23 43 33 23 43 33 23 43 33 23 43 33 23 43 33 23 43 33 23 43 33 23 43 33 23 43 33 23 43 33 23 43 33 23 43 33 23 43 33 23 43 33 23 43 33 23 43 33 23 43 33 23 43 33 23 43 33 23 43 33 23 43 33 23 43 33 23 43 33 23 43 33 23 43 33 23
43 33 23 43 33 23 43 33 23 43 33 23 43 33 23 43 33 23 43 33 23 43 33 23 43 33 23 43 33 23 43 33 23 43 33 23 43 33 23 43 33 23 43 33 23 43 33 23 43 33 23 43 33 23 43 33 23 43 33 23 43 33 23 43 33 23 43 33 23 43 33 23 43 33 23 43 33 23 43 33 23 43 33 23 43 33 23 43 33 23 43 33 23 43 33 23 43 33 23 43 33 23 43 33 23 43 33 23 43 33 23 43 33 23 43 33 23 43 33 23 43 33 23 43 33 23 43 33 23 43 33 23 43 33 23 43 33 23 43 33 23 43 33 23 43 33 23 43 33 23 43 33 23 43 33 23 43 33 23 43 33 23 43 33 23 43 33 23 43 33 23 96 99 88 96 99 88 96 99 88 245 208 97 96 99 88 96 99 88 245 208 97 245 208 97 96 99 88 96 99 88 245 208 97 96 99 88 96 99 88 96 99 88 43 33 23 43 33 23 43 33 23 43 33 23 43 33 23 43 33 23 43 33 23 43 33 23 43 33 23 43 33 23 43 33 23 43 33 23 43 33 23 43 33 23 43 33 23 43 33 23 43 33 23 43 33 23 43 33 23 43 33 23 43 33 23 43 33 23 43 33 23 43 33 23 43 33 23 43 33 23 43 33 23 43 33 23 43 33 23 43 33 23 43 33 23 43 33 23 43 33 23 43 33 23 43 33 23 43 33 23 43 33 23 43 33 23 43 33 23 43 33 23 43 33 23 43 33 23 43 33 23 43 33 23 43 33 23 43 33 23 43 33 23 43 33 23 43 33 23 43 33 23 43 33 23 43 33 23 43 33 23 43 33 23 43 33 23 43 33 23 43 33 23
43 33 23 43 33 23 43 33 23 43 33 23 43 33 23 43 33 23 43 33 23 43 33 23 43 33 23 43 33 23 43 33 23 43 33 23 43 33 23 43 33 23 43 33 23 43 33 23 43 33 23 43 33 23 43 33 23 43 33 23 43 33 23 43 33 23 43 33 23 43 33 23 43 33 23 43 33 23 43 33 23 43 33 23 43 33 23 43 33 23 43 33 23 43 33 23 43 33 23 43 33 23 43 33 23 43 33 23 43 33 23 43 33 23 43 33 23 43 33 23 43 33 23 43 33 23 43 33 23 43 33 23 43 33 23 43 33 23 43 33 23 43 33 23 43 33 23 43 33 23 43 33 23 43 33 23 43 33 23 43 33 23 43 33 23 43 33 23 43 33 23 96 99 88 96 99 88 96 99 88 245 208 97 96 99 88 96 99 88 245 208 97 245 208 97 96 99 88 96 99 88 245 208 97 96 99 88 96 99 88 96 99 88 43 33 23 43 33 23 43 33 23 43 33 23 43 33 23 43 33 23 43 33 23 43 33 23 43 33 23 43 33 23 43 33 23 43 33 23 43 33 23 43 33 23 43 33 23 43 33 23 43 33 23 43 33 23 43 33 23 43 33 23 43 33 23 43 33 23 43 33 23 43 33 23 43 33 23 43 33 23 43 33 23 43 33 23 43 33 23 43 33 23 43 33 23 43 33 23 43 33 23 43 33 23 43 33 23 43 33 23 43 33 23 43 33 23 43 33 23 43 33 23 43 33 23 43 33 23 43 33 23 43 33 23 43 33 23 43 33 23 43 33 23 43 33 23 43 33 23 43 33 23 43 33 23 43 33 23 43 33 23 43 33 23 43 33 23 43 33 23 43 33 23
43 33 23 43 33 23 43 33 23 43 33 23 43 33 23 43 33 23 43 33 23 43 33 23 43 33 23 43 33 23 43 33 23 43 33 23 43 33 23 43 33 23 43 33 23 43 33 23 43 33 23 43 33 23 43 33 23 43 33 23 43 33 23 43 33 23 43 33 23 43 33 23 43 33 23 43 33 23 43 33 23 43 33 23 43 33 23 43 33 23 43 33 23 43 33 23 43 33 23 43 33 23 43 33 23 43 33 23 43 33 23 43 33 23 43 33 23 43 33 23 43 33 23 43 33 23 43 33 23 43 33 23 43 33 23 43 33 23 43 33 23 43 33 23 43 33 23 43 33 23 43 33 23 43 33 23 43 33 23 43 33 23 43 33 23 43 33 23 43 33 23 96 99 88 96 99 88 96 99 88 245 208 97 96 99 88 96 99 88 245 208 97 245 208 97 96 99 88 96 99 88 245 208 97 96 99 88 96 99 88 96 99 88 43 33 23 43 33 23 43 33 23 43 33 23 43 33 23 43 33 23 43 33 23 43 33 23 43 33 23 43 33 23 43 33 23 43 33 23 43 33 23 43 33 23 43 33 23 43 33 23 43 33 23 43 33 23 43 33 23 43 33 23 43 33 23 43 33 23 43 33 23 43 33 23 43 33 23 43 33 23 43 33 23 43 33 23 43 33 23 43 33 23 43 33 23 43 33 23 43 33 23 43 33 23 43 33 23 43 33 23 43 33 23 43 33 23 43 33 23 43 33 23 43 33 23 43 33 23 43 33 23 43 33 23 43 33 23 43 33 23 43 33 23 43 33 23 43 33 23 43 33 23 43 33 23 43 33 23 43 33 23 43 33 23 43 33 23 43 33 23 43 33 23
43 33 23 43 33 23 43 33 23 43 33 23 43 33 23 43 33 23 43 33 23 43 33 23 43 33 23 43 33 23 43 33 23 43 33 23 43 33 23 43 33 23 43 33 23 43 33 23 43 33 23 43 33 23 43 33 23 43 33 23 43 33 23 43 33 23 43 33 23 43 33 23 43 33 23 43 33 23 43 33 23 43 33 23 43 33 23 43 33 23 43 33 23 43 33 23 43 33 23 43 33 23 43 33 23 43 33 23 43 33 23 43 33 23 43 33 23 43 33 23 43 33 23 43 33 23 43 33 23 43 33 23 43 33 23 43 33 23 43 33 23 43 33 23 43 33 23 43 33 23 43 33 23 43 33 23 43 33 23 43 33 23 43 33 23 43 33 23 43 33 23 96 99 88 96 99 88 96 99 88 245 208 97 96 99 88 96 99 88 245 208 97 245 208 97 96 99 88 96 99 88 245 208 97 96 99 88 96 99 88 96 99 88 43 33 23 43 33 23 43 33 23 43 33 23 43 33 23 43 33 23 43 33 23 43 33 23 43 33 23 43 33 23 43 33 23 43 33 23 43 33 23 43 33 23 43 33 23 43 33 23 43 33 23 43 33 23 43 33 23 43 33 23 43 33 23 43 33 23 43 33 23 43 33 23 43 33 23 43 33 23 43 33 23 43 33 23 43 33 23 43 33 23 43 33 23 43 33 23 43 33 23 43 33 23 43 33 23 43 33 23 43 33 23 43 33 23 43 33 23 43 33 23 43 33 23 43 33 23 43 33 23 43 33 23 43 33 23 43 33 23 43 33 23 43 33 23 43 33 23 43 33 23 43 33 23 43 33 23 43 33 23 43 33 23 43 33 23 43 33 23 43 33 23
43 33 23 43 33 23 43 33 23 43 33 23 43 33 23 43 33 23 43 33 23 43 33 23 43 33 23 43 33 23 43 33 23 43 33 23 43 33 23 43 33 23 43 33 23 43 33 23 43 33 23 43 33 23 43 33 23 43 33 23 43 33 23 43 33 23 43 33 23 43 33 23 43 33 23 43 33 23 43 33 23 43 33 23 43 33 23 43 33 23 43 33 23 43 33 23 43 33 23 43 33 23 43 33 23 43 33 23 43 33 23 43 33 23 43 33 23 43 33 23 43 33 23 43 33 23 43 33 23 43 33 23 43 33 23 43 33 23 43 33 23 43 33 23 43 33 23 43 33 23 43 33 23 43 33 23 43 33 23 43 33 23 43 33 23 43 33 23 43 33 23 96 99 88 96 99 88 96 99 88 245 208 97 96 99 88 96 99 88 245 208 97 245 208 97 96 99 88 96 99 88 245 208 97 96 99 88 96 99 88 96 99 88 43 33 23 43 33 23 43 33 23 43 33 23 43 33 23 43 33 23 43 33 23 43 33 23 43 33 23 43 33 23 43 33 23 43 33 23 43 33 23 43 33 23 43 33 23 43 33 23 43 33 23 43 33 23 43 33 23 43 33 23 43 33 23 43 33 23 43 33 23 43 33 23 43 33 23 43 33 23 43 33 23 43 33 23 43 33 23 43 33 23 43 33 23 43 33 23 43 33 23 43 33 23 43 33 23 43 33 23 43 33 23 43 33 23 43 33 23 43 33 23 43 33 23 43 33 23 43 33 23 43 33 23 43 33 23 43 33 23 43 33 23 43 33 23 43 33 23 43 33 23 43 33 23 43 33 23 43 33 23 43 33 23 43 33 23 43 33 23 43 33 23
43 33 23 43 33 23 43 33 23 43 33 23 43 33 23 43 33 23 43 33 23 43 33 23 43 33 23 43 33 23 43 33 23 43 33 23 43 33 23 43 33 23 43 33 23 43 33 23 43 33 23 43 33 23 43 33 23 43 33 23 43 33 23 43 33 23 43 33 23 43 33 23 43 33 23 43 33 23 43 33 23 43 33 23 43 33 23 43 33 23 43 33 23 43 33 23 43 33 23 43 33 23 43 33 23 43 33 23 43 33 23 43 33 23 43 33 23 43 33 23 43 33 23 43 33 23 43 33 23 43 33 23 43 33 23 43 33 23 43 33 23 43 33 23 43 33 23 43 33 23 43 33 23 43 33 23 43 33 23 43 33 23 43 33 23 43 33 23 43 33 23 96 99 88 96 99 88 96 99 88 245 208 97 96 99 88 96 99 88 245 208 97 245 208 97 96 99 88 96 99 88 245 208 97 96 99 88 96 99 88 96 99 88 43 33 23 43 33 23 43 33 23 43 33 23 43 33 23 43 33 23 43 33 23 43 33 23 43 33 23 43 33 23 43 33 23 43 33 23 43 33 23 43 33 23 43 33 23 43 33 23 43 33 23 43 33 23 43 33 23 43 33 23 43 33 23 43 33 23 43 33 23 43 33 23 43 33 23 43 33 23 43 33 23 43 33 23 43 33 23 43 33 23 43 33 23 43 33 23 43 33 23 43 33 23 43 33 23 43 33 23 43 33 23 43 33 23 43 33 23 43 33 23 43 33 23 43 33 23 43 33 23 43 33 23 43 33 23 43 33 23 43 33 23 43 33 23 43 33 23 43 33 23 43 33 23 43 33 23 43 33 23 43 33 23 43 33 23 43 33 23 43 33 23
43 33 23 43 33 23 43 33 23 43 33 23 43 33 23 43 33 23 43 33 23 43 33 23 43 33 23 43 33 23 43 33 23 43 33 23 43 33 23 43 33 23 43 33 23 43 33 23 43 33 23 43 33 23 43 33 23 43 33 23 43 33 23 43 33 23 43 33 23 43 33 23 43 33 23 43 33 23 43 33 23 43 33 23 43 33 23 43 33 23 43 33 23 43 33 23 43 33 23 43 33 23 43 33 23 43 33 23 43 33 23 43 33 23 43 33 23 43 33 23 43 33 23 43 33 23 43 33 23 43 33 23 43 33 23 43 33 23 43 33 23 43 33 23 43 33 23 43 33 23 43 33 23 43 33 23 43 33 23 43 33 23 43 33 23 43 33 23 43 33 23 96 99 88 96 99 88 96 99 88 245 208 97 96 99 88 96 99 88 245 208 97 245 208 97 96 99 88 96 99 88 245 208 97 96 99 88 96 99 88 96 99 88 43 33 23 43 33 23 43 33 23 43 33 23 43 33 23 43 33 23 43 33 23 43 33 23 43 33 23 43 33 23 43 33 23 43 33 23 43 33 23 43 33 23 43 33 23 43 33 23 43 33 23 43 33 23 43 33 23 43 33 23 43 33 23 43 33 23 43 33 23 43 33 23 43 33 23 43 33 23 43 33 23 43 33 23 43 33 23 43 33 23 43 33 23 43 33 23 43 33 23 43 33 23 43 33 23 43 33 23 43 33 23 43 33 23 43 33 23 43 33 23 43 33 23 43 33 23 43 33 23 43 33 23 43 33 23 43 33 23 43 33 23 43 33 23 43 33 23 43 33 23 43 33 23 43 33 23 43 33 23 43 33 23 43 33 23 43 33 23 43 33 23
43 33 23 43 33 23 43 33 23 43 33 23 43 33 23 43 33 23 43 33 23 43 33 23 43 33 23 43 33 23 43 33 23 43 33 23 43 33 23 43 33 23 43 33 23 43 33 23 43 33 23 43 33 23 43 33 23 43 33 23 43 33 23 43 33 23 43 33 23 43 33 23 43 33 23 43 33 23 43 33 23 43 33 23 43 33 23 43 33 23 43 33 23 43 33 23 43 33 23 43 33 23 43 33 23 43 33 23 43 33 23 43 33 23 43 33 23 43 33 23 43 33 23 43 33 23 43 33 23 43 33 23 43 33 23 43 33 23 43 33 23 43 33 23 43 33 23 43 33 23 43 33 23 43 33 23 43 33 23 43 33 23 43 33 23 43 33 23 43 33 23 96 99 88 96 99 88 96 99 88 245 208 97 96 99 88 96 99 88 245 208 97 245 208 97 96 99 88 96 99 88 245 208 97 96 99 88 96 99 88 96 99 88 43 33 23 43 33 23 43 33 23 43 33 23 43 33 23 43 33 23 43 33 23 43 33 23 43 33 23 43 33 23 43 33 23 43 33 23 43 33 23 43 33 23 43 33 23 43 33 23 43 33 23 43 33 23 43 33 23 43 33 23 43 33 23 43 33 23 43 33 23 43 33 23 43 33 23 43 33 23 43 33 23 43 33 23 43 33 23 43 33 23 43 33 23 43 33 23 43 33 23 43 33 23 43 33 23 43 33 23 43 33 23 43 33 23 43 33 23 43 33 23 43 33 23 43 33 23 43 33 23 43 33 23 43 33 23 43 33 23 43 33 23 43 33 23 43 33 23 43 33 23 43 33 23 43 33 23 43 33 23 43 33 23 43 33 23 43 33 23 43 33 23
43 33 23 43 33 23 43 33 23 43 33 23 43 33 23 43 33 23 43 33 23 43 33 23 43 33 23 43 33 23 43 33 23 43 33 23 43 33 23 43 33 23 43 33 23 43 33 23 43 33 23 43 33 23 43 33 23 43 33 23 43 33 23 43 33 23 43 33 23 43 33 23 43 33 23 43 33 23 43 33 23 43 33 23 43 33 23 43 33 23 43 33 23 43 33 23 43 33 23 43 33 23 43 33 23 43 33 23 43 33 23 43 33 23 43 33 23 43 33 23 43 33 23 43 33 23 43 33 23 43 33 23 43 33 23 43 33 23 43 33 23 43 33 23 43 33 23 43 33 23 43 33 23 43 33 23 43 33 23 43 33 23 43 33 23 43 33 23 43 33 23 96 99 88 96 99 88 96 99 88 245 208 97 96 99 88 96 99 88 245 208 97 245 208 97 96 99 88 96 99 88 245 208 97 96 99 88 96 99 88 96 99 88 43 33 23 43 33 23 43 33 23 43 33 23 43 33 23 43 33 23 43 33 23 43 33 23 43 33 23 43 33 23 43 33 23 43 33 23 43 33 23 43 33 23 43 33 23 43 33 23 43 33 23 43 33 23 43 33 23 43 33 23 43 33 23 43 33 23 43 33 23 43 33 23 43 33 23 43 33 23 43 33 23 43 33 23 43 33 23 43 33 23 43 33 23 43 33 23 43 33 23 43 33 23 43 33 23 43 33 23 43 33 23 43 33 23 43 33 23 43 33 23 43 33 23 43 33 23 43 33 23 43 33 23 43 33 23 43 33 23 43 33 23 43 33 23 43 33 23 43 33 23 43 33 23 43 33 23 43 33 23 43 33 23 43 33 23 43 33 23 43 33 23
43 33 23 43 33 23 43 33 23 43 33 23 43 33 23 43 33 23 43 33 23 43 33 23 43 33 23 43 33 23 43 33 23 43 33 23 43 33 23 43 33 23 43 33 23 43 33 23 43 33 23 43 33 23 43 33 23 43 33 23 43 33 23 43 33 23 43 33 23 43 33 23 43 33 23 43 33 23 43 33 23 43 33 23 43 33 23 43 33 23 43 33 23 43 33 23 43 33 23 43 33 23 43 33 23 43 33 23 43 33 23 43 33 23 43 33 23 43 33 23 43 33 23 43 33 23 43 33 23 43 33 23 43 33 23 43 33 23 43 33 23 43 33 23 43 33 23 43 33 23 43 33 23 43 33 23 43 33 23 43 33 23 43 33 23 43 33 23 43 33 23 96 99 88 96 99 88 96 99 88 245 208 97 96 99 88 96 99 88 245 208 97 245 208 97 96 99 88 96 99 88 245 208 97 96 99 88 96 99 88 96 99 88 43 33 23 43 33 23 43 33 23 43 33 23 43 33 23 43 33 23 43 33 23 43 33 23 43 33 23 43 33 23 43 33 23 43 33 23 43 33 23 43 33 23 43 33 23 43 33 23 43 33 23 43 33 23 43 33 23 43 33 23 43 33 23 43 33 23 43 33 23 43 33 23 43 33 23 43 33 23 43 33 23 43 33 23 43 33 23 43 33 23 43 33 23 43 33 23 43 33 23 43 33 23 43 33 23 43 33 23 43 33 23 43 33 23 43 33 23 43 33 23 43 33 23 43 33 23 43 33 23 43 33 23 43 33 23 43 33 23 43 33 23 43 33 23 43 33 23 43 33 23 43 33 23 43 33 23 43 33 23 43 33 23 43 33 23 43 33 23 43 33 23
43 33 23 43 33 23 43 33 23 43 33 23 43 33 23 43 33 23 43 33 23 43 33 23 43 33 23 43 33 23 43 33 23 43 33 23 43 33 23 43 33 23 43 33 23 43 33 23 43 33 23 43 33 23 43 33 23 43 33 23 43 33 23 43 33 23 43 33 23 43 33 23 43 33 23 43 33 23 43 33 23 43 33 23 43 33 23 15 124 115 43 33 23 43 33 23 43 33 23 43 33 23 43 33 23 43 33 23 43 33 23 43 33 23 43 33 23 43 33 23 43 33 23 43 33 23 43 33 23 43 33 23 43 33 23 43 33 23 43 33 23 43 33 23 43 33 23 43 33 23 43 33 23 43 33 23 43 33 23 43 33 23 43 33 23 43 33 23 43 33 23 96 99 88 96 99 88 96 99 88 245 208 97 96 99 88 96 99 88 245 208 97 245 208 97 96 99 88 96 99 88 245 208 97 96 99 88 96 99 88 96 99 88 43 33 23 43 33 23 43 33 23 43 33 23 43 33 23 43 33 23 43 33 23 43 33 23 43 33 23 43 33 23 43 33 23 43 33 23 43 33 23 43 33 23 43 33 23 43 33 23 43 33 23 43 33 23 43 33 23 43 33 23 43 33 23 43 33 23 43 33 23 43 33 23 43 33 23 43 33 23 43 33 23 43 33 23 43 33 23 43 33 23 43 33 23 43 33 23 43 33 23 43 33 23 43 33 23 43 33 23 43 33 23 43 33 23 43 33 23 43 33 23 43 33 23 43 33 23 43 33 23 43 33 23 43 33 23 43 33 23 43 33 23 43 33 23 43 33 23 43 33 23 43 33 23 43 33 23 43 33 23 43 33 23 43 33 23 43 33 23 43 33 23
43 33 23 43 33 23 43 33 23 43 33 23 43 33 23 43 33 23 43 33 23 43 33 23 43 33 23 43 33 23 43 33 23 43 33 23 43 33 23 43 33 23 43 33 23 43 33 23 43 33 23 43 33 23 43 33 23 43 33 23 43 33 23 43 33 23 43 33 23 43 33 23 43 33 23 43 33 23 43 33 23 43 33 23 43 33 23 15 124 115 43 33 23 43 33 23 43 33 23 43 33 23 43 33 23 43 33 23 43 33 23 43 33 23 43 33 23 43 33 23 43 33 23 43 33 23 43 33 23 43 33 23 43 33 23 43 33 23 43 33 23 43 33 23 43 33 23 43 33 23 43 33 23 43 33 23 43 33 23 43 33 23 43 33 23 43 33 23 43 33 23 96 99 88 96 99 88 96 99 88 245 208 97 96 99 88 96 99 88 245 208 97 245 208 97 96 99 88 96 99 88 245 208 97 96 99 88 96 99 88 96 99 88 43 33 23 43 33 23 43 33 23 43 33 23 43 33 23 43 33 23 43 33 23 43 33 23 43 33 23 43 33 23 43 33 23 43 33 23 43 33 23 43 33 23 43 33 23 43 33 23 43 33 23 43 33 23 43 33 23 43 33 23 43 33 23 43 33 23 43 33 23 43 33 23 43 33 23 43 33 23 43 33 23 43 33 23 43 33 23 43 33 23 43 33 23 43 33 23 43 33 23 43 33 23 43 33 23 43 33 23 43 33 23 43 33 23 43 33 23 43 33 23 43 33 23 43 33 23 43 33 23 43 33 23 43 33 23 43 33 23 43 33 23 43 33 23 43 33 23 43 33 23 43 33 23 43 33 23 43 33 23 43 33 23 43 33 23 43 33 23 43 33 23
96 99 88 96 99 88 96 99 88 96 99 88 96 99 88 96 99 88 96 99 88 96 99 88 96 99 88 96 99 88 96 99 88 96 99 88 96 99 88 96 99 88 96 99 88 96 99 88 96 99 88 96 99 88 96 99 88 96 99 88 96 99 88 96 99 88 96 99 88 96 99 88 96 99 88 96 99 88 96 99 88 96 99 88 96 99 88 96 99 88 96 99 88 96 99 88 96 99 88 96 99 88 96 99 88 96 99 88 96 99 88 96 99 88 96 99 88 96 99 88 96 99 88 96 99 88 96 99 88 96 99 88 96 99 88 96 99 88 96 99 88 96 99 88 96 99 88 96 99 88 96 99 88 96 99 88 96 99 88 96 99 88 96 99 88 96 99 88 96 99 88 96 99 88 96 99 88 96 99 88 245 208 97 96 99 88 96 99 88 245 208 97 245 208 97 96 99 88 96 99 88 245 208 97 96 99 88 96 99 88 96 99 88 96 99 88 190 74 47 190 74 47 190 74 47 96 99 88 96 99 88 96 99 88 96 99 88 190 74 47 190 74 47 190 74 47 96 99 88 96 99 88 96 99 88 96 99 88 96 99 88 96 99 88 96 99 88 96 99 88 96 99 88 96 99 88 96 99 88 96 99 88 96 99 88 96 99 88 190 74 47 190 74 47 190 74 47 96 99 88 96 99 88 96 99 88 96 99 88 96 99 88 96 99 88 96 99 88 96 99 88 96 99 88 96 99 88 96 99 88 96 99 88 96 99 88 96 99 88 96 99 88 96 99 88 96 99 88 96 99 88 96 99 88 96 99 88 96 99 88 96 99 88 96 99 88 96 99 88 96 99 88 96 99 88 96 99 88 96 99 88 96 99 88
96 99 88 96 99 88 96 99 88 96 99 88 96 99 88 96 99 88 96 99 88 96 99 88 96 99 88 96 99 88 96 99 88 96 99 88 96 99 88 96 99 88 96 99 88 96 99 88 96 99 88 96 99 88 96 99 88 96 99 88 96 99 88 96 99 88 96 99 88 96 99 88 96 99 88 96 99 88 96 99 88 96 99 88 96 99 88 96 99 88 96 99 88 96 99 88 96 99 88 96 99 88 96 99 88 96 99 88 96 99 88 96 99 88 96 99 88 96 99 88 96 99 88 96 99 88 96 99 88 96 99 88 96 99 88 96 99 88 96 99 88 96 99 88 96 99 88 96 99 88 96 99 88 96 99 88 96 99 88 96 99 88 96 99 88 96 99 88 96 99 88 96 99 88 96 99 88 96 99 88 245 208 97 96 99 88 96 99 88 245 208 97 245 208 97 96 99 88 96 99 88 245 208 97 96 99 88 96 99 88 96 99 88 190 74 47 190 74 47 190 74 47 190 74 47 96 99 88 96 99 88 190 74 47 190 74 47 190 74 47 190 74 47 190 74 47 96 99 88 96 99 88 96 99 88 96 99 88 96 99 88 96 99 88 96 99 88 96 99 88 96 99 88 96 99 88 96 99 88 96 99 88 96 99 88 190 74 47 190 74 47 190 74 47 190 74 47 96 99 88 96 99 88 96 99 88 96 99 88 96 99 88 96 99 88 96 99 88 96 99 88 96 99 88 96 99 88 96 99 88 96 99 88 96 99 88 96 99 88 96 99 88 96 99 88 96 99 88 96 99 88 96 99 88 96 99 88 96 99 88 96 99 88 96 99 88 96 99 88 96 99 88 96 99 88 96 99 88 96 99 88 96 99 88
96 99 88 96 99 88 96 99 88 96 99 88 96 99 88 96 99 88 96 99 88 96 99 88 96 99 88 96 99 88 96 99 88 96 99 88 96 99 88 96 99 88 96 99 88 96 99 88 96 99 88 96 99 88 96 99 88 96 99 88 96 99 88 96 99 88 96 99 88 96 99 88 96 99 88 96 99 88 96 99 88 96 99 88 96 99 88 96 99 88 96 99 88 96 99 88 96 99 88 96 99 88 96 99 88 96 99 88 96 99 88 96 99 88 96 99 88 96 99 88 96 99 88 96 99 88 96 99 88 96 99 88 96 99 88 96 99 88 96 99 88 96 99 88 96 99 88 96 99 88 96 99 88 96 99 88 96 99 88 96 99 88 96 99 88 96 99 88 96 99 88 96 99 88 96 99 88 96 99 88 245 208 97 96 99 88 96 99 88 245 208 97 245 208 97 96 99 88 96 99 88 245 208 97 96 99 88 96 99 88 96 99 88 190 74 47 190 74 47 190 74 47 190 74 47 96 99 88 96 99 88 190 74 47 190 74 47 190 74 47 190 74 47 190 74 47 96 99 88 96 99 88 96 99 88 96 99 88 96 99 88 96 99 88 96 99 88 96 99 88 96 99 88 96 99 88 96 99 88 96 99 88 96 99 88 190 74 47 190 74 47 190 74 47 190 74 47 96 99 88 96 99 88 96 99 88 96 99 88 96 99 88 96 99 88 96 99 88 96 99 88 96 99 88 96 99 88 96 99 88 96 99 88 96 99 88 96 99 88 96 99 88 96 99 88 96 99 88 96 99 88 96 99 88 96 99 88 96 99 88 96 99 88 96 99 88 96 99 88 96 99 88 96 99 88 96 99 88 96 99 88 96 99 88
245 208 97 245 208 97 245 208 97 245 208 97 245 208 97 245 208 97 245 208 97 245 208 97 245 208 97 245 208 97 245 208 97 245 208 97 245 208 97 245 208 97 245 208 97 245 208 97 245 208 97 245 208 97 245 208 97 245 208 97 245 208 97 245 208 97 245 208 97 245 208 97 245 208 97 245 208 97 245 208 97 245 208 97 245 208 97 245 208 97 245 208 97 245 208 97 245 208 97 245 208 97 245 208 97 245 208 97 245 208 97 245 208 97 245 208 97 245 208 97 245 208 97 245 208 97 245 208 97 245 208 97 245 208 97 245 208 97 245 208 97 245 208 97 245 208 97 245 208 97 245 208 97 245 208 97 245 208 97 245 208 97 245 208 97 245 208 97 245 208 97 96 99 88 96 99 88 96 99 88 245 208 97 96 99 88 96 99 88 245 208 97 245 208 97 96 99 88 96 99 88 245 208 97 96 99 88 96 99 88 96 99 88 245 208 97 245 208 97 245 208 97 245 208 97 245 208 97 245 208 97 245 208 97 245 208 97 245 208 97 245 208 97 245 208 97 245 208 97 245 208 97 245 208 97 245 208 97 245 208 97 245 208 97 245 208 97 245 208 97 245 208 97 245 208 97 245 208 97 245 208 97 245 208 97 245 208 97 245 208 97 245 208 97 245 208 97 245 208 97 245 208 97 245 208 97 245 208 97 245 208 97 245 208 97 245 208 97 245 208 97 245 208 97 245 208 97 245 208 97 245 208 97 245 208 97 245 208 97 245 208 97 245 208 97 245 208 97 245 208 97 245 208 97 245 208 97 245 208 97 245 208 97 245 208 97 245 208 97 245 208 97 245 208 97 245 208 97 245 208 97 245 208 97
96 99 88 96 99 88 96 99 88 96 99 88 96 99 88 96 99 88 96 99 88 96 99 88 96 99 88 96 99 88 96 99 88 96 99 88 96 99 88 96 99 88 96 99 88 96 99 88 96 99 88 96 99 88 96 99 88 96 99 88 96 99 88 96 99 88 96 99 88 96 99 88 96 99 88 96 99 88 96 99 88 96 99 88 96 99 88 96 99 88 96 99 88 96 99 88 96 99 88 96 99 88 96 99 88 96 99 88 96 99 88 96 99 88 96 99 88 96 99 88 96 99 88 96 99 88 96 99 88 96 99 88 96 99 88 96 99 88 96 99 88 96 99 88 96 99 88 96 99 88 96 99 88 96 99 88 96 99 88 96 99 88 96 99 88 96 99 88 96 99 88 96 99 88 96 99 88 96 99 88 245 208 97 96 99 88 96 99 88 245 208 97 245 208 97 96 99 88 96 99 88 245 208 97 96 99 88 96 99 88 96 99 88 96 99 88 96 99 88 96 99 88 96 99 88 96 99 88 96 99 88 96 99 88 96 99 88 96 99 88 96 99 88 96 99 88 96 99 88 96 99 88 96 99 88 96 99 88 96 99 88 190 74 47 190 74 47 190 74 47 190 74 47 96 99 88 96 99 88 96 99 88 96 99 88 96 99 88 96 99 88 96 99 88 96 99 88 96 99 88 96 99 88 96 99 88 96 99 88 96 99 88 96 99 88 96 99 88 96 99 88 96 99 88 96 99 88 96 99 88 96 99 88 96 99 88 96 99 88 96 99 88 96 99 88 96 99 88 96 99 88 96 99 88 96 99 88 96 99 88 96 99 88 96 99 88 96 99 88 96 99 88 96 99 88 96 99 88 96 99 88 96 99 88
96 99 88 96 99 88 96 99 88 96 99 88 96 99 88 96 99 88 96 99 88 96 99 88 96 99 88 96 99 88 96 99 88 96 99 88 96 99 88 96 99 88 96 99 88 96 99 88 96 99 88 96 99 88 96 99 88 96 99 88 96 99 88 96 99 88 96 99 88 96 99 88 96 99 88 96 99 88 96 99 88 96 99 88 96 99 88 96 99 88 96 99 88 96 99 88 96 99 88 96 99 88 96 99 88 96 99 88 96 99 88 96 99 88 96 99 88 96 99 88 96 99 88 96 99 88 96 99 88 96 99 88 96 99 88 96 99 88 96 99 88 96 99 88 96 99 88 96 99 88 96 99 88 96 99 88 96 99 88 96 99 88 96 99 88 96 99 88 96 99 88 96 99 88 96 99 88 96 99 88 245 208 97 96 99 88 96 99 88 245 208 97 245 208 97 96 99 88 96 99 88 245 208 97 96 99 88 96 99 88 96 99 88 96 99 88 96 99 88 96 99 88 96 99 88 96 99 88 96 99 88 96 99 88 96 99 88 96 99 88 96 99 88 96 99 88 96 99 88 96 99 88 96 99 88 96 99 88 96 99 88 190 74 47 190 74 47 190 74 47 190 74 47 96 99 88 96 99 88 96 99 88 96 99 88 96 99 88 96 99 88 96 99 88 96 99 88 96 99 88 96 99 88 96 99 88 96 99 88 96 99 88 96 99 88 96 99 88 96 99 88 96 99 88 96 99 88 96 99 88 96 99 88 96 99 88 96 99 88 96 99 88 96 99 88 96 99 88 96 99 88 96 99 88 96 99 88 96 99 88 96 99 88 96 99 88 96 99 88 96 99 88 96 99 88 96 99 88 96 99 88 96 99 88
245 208 97 245 208 97 245 208 97 245 208 97 245 208 97 245 208 97 245 208 97 245 208 97 245 208 97 245 208 97 245 208 97 245 208 97 245 208 97 245 208 97 245 208 97 245 208 97 245 208 97 245 208 97 245 208 97 245 208 97 245 208 97 245 208 97 245 208 97 245 208 97 245 208 97 245 208 97 245 208 97 245 208 97 245 208 97 245 208 97 245 208 97 245 208 97 245 208 97 245 208 97 245 208 97 245 208 97 245 208 97 245 208 97 245 208 97 245 208 97 245 208 97 245 208 97 245 208 97 245 208 97 245 208 97 245 208 97 245 208 97 245 208 97 245 208 97 245 208 97 245 208 97 245 208 97 245 208 97 245 208 97 245 208 97 245 208 97 245 208 97 96 99 88 96 99 88 96 99 88 245 208 97 96 99 88 96 99 88 245 208 97 245 208 97 96 99 88 96 99 88 245 208 97 96 99 88 96 99 88 96 99 88 245 208 97 245 208 97 245 208 97 245 208 97 245 208 97 245 208 97 245 208 97 245 208 97 245 208 97 245 208 97 245 208 97 245 208 97 245 208 97 245 208 97 245 208 97 245 208 97 190 74 47 190 74 47 190 74 47 245 208 97 245 208 97 245 208 97 245 208 97 245 208 97 245 208 97 245 208 97 245 208 97 245 208 97 245 208 97 245 208 97 245 208 97 245 208 97 245 208 97 245 208 97 245 208 97 245 208 97 245 208 97 245 208 97 245 208 97 245 208 97 245 208 97 245 208 97 245 208 97 245 208 97 245 208 97 245 208 97 245 208 97 245 208 97 245 208 97 245 208 97 245 208 97 245 208 97 245 208 97 245 208 97 245 208 97 245 208 97 245 208 97
245 208 97 245 208 97 245 208 97 245 208 97 245 208 97 245 208 97 245 208 97 245 208 97 245 208 97 245 208 97 245 208 97 245 208 97 245 208 97 245 208 97 245 208 97 245 208 97 245 208 97 245 208 97 245 208 97 245 208 97 245 208 97 245 208 97 245 208 97 245 208 97 245 208 97 245 208 97 245 208 97 245 208 97 245 208 97 245 208 97 245 208 97 245 208 97 245 208 97 245 208 97 245 208 97 245 208 97 245 208 97 245 208 97 245 208 97 245 208 97 245 208 97 245 208 97 245 208 97 245 208 97 245 208 97 245 208 97 245 208 97 245 208 97 245 208 97 245 208 97 245 208 97 245 208 97 245 208 97 245 208 97 245 208 97 245 208 97 245 208 97 96 99 88 96 99 88 96 99 88 245 208 97 96 99 88 96 99 88 245 208 97 245 208 97 96 99 88 96 99 88 245 208 97 96 99 88 96 99 88 96 99 88 245 208 97 245 208 97 245 208 97 245 208 97 245 208 97 245 208 97 245 208 97 245 208 97 245 208 97 245 208 97 245 208 97 245 208 97 245 208 97 245 208 97 245 208 97 245 208 97 245 208 97 245 208 97 245 208 97 245 208 97 245 208 97 245 208 97 245 208 97 245 208 97 245 208 97 245 208 97 245 208 97 245 208 97 245 208 97 245 208 97 245 208 97 245 208 97 245 208 97 245 208 97 245 208 97 245 208 97 245 208 97 245 208 97 245 208 97 245 208 97 245 208 97 245 208 97 245 208 97 245 208 97 245 208 97 245 208 97 245 208 97 245 208 97 245 208 97 245 208 97 245 208 97 245 208 97 245 208 97 245 208 97 245 208 97 245 208 97 245 208 97
96 99 88 96 99 88 96 99 88 96 99 88 96 99 88 96 99 88 96 99 88 96 99 88 96 99 88 96 99 88 96 99 88 96 99 88 96 99 88 96 99 88 96 99 88 96 99 88 96 99 88 96 99 88 96 99 88 96 99 88 96 99 88 96 99 88 96 99 88 96 99 88 96 99 88 96 99 88 96 99 88 96 99 88 96 99 88 96 99 88 96 99 88 96 99 88 96 99 88 96 99 88 96 99 88 96 99 88 96 99 88 96 99 88 96 99 88 96 99 88 96 99 88 96 99 88 96 99 88 96 99 88 96 99 88 96 99 88 96 99 88 96 99 88 96 99 88 96 99 88 96 99 88 96 99 88 96 99 88 96 99 88 96 99 88 96 99 88 96 99 88 96 99 88 96 99 88 96 99 88 245 208 97 96 99 88 96 99 88 245 208 97 245 208 97 96 99 88 96 99 88 245 208 97 96 99 88 96 99 88 96 99 88 96 99 88 96 99 88 96 99 88 96 99 88 96 99 88 96 99 88 96 99 88 96 99 88 96 99 88 96 99 88 96 99 88 96 99 88 96 99 88 96 99 88 96 99 88 96 99 88 96 99 88 96 99 88 96 99 88 96 99 88 96 99 88 96 99 88 96 99 88 96 99 88 96 99 88 96 99 88 96 99 88 96 99 88 96 99 88 96 99 88 96 99 88 96 99 88 96 99 88 96 99 88 96 99 88 96 99 88 96 99 88 96 99 88 96 99 88 96 99 88 96 99 88 96 99 88 96 99 88 96 99 88 96 99 88 96 99 88 96 99 88 96 99 88 96 99 88 96 99 88 96 99 88 96 99 88 96 99 88 96 99 88 96 99 88 96 99 88 96 99 88
96 99 88 96 99 88 96 99 88 96 99 88 96 99 88 96 99 88 96 99 88 96 99 88 96 99 88 96 99 88 96 99 88 96 99 88 96 99 88 96 99 88 96 99 88 96 99 88 96 99 88 96 99 88 96 99 88 96 99 88 96 99 88 96 99 88 96 99 88 96 99 88 96 99 88 96 99 88 96 99 88 96 99 88 96 99 88 96 99 88 96 99 88 96 99 88 96 99 88 96 99 88 96 99 88 96 99 88 96 99 88 96 99 88 96 99 88 96 99 88 96 99 88 96 99 88 96 99 88 96 99 88 96 99 88 96 99 88 96 99 88 96 99 88 96 99 88 96 99 88 96 99 88 96 99 88 96 99 88 96 99 88 96 99 88 96 99 88 96 99 88 96 99 88 96 99 88 96 99 88 245 208 97 96 99 88 96 99 88 245 208 97 245 208 97 96 99 88 96 99 88 245 208 97 96 99 88 96 99 88 96 99 88 96 99 88 96 99 88 96 99 88 96 99 88 96 99 88 96 99 88 96 99 88 96 99 88 96 99 88 96 99 88 96 99 88 96 99 88 96 99 88 96 99 88 96 99 88 96 99 88 96 99 88 96 99 88 96 99 88 96 99 88 96 99 88 96 99 88 96 99 88 96 99 88 96 99 88 96 99 88 96 99 88 96 99 88 96 99 88 96 99 88 96 99 88 96 99 88 96 99 88 96 99 88 96 99 88 96 99 88 96 99 88 96 99 88 96 99 88 96 99 88 96 99 88 96 99 88 96 99 88 96 99 88 96 99 88 96 99 88 96 99 88 96 99 88 96 99 88 96 99 88 96 99 88 96 99 88 96 99 88 96 99 88 96 99 88 96 99 88 96 99 88
245 208 97 245 208 97 245 208 97 245 208 97 245 208 97 245 208 97 245 208 97 245 208 97 245 208 97 245 208 97 245 208 97 245 208 97 245 208 97 245 208 97 245 208 97 245 208 97 245 208 97 245 208 97 245 208 97 245 208 97 245 208 97 245 208 97 245 208 97 245 208 97 245 208 97 245 208 97 245 208 97 245 208 97 245 208 97 245 208 97 245 208 97 245 208 97 245 208 97 245 208 97 245 208 97 245 208 97 245 208 97 245 208 97 245 208 97 245 208 97 245 208 97 245 208 97 245 208 97 245 208 97 245 208 97 245 208 97 245 208 97 245 208 97 245 208 97 245 208 97 245 208 97 245 208 97 245 208 97 245 208 97 245 208 97 245 208 97 245 208 97 96 99 88 96 99 88 96 99 88 245 208 97 96 99 88 96 99 88 245 208 97 245 208 97 96 99 88 96 99 88 245 208 97 96 99 88 96 99 88 96 99 88 245 208 97 245 208 97 245 208 97 245 208 97 245 208 97 245 208 97 245 208 97 245 208 97 245 208 97 245 208 97 245 208 97 245 208 97 245 208 97 245 208 97 245 208 97 245 208 97 245 208 97 245 208 97 245 208 97 245 208 97 245 208 97 245 208 97 245 208 97 245 208 97 245 208 97 245 208 97 245 208 97 245 208 97 245 208 97 245 208 97 245 208 97 245 208 97 245 208 97 245 208 97 245 208 97 245 208 97 245 208 97 245 208 97 245 208 97 245 208 97 245 208 97 245 208 97 245 208 97 245 208 97 245 208 97 245 208 97 245 208 97 245 208 97 245 208 97 245 208 97 245 208 97 245 208 97 245 208 97 245 208 97 245 208 97 245 208 97 245 208 97
96 99 88 96 99 88 96 99 88 96 99 88 96 99 88 96 99 88 96 99 88 96 99 88 96 99 88 96 99 88 96 99 88 96 99 88 96 99 88 96 99 88 96 99 88 96 99 88 96 99 88 96 99 88 96 99 88 96 99 88 96 99 88 96 99 88 96 99 88 96 99 88 96 99 88 96 99 88 96 99 88 96 99 88 96 99 88 96 99 88 96 99 88 96 99 88 96 99 88 96 99 88 96 99 88 96 99 88 96 99 88 96 99 88 96 99 88 96 99 88 96 99 88 96 99 88 96 99 88 96 99 88 96 99 88 96 99 88 96 99 88 96 99 88 96 99 88 96 99 88 96 99 88 96 99 88 96 99 88 96 99 88 96 99 88 96 99 88 96 99 88 96 99 88 96 99 88 96 99 88 245 208 97 96 99 88 96 99 88 245 208 97 245 208 97 96 99 88 96 99 88 245 208 97 96 99 88 96 99 88 96 99 88 96 99 88 96 99 88 96 99 88 96 99 88 96 99 88 96 99 88 96 99 88 96 99 88 96 99 88 96 99 88 96 99 88 96 99 88 96 99 88 96 99 88 96 99 88 96 99 88 96 99 88 96 99 88 96 99 88 96 99 88 96 99 88 96 99 88 96 99 88 96 99 88 96 99 88 96 99 88 96 99 88 96 99 88 96 99 88 96 99 88 96 99 88 96 99 88 96 99 88 96 99 88 96 99 88 96 99 88 96 99 88 96 99 88 96 99 88 96 99 88 96 99 88 96 99 88 96 99 88 96 99 88 96 99 88 96 99 88 96 99 88 96 99 88 96 99 88 96 99 88 96 99 88 96 99 88 96 99 88 96 99 88 96 99 88 96 99 88 96 99 88
96 99 88 96 99 88 96 99 88 96 99 88 96 99 88 96 99 88 96 99 88 96 99 88 96 99 88 96 99 88 96 99 88 96 99 88 96 99 88 96 99 88 96 99 88 96 99 88 96 99 88 96 99 88 96 99 88 96 99 88 96 99 88 96 99 88 96 99 88 96 99 88 96 99 88 96 99 88 96 99 88 96 99 88 96 99 88 96 99 88 96 99 88 96 99 88 96 99 88 96 99 88 96 99 88 96 99 88 96 99 88 96 99 88 96 99 88 96 99 88 96 99 88 96 99 88 96 99 88 96 99 88 96 99 88 96 99 88 96 99 88 96 99 88 96 99 88 96 99 88 96 99 88 96 99 88 96 99 88 96 99 88 96 99 88 96 99 88 96 99 88 96 99 88 96 99 88 96 99 88 245 208 97 96 99 88 96 99 88 245 208 97 245 208 97 96 99 88 96 99 88 245 208 97 96 99 88 96 99 88 96 99 88 96 99 88 96 99 88 96 99 88 96 99 88 96 99 88 96 99 88 96 99 88 96 99 88 96 99 88 96 99 88 96 99 88 96 99 88 96 99 88 96 99 88 96 99 88 96 99 88 96 99 88 96 99 88 96 99 88 96 99 88 96 99 88 96 99 88 96 99 88 96 99 88 96 99 88 96 99 88 96 99 88 96 99 88 96 99 88 96 99 88 96 99 88 96 99 88 96 99 88 96 99 88 96 99 88 96 99 88 96 99 88 96 99 88 96 99 88 96 99 88 96 99 88 96 99 88 96 99 88 96 99 88 96 99 88 96 99 88 96 99 88 96 99 88 96 99 88 96 99 88 96 99 88 96 99 88 96 99 88 96 99 88 96 99 88 96 99 88 96 99 88
96 99 88 96 99 88 96 99 88 96 99 88 96 99 88 96 99 88 96 99 88 96 99 88 96 99 88 96 99 88 96 99 88 96 99 88 96 99 88 96 99 88 96 99 88 96 99 88 96 99 88 96 99 88 96 99 88 96 99 88 96 99 88 96 99 88 96 99 88 96 99 88 96 99 88 96 99 88 96 99 88 96 99 88 96 99 88 96 99 88 96 99 88 96 99 88 96 99 88 96 99 88 96 99 88 96 99 88 96 99 88 96 99 88 96 99 88 96 99 88 96 99 88 96 99 88 96 99 88 96 99 88 96 99 88 96 99 88 96 99 88 96 99 88 96 99 88 96 99 88 96 99 88 96 99 88 96 99 88 96 99 88 96 99 88 96 99 88 96 99 88 96 99 88 96 99 88 96 99 88 245 208 97 96 99 88 96 99 88 245 208 97 245 208 97 96 99 88 96 99 88 245 208 97 96 99 88 96 99 88 96 99 88 96 99 88 96 99 88 96 99 88 96 99 88 96 99 88 96 99 88 96 99 88 96 99 88 96 99 88 96 99 88 96 99 88 96 99 88 96 99 88 96 99 88 96 99 88 96 99 88 96 99 88 96 99 88 96 99 88 96 99 88 96 99 88 96 99 88 96 99 88 96 99 88 96 99 88 96 99 88 96 99 88 96 99 88 96 99 88 96 99 88 96 99 88 96 99 88 96 99 88 96 99 88 96 99 88 96 99 88 96 99 88 96 99 88 96 99 88 96 99 88 96 99 88 96 99 88 96 99 88 96 99 88 96 99 88 96 99 88 96 99 88 96 99 88 96 99 88 96 99 88 96 99 88 96 99 88 96 99 88 96 99 88 96 99 88 96 99 88 96 99 88
43 33 23 43 33 23 43 33 23 43 33 23 43 33 23 43 33 23 43 33 23 43 33 23 43 33 23 43 33 23 43 33 23 43 33 23 15 124 115 15 124 115 43 33 23 43 33 23 43 33 23 43 33 23 43 33 23 43 33 23 43 33 23 43 33 23 43 33 23 43 33 23 43 33 23 43 33 23 43 33 23 43 33 23 43 33 23 43 33 23 43 33 23 43 33 23 43 33 23 43 33 23 43 33 23 43 33 23 43 33 23 43 33 23 43 33 23 43 33 23 43 33 23 43 33 23 43 33 23 43 33 23 43 33 23 43 33 23 43 33 23 43 33 23 43 33 23 43 33 23 43 33 23 43 33 23 43 33 23 43 33 23 43 33 23 43 33 23 43 33 23 96 99 88 96 99 88 96 99 88 245 208 97 96 99 88 96 99 88 245 208 97 245 208 97 96 99 88 96 99 88 245 208 97 96 99 88 96 99 88 96 99 88 43 33 23 43 33 23 43 33 23 43 33 23 43 33 23 43 33 23 43 33 23 43 33 23 43 33 23 43 33 23 43 33 23 43 33 23 43 33 23 43 33 23 43 33 23 43 33 23 43 33 23 43 33 23 43 33 23 43 33 23 43 33 23 43 33 23 43 33 23 43 33 23 43 33 23 43 33 23 43 33 23 43 33 23 43 33 23 43 33 23 43 33 23 43 33 23 43 33 23 43 33 23 43 33 23 43 33 23 43 33 23 43 33 23 43 33 23 43 33 23 43 33 23 43 33 23 43 33 23 43 33 23 43 33 23 43 33 23 43 33 23 43 33 23 43 33 23 43 33 23 43 33 23 43 33 23 43 33 23 43 33 23 43 33 23 43 33 23 43 33 23
43 33 23 43 33 23 43 33 23 43 33 23 43 33 23 43 33 23 43 33 23 43 33 23 43 33 23 43 33 23 43 33 23 43 33 23 15 124 115 15 124 115 43 33 23 43 33 23 43 33 23 43 33 23 43 33 23 43 33 23 43 33 23 43 33 23 43 33 23 43 33 23 43 33 23 43 33 23 43 33 23 43 33 23 43 33 23 43 33 23 43 33 23 43 33 23 43 33 23 43 33 23 43 33 23 43 33 23 43 33 23 43 33 23 43 33 23 43 33 23 43 33 23 43 33 23 43 33 23 43 33 23 43 33 23 43 33 23 43 33 23 43 33 23 43 33 23 43 33 23 43 33 23 43 33 23 43 33 23 43 33 23 43 33 23 43 33 23 43 33 23 96 99 88 96 99 88 96 99 88 245 208 97 96 99 88 96 99 88 245 208 97 245 208 97 96 99 88 96 99 88 245 208 97 96 99 88 96 99 88 96 99 88 43 33 23 43 33 23 43 33 23 43 33 23 43 33 23 43 33 23 43 33 23 43 33 23 43 33 23 43 33 23 43 33 23 43 33 23 43 33 23 43 33 23 43 33 23 43 33 23 43 33 23 43 33 23 43 33 23 43 33 23 43 33 23 43 33 23 43 33 23 43 33 23 43 33 23 43 33 23 43 33 23 43 33 23 43 33 23 43 33 23 43 33 23 43 33 23 43 33 23 43 33 23 43 33 23 43 33 23 43 33 23 43 33 23 43 33 23 43 33 23 43 33 23 43 33 23 43 33 23 43 33 23 43 33 23 43 33 23 43 33 23 43 33 23 43 33 23 43 33 23 43 33 23 43 33 23 43 33 23 43 33 23 43 33 23 43 33 23 43 33 23
43 33 23 43 33 23 43 33 23 43 33 23 43 33 23 43 33 23 43 33 23 43 33 23 43 33 23 43 33 23 43 33 23 43 33 23 43 33 23 43 33 23 43 33 23 43 33 23 43 33 23 43 33 23 43 33 23 43 33 23 43 33 23 43 33 23 43 33 23 43 33 23 43 33 23 43 33 23 43 33 23 43 33 23 43 33 23 43 33 23 43 33 23 43 33 23 43 33 23 43 33 23 43 33 23 43 33 23 43 33 23 43 33 23 43 33 23 43 33 23 43 33 23 43 33 23 43 33 23 43 33 23 43 33 23 43 33 23 43 33 23 43 33 23 43 33 23 43 33 23 43 33 23 43 33 23 43 33 23 43 33 23 43 33 23 43 33 23 43 33 23 96 99 88 96 99 88 96 99 88 245 208 97 96 99 88 96 99 88 245 208 97 245 208 97 96 99 88 96 99 88 245 208 97 96 99 88 96 99 88 96 99 88 43 33 23 43 33 23 43 33 23 43 33 23 43 33 23 43 33 23 43 33 23 43 33 23 43 33 23 43 33 23 43 33 23 43 33 23 43 33 23 43 33 23 43 33 23 43 33 23 43 33 23 43 33 23 43 33 23 43 33 23 43 33 23 43 33 23 43 33 23 43 33 23 43 33 23 43 33 23 43 33 23 43 33 23 43 33 23 43 33 23 43 33 23 43 33 23 43 33 23 43 33 23 43 33 23 43 33 23 43 33 23 43 33 23 43 33 23 43 33 23 43 33 23 43 33 23 43 33 23 43 33 23 43 33 23 43 33 23 43 33 23 43 33 23 43 33 23 43 33 23 43 33 23 43 33 23 43 33 23 43 33 23 43 33 23 43 33 23 43 33 23
43 33 23 43 33 23 43 33 23 43 33 23 43 33 23 43 33 23 43 33 23 43 33 23 43 33 23 43 33 23 43 33 23 43 33 23 43 33 23 43 33 23 43 33 23 43 33 23 43 33 23 43 33 23 43 33 23 43 33 23 43 33 23 43 33 23 43 33 23 43 33 23 43 33 23 43 33 23 43 33 23 43 33 23 43 33 23 43 33 23 43 33 23 43 33 23 43 33 23 43 33 23 43 33 23 43 33 23 43 33 23 43 33 23 43 33 23 43 33 23 43 33 23 43 33 23 43 33 23 43 33 23 43 33 23 43 33 23 43 33 23 43 33 23 43 33 23 43 33 23 43 33 23 43 33 23 43 33 23 43 33 23 43 33 23 43 33 23 43 33 23 96 99 88 96 99 88 96 99 88 245 208 97 96 99 88 96 99 88 245 208 97 245 208 97 96 99 88 96 99 88 245 208 97 96 99 88 96 99 88 96 99 88 43 33 23 43 33 23 43 33 23 43 33 23 43 33 23 43 33 23 43 33 23 43 33 23 43 33 23 43 33 23 43 33 23 43 33 23 43 33 23 43 33 23 43 33 23 43 33 23 43 33 23 43 33 23 43 33 23 43 33 23 43 33 23 43 33 23 43 33 23 43 33 23 43 33 23 43 33 23 43 33 23 43 33 23 43 33 23 43 33 23 43 33 23 43 33 23 43 33 23 43 33 23 43 33 23 43 33 23 43 33 23 43 33 23 43 33 23 43 33 23 43 33 23 43 33 23 43 33 23 43 33 23 43 33 23 43 33 23 43 33 23 43 33 23 43 33 23 43 33 23 43 33 23 43 33 23 43 33 23 43 33 23 43 33 23 43 33 23 43 33 23
43 33 23 43 33 23 43 33 23 43 33 23 43 33 23 43 33 23 43 33 23 43 33 23 43 33 23 43 33 23 43 33 23 43 33 23 43 33 23 43 33 23 43 33 23 43 33 23 43 33 23 43 33 23 43 33 23 43 33 23 43 33 23 43 33 23 43 33 23 43 33 23 43 33 23 43 33 23 43 33 23 43 33 23 43 33 23 43 33 23 43 33 23 43 33 23 43 33 23 43 33 23 43 33 23 43 33 23 43 33 23 43 33 23 43 33 23 43 33 23 43 33 23 43 33 23 43 33 23 43 33 23 43 33 23 43 33 23 43 33 23 43 33 23 43 33 23 43 33 23 43 33 23 43 33 23 43 33 23 43 33 23 43 33 23 43 33 23 43 33 23 96 99 88 96 99 88 96 99 88 245 208 97 96 99 88 96 99 88 245 208 97 245 208 97 96 99 88 96 99 88 245 208 97 96 99 88 96 99 88 96 99 88 43 33 23 43 33 23 43 33 23 43 33 23 43 33 23 43 33 23 43 33 23 43 33 23 43 33 23 43 33 23 43 33 23 43 33 23 43 33 23 43 33 23 43 33 23 43 33 23 43 33 23 43 33 23 43 33 23 43 33 23 43 33 23 43 33 23 43 33 23 43 33 23 43 33 23 43 33 23 43 33 23 43 33 23 43 33 23 43 33 23 43 33 23 43 33 23 43 33 23 43 33 23 43 33 23 43 33 23 43 33 23 43 33 23 43 33 23 43 33 23 43 33 23 43 33 23 43 33 23 43 33 23 43 33 23 43 33 23 43 33 23 43 33 23 43 33 23 43 33 23 43 33 23 43 33 23 43 33 23 43 33 23 43 33 23 43 33 23 43 33 23
43 33 23 43 33 23 43 33 23 43 33 23 43 33 23 43 33 23 43 33 23 43 33 23 43 33 23 43 33 23 43 33 23 43 33 23 43 33 23 43 33 23 43 33 23 43 33 23 43 33 23 43 33 23 43 33 23 43 33 23 43 33 23 43 33 23 43 33 23 43 33 23 43 33 23 43 33 23 43 33 23 43 33 23 43 33 23 43 33 23 43 33 23 43 33 23 43 33 23 43 33 23 43 33 23 43 33 23 43 33 23 43 33 23 43 33 23 43 33 23 43 33 23 43 33 23 43 33 23 43 33 23 43 33 23 43 33 23 43 33 23 43 33 23 43 33 23 43 33 23 43 33 23 43 33 23 43 33 23 43 33 23 43 33 23 43 33 23 43 33 23 96 99 88 96 99 88 96 99 88 245 208 97 96 99 88 96 99 88 245 208 97 245 208 97 96 99 88 96 99 88 245 208 97 96 99 88 96 99 88 96 99 88 43 33 23 43 33 23 43 33 23 43 33 23 43 33 23 43 33 23 43 33 23 43 33 23 43 33 23 43 33 23 43 33 23 43 33 23 43 33 23 43 33 23 43 33 23 43 33 23 43 33 23 43 33 23 43 33 23 43 33 23 43 33 23 43 33 23 43 33 23 43 33 23 43 33 23 43 33 23 43 33 23 43 33 23 43 33 23 43 33 23 43 33 23 43 33 23 43 33 23 43 33 23 43 33 23 43 33 23 43 33 23 43 33 23 43 33 23 43 33 23 43 33 23 43 33 23 43 33 23 43 33 23 43 33 23 43 33 23 43 33 23 43 33 23 43 33 23 43 33 23 43 33 23 43 33 23 43 33 23 43 33 23 43 33 23 43 33 23 43 33 23
43 33 23 43 33 23 43 33 23 43 33 23 43 33 23 43 33 23 43 33 23 43 33 23 43 33 23 43 33 23 43 33 23 43 33 23 43 33 23 43 33 23 43 33 23 43 33 23 43 33 23 43 33 23 43 33 23 43 33 23 43 33 23 43 33 23 43 33 23 43 33 23 43 33 23 43 33 23 43 33 23 43 33 23 43 33 23 43 33 23 43 33 23 43 33 23 43 33 23 43 33 23 43 33 23 43 33 23 43 33 23 43 33 23 43 33 23 43 33 23 43 33 23 43 33 23 43 33 23 43 33 23 43 33 23 43 33 23 43 33 23 43 33 23 43 33 23 43 33 23 43 33 23 43 33 23 43 33 23 43 33 23 43 33 23 43 33 23 43 33 23 96 99 88 96 99 88 96 99 88 245 208 97 96 99 88 96 99 88 245 208 97 245 208 97 96 99 88 96 99 88 245 208 97 96 99 88 96 99 88 96 99 88 43 33 23 43 33 23 43 33 23 43 33 23 43 33 23 43 33 23 43 33 23 43 33 23 43 33 23 43 33 23 43 33 23 43 33 23 43 33 23 43 33 23 43 33 23 43 33 23 43 33 23 43 33 23 43 33 23 43 33 23 43 33 23 43 33 23 43 33 23 43 33 23 43 33 23 43 33 23 43 33 23 43 33 23 43 33 23 43 33 23 43 33 23 43 33 23 43 33 23 43 33 23 43 33 23 43 33 23 43 33 23 43 33 23 43 33 23 43 33 23 43 33 23 43 33 23 43 33 23 43 33 23 43 33 23 43 33 23 43 33 23 43 33 23 43 33 23 43 33 23 43 33 23 43 33 23 43 33 23 43 33 23 43 33 23 43 33 23 43 33 23
43 33 23 43 33 23 43 33 23 43 33 23 43 33 23 43 33 23 43 33 23 43 33 23 43 33 23 43 33 23 43 33 23 43 33 23 43 33 23 43 33 23 43 33 23 43 33 23 43 33 23 43 33 23 43 33 23 43 33 23 43 33 23 43 33 23 43 33 23 43 33 23 43 33 23 43 33 23 43 33 23 43 33 23 43 33 23 43 33 23 43 33 23 43 33 23 43 33 23 43 33 23 43 33 23 43 33 23 43 33 23 43 33 23 43 33 23 43 33 23 43 33 23 43 33 23 43 33 23 43 33 23 43 33 23 43 33 23 43 33 23 43 33 23 43 33 23 43 33 23 43 33 23 43 33 23 43 33 23 43 33 23 43 33 23 43 33 23 43 33 23 96 99 88 96 99 88 96 99 88 245 208 97 96 99 88 96 99 88 245 208 97 245 208 97 96 99 88 96 99 88 245 208 97 96 99 88 96 99 88 96 99 88 43 33 23 43 33 23 43 33 23 43 33 23 43 33 23 43 33 23 43 33 23 43 33 23 43 33 23 43 33 23 43 33 23 43 33 23 43 33 23 43 33 23 43 33 23 43 33 23 43 33 23 43 33 23 43 33 23 43 33 23 43 33 23 43 33 23 43 33 23 43 33 23 43 33 23 43 33 23 43 33 23 43 33 23 43 33 23 43 33 23 43 33 23 43 33 23 43 33 23 43 33 23 43 33 23 43 33 23 43 33 23 43 33 23 43 33 23 43 33 23 43 33 23 43 33 23 43 33 23 43 33 23 43 33 23 43 33 23 43 33 23 43 33 23 43 33 23 43 33 23 43 33 23 43 33 23 43 33 23 43 33 23 43 33 23 43 33 23 43 33 23
43 33 23 43 33 23 43 33 23 43 33 23 43 33 23 43 33 23 43 33 23 43 33 23 43 33 23 43 33 23 43 33 23 43 33 23 43 33 23 43 33 23 43 33 23 43 33 23 43 33 23 43 33 23 43 33 23 43 33 23 43 33 23 43 33 23 43 33 23 43 33 23 43 33 23 43 33 23 43 33 23 43 33 23 43 33 23 43 33 23 43 33 23 43 33 23 43 33 23 43 33 23 43 33 23 43 33 23 43 33 23 43 33 23 43 33 23 43 33 23 43 33 23 43 33 23 43 33 23 43 33 23 43 33 23 43 33 23 43 33 23 43 33 23 43 33 23 43 33 23 43 33 23 43 33 23 43 33 23 43 33 23 43 33 23 43 33 23 43 33 23 96 99 88 96 99 88 96 99 88 245 208 97 96 99 88 96 99 88 245 208 97 245 208 97 96 99 88 96 99 88 245 208 97 96 99 88 96 99 88 96 99 88 43 33 23 43 33 23 43 33 23 43 33 23 43 33 23 43 33 23 43 33 23 43 33 23 43 33 23 43 33 23 43 33 23 43 33 23 43 33 23 43 33 23 43 33 23 43 33 23 43 33 23 43 33 23 43 33 23 43 33 23 43 33 23 43 33 23 43 33 23 43 33 23 43 33 23 43 33 23 43 33 23 43 33 23 43 33 23 43 33 23 43 33 23 43 33 23 43 33 23 43 33 23 43 33 23 43 33 23 43 33 23 43 33 23 43 33 23 43 33 23 43 33 23 43 33 23 43 33 23 43 33 23 43 33 23 43 33 23 43 33 23 43 33 23 43 33 23 43 33 23 43 33 23 43 33 23 43 33 23 43 33 23 43 33 23 43 33 23 43 33 23
43 33 23 43 33 23 43 33 23 43 33 23 43 33 23 43 33 23 43 33 23 43 33 23 43 33 23 43 33 23 43 33 23 43 33 23 43 33 23 43 33 23 43 33 23 43 33 23 43 33 23 43 33 23 43 33 23 43 33 23 43 33 23 43 33 23 43 33 23 43 33 23 43 33 23 43 33 23 43 33 23 43 33 23 43 33 23 43 33 23 43 33 23 43 33 23 43 33 23 43 33 23 43 33 23 43 33 23 43 33 23 43 33 23 43 33 23 43 33 23 43 33 23 43 33 23 43 33 23 43 33 23 43 33 23 43 33 23 43 33 23 43 33 23 43 33 23 43 33 23 43 33 23 43 33 23 43 33 23 43 33 23 43 33 23 43 33 23 43 33 23 96 99 88 96 99 88 96 99 88 245 208 97 96 99 88 96 99 88 245 208 97 245 208 97 96 99 88 96 99 88 245 208 97 96 99 88 96 99 88 96 99 88 43 33 23 43 33 23 43 33 23 43 33 23 43 33 23 43 33 23 43 33 23 43 33 23 43 33 23 43 33 23 43 33 23 43 33 23 43 33 23 43 33 23 43 33 23 43 33 23 43 33 23 43 33 23 43 33 23 43 33 23 43 33 23 43 33 23 43 33 23 43 33 23 43 33 23 43 33 23 43 33 23 43 33 23 43 33 23 43 33 23 43 33 23 43 33 23 43 33 23 43 33 23 43 33 23 43 33 23 43 33 23 43 33 23 43 33 23 43 33 23 43 33 23 43 33 23 43 33 23 43 33 23 43 33 23 43 33 23 43 33 23 43 33 23 43 33 23 43 33 23 43 33 23 43 33 23 43 33 23 43 33 23 43 33 23 43 33 23 43 33 23
43 33 23 43 33 23 43 33 23 43 33 23 43 33 23 43 33 23 43 33 23 43 33 23 43 33 23 43 33 23 43 33 23 43 33 23 43 33 23 43 33 23 43 33 23 43 33 23 43 33 23 43 33 23 43 33 23 43 33 23 43 33 23 43 33 23 43 33 23 43 33 23 43 33 23 43 33 23 43 33 23 43 33 23 43 33 23 43 33 23 43 33 23 43 33 23 43 33 23 43 33 23 43 33 23 43 33 23 43 33 23 43 33 23 43 33 23 43 33 23 43 33 23 43 33 23 43 33 23 43 33 23 43 33 23 43 33 23 43 33 23 43 33 23 43 33 23 43 33 23 43 33 23 43 33 23 43 33 23 43 33 23 43 33 23 43 33 23 43 33 23 96 99 88 96 99 88 96 99 88 245 208 97 96 99 88 96 99 88 245 208 97 245 208 97 96 99 88 96 99 88 245 208 97 96 99 88 96 99 88 96 99 88 43 33 23 43 33 23 43 33 23 43 33 23 43 33 23 43 33 23 43 33 23 43 33 23 43 33 23 43 33 23 43 33 23 43 33 23 43 33 23 43 33 23 43 33 23 43 33 23 43 33 23 43 33 23 43 33 23 43 33 23 43 33 23 43 33 23 43 33 23 43 33 23 43 33 23 43 33 23 43 33 23 43 33 23 43 33 23 43 33 23 43 33 23 43 33 23 43 33 23 43 33 23 43 33 23 43 33 23 43 33 23 43 33 23 43 33 23 43 33 23 43 33 23 43 33 23 43 33 23 43 33 23 43 33 23 43 33 23 43 33 23 43 33 23 43 33 23 43 33 23 43 33 23 43 33 23 43 33 23 43 33 23 43 33 23 43 33 23 43 33 23
43 33 23 43 33 23 43 33 23 43 33 23 43 33 23 43 33 23 43 33 23 43 33 23 43 33 23 43 33 23 43 33 23 43 33 23 43 33 23 43 33 23 43 33 23 43 33 23 43 33 23 43 33 23 43 33 23 43 33 23 43 33 23 43 33 23 43 33 23 43 33 23 43 33 23 43 33 23 43 33 23 43 33 23 43 33 23 43 33 23 43 33 23 43 33 23 43 33 23 43 33 23 43 33 23 43 33 23 43 33 23 43 33 23 43 33 23 43 33 23 43 33 23 43 33 23 43 33 23 43 33 23 43 33 23 43 33 23 43 33 23 43 33 23 43 33 23 43 33 23 43 33 23 43 33 23 43 33 23 43 33 23 43 33 23 43 33 23 43 33 23 96 99 88 96 99 88 96 99 88 245 208 97 96 99 88 96 99 88 245 208 97 245 208 97 96 99 88 96 99 88 245 208 97 96 99 88 96 99 88 96 99 88 43 33 23 43 33 23 43 33 23 43 33 23 43 33 23 43 33 23 43 33 23 43 33 23 43 33 23 43 33 23 43 33 23 43 33 23 43 33 23 43 33 23 43 33 23 43 33 23 43 33 23 43 33 23 43 33 23 43 33 23 43 33 23 43 33 23 43 33 23 43 33 23 43 33 23 43 33 23 43 33 23 43 33 23 43 33 23 43 33 23 43 33 23 43 33 23 43 33 23 43 33 23 43 33 23 43 33 23 43 33 23 43 33 23 43 33 23 43 33 23 43 33 23 43 33 23 43 33 23 43 33 23 43 33 23 43 33 23 43 33 23 43 33 23 43 33 23 43 33 23 43 33 23 43 33 23 43 33 23 43 33 23 43 33 23 43 33 23 43 33 23
43 33 23 43 33 23 43 33 23 43 33 23 43 33 23 43 33 23 43 33 23 43 33 23 43 33 23 43 33 23 43 33 23 43 33 23 43 33 23 43 33 23 43 33 23 43 33 23 43 33 23 43 33 23 43 33 23 43 33 23 43 33 23 43 33 23 43 33 23 43 33 23 43 33 23 43 33 23 43 33 23 43 33 23 43 33 23 43 33 23 43 33 23 43 33 23 43 33 23 43 33 23 43 33 23 43 33 23 43 33 23 43 33 23 43 33 23 43 33 23 43 33 23 43 33 23 43 33 23 43 33 23 43 33 23 43 33 23 43 33 23 43 33 23 43 33 23 43 33 23 43 33 23 43 33 23 43 33 23 43 33 23 43 33 23 43 33 23 43 33 23 96 99 88 96 99 88 96 99 88 245 208 97 96 99 88 96 99 88 245 208 97 245 208 97 96 99 88 96 99 88 245 208 97 96 99 88 96 99 88 96 99 88 43 33 23 43 33 23 43 33 23 43 33 23 43 33 23 43 33 23 43 33 23 43 33 23 43 33 23 43 33 23 43 33 23 43 33 23 43 33 23 43 33 23 43 33 23 43 33 23 43 33 23 43 33 23 43 33 23 43 33 23 43 33 23 43 33 23 43 33 23 43 33 23 43 33 23 43 33 23 43 33 23 43 33 23 43 33 23 43 33 23 43 33 23 43 33 23 43 33 23 43 33 23 43 33 23 43 33 23 43 33 23 43 33 23 43 33 23 43 33 23 43 33 23 43 33 23 43 33 23 43 33 23 43 33 23 43 33 23 43 33 23 43 33 23 43 33 23 43 33 23 43 33 23 43 33 23 43 33 23 43 33 23 43 33 23 43 33 23 43 33 23
43 33 23 43 33 23 43 33 23 43 33 23 43 33 23 43 33 23 43 33 23 43 33 23 43 33 23 43 33 23 43 33 23 43 33 23 43 33 23 43 33 23 43 33 23 43 33 23 43 33 23 43 33 23 43 33 23 43 33 23 43 33 23 43 33 23 43 33 23 43 33 23 43 33 23 43 33 23 43 33 23 43 33 23 43 33 23 43 33 23 43 33 23 43 33 23 43 33 23 43 33 23 43 33 23 43 33 23 43 33 23 43 33 23 43 33 23 43 33 23 43 33 23 43 33 23 43 33 23 43 33 23 43 33 23 43 33 23 43 33 23 43 33 23 43 33 23 43 33 23 43 33 23 43 33 23 43 33 23 43 33 23 43 33 23 43 33 23 43 33 23 96 99 88 96 99 88 96 99 88 245 208 97 96 99 88 96 99 88 245 208 97 245 208 97 96 99 88 96 99 88 245 208 97 96 99 88 96 99 88 96 99 88 43 33 23 43 33 23 43 33 23 43 33 23 43 33 23 43 33 23 43 33 23 43 33 23 43 33 23 43 33 23 43 33 23 43 33 23 43 33 23 43 33 23 43 33 23 43 33 23 43 33 23 43 33 23 43 33 23 43 33 23 43 33 23 43 33 23 43 33 23 43 33 23 43 33 23 43 33 23 43 33 23 43 33 23 43 33 23 43 33 23 43 33 23 43 33 23 43 33 23 43 33 23 43 33 23 43 33 23 43 33 23 43 33 23 43 33 23 43 33 23 43 33 23 43 33 23 43 33 23 43 33 23 43 33 23 43 33 23 43 33 23 43 33 23 43 33 23 43 33 23 43 33 23 43 33 23 43 33 23 43 33 23 43 33 23 43 33 23 43 33 23
43 33 23 43 33 23 43 33 23 43 33 23 43 33 23 43 33 23 43 33 23 43 33 23 43 33 23 43 33 23 43 33 23 43 33 23 43 33 23 43 33 23 43 33 23 43 33 23 43 33 23 43 33 23 43 33 23 43 33 23 43 33 23 43 33 23 43 33 23 43 33 23 43 33 23 43 33 23 43 33 23 43 33 23 43 33 23 43 33 23 43 33 23 43 33 23 43 33 23 43 33 23 43 33 23 43 33 23 43 33 23 43 33 23 43 33 23 43 33 23 43 33 23 43 33 23 43 33 23 43 33 23 43 33 23 43 33 23 43 33 23 43 33 23 43 33 23 43 33 23 43 33 23 43 33 23 43 33 23 43 33 23 43 33 23 43 33 23 43 33 23 96 99 88 96 99 88 96 99 88 245 208 97 96 99 88 96 99 88 245 208 97 245 208 97 96 99 88 96 99 88 245 208 97 96 99 88 96 99 88 96 99 88 43 33 23 43 33 23 43 33 23 43 33 23 43 33 23 43 33 23 43 33 23 43 33 23 43 33 23 43 33 23 43 33 23 43 33 23 43 33 23 43 33 23 43 33 23 43 33 23 43 33 23 43 33 23 43 33 23 43 33 23 43 33 23 43 33 23 43 33 23 43 33 23 43 33 23 43 33 23 43 33 23 43 33 23 43 33 23 43 33 23 43 33 23 43 33 23 43 33 23 43 33 23 43 33 23 43 33 23 43 33 23 43 33 23 43 33 23 43 33 23 43 33 23 43 33 23 43 33 23 43 33 23 43 33 23 43 33 23 43 33 23 43 33 23 43 33 23 43 33 23 43 33 23 43 33 23 43 33 23 43 33 23 43 33 23 43 33 23 43 33 23
43 33 23 43 33 23 43 33 23 43 33 23 43 33 23 43 33 23 43 33 23 43 33 23 43 33 23 43 33 23 43 33 23 43 33 23 43 33 23 43 33 23 43 33 23 43 33 23 43 33 23 43 33 23 43 33 23 43 33 23 43 33 23 43 33 23 43 33 23 43 33 23 43 33 23 43 33 23 43 33 23 43 33 23 43 33 23 43 33 23 43 33 23 43 33 23 43 33 23 43 33 23 43 33 23 43 33 23 43 33 23 43 33 23 43 33 23 43 33 23 43 33 23 43 33 23 43 33 23 43 33 23 43 33 23 43 33 23 43 33 23 43 33 23 43 33 23 43 33 23 43 33 23 43 33 23 43 33 23 43 33 23 43 33 23 43 33 23 43 33 23 96 99 88 96 99 88 96 99 88 245 208 97 96 99 88 96 99 88 245 208 97 245 208 97 96 99 88 96 99 88 245 208 97 96 99 88 96 99 88 96 99 88 43 33 23 43 33 23 43 33 23 43 33 23 43 33 23 43 33 23 43 33 23 43 33 23 43 33 23 43 33 23 43 33 23 43 33 23 43 33 23 43 33 23 43 33 23 43 33 23 43 33 23 43 33 23 43 33 23 43 33 23 43 33 23 43 33 23 43 33 23 43 33 23 43 33 23 43 33 23 43 33 23 43 33 23 43 33 23 43 33 23 43 33 23 43 33 23 43 33 23 43 33 23 43 33 23 43 33 23 43 33 23 43 33 23 43 33 23 43 33 23 43 33 23 43 33 23 43 33 23 43 33 23 43 33 23 43 33 23 43 33 23 43 33 23 43 33 23 43 33 23 43 33 23 43 33 23 43 33 23 43 33 23 43 33 23 43 33 23 43 33 23
43 33 23 43 33 23 43 33 23 43 33 23 43 33 23 43 33 23 43 33 23 43 33 23 43 33 23 43 33 23 43 33 23 43 33 23 43 33 23 43 33 23 43 33 23 43 33 23 43 33 23 43 33 23 43 33 23 43 33 23 43 33 23 43 33 23 43 33 23 43 33 23 43 33 23 43 33 23 43 33 23 43 33 23 43 33 23 43 33 23 43 33 23 43 33 23 43 33 23 43 33 23 43 33 23 43 33 23 43 33 23 43 33 23 43 33 23 43 33 23 43 33 23 43 33 23 43 33 23 43 33 23 43 33 23 43 33 23 43 33 23 43 33 23 43 33 23 43 33 23 43 33 23 43 33 23 43 33 23 43 33 23 43 33 23 43 33 23 43 33 23 96 99 88 96 99 88 96 99 88 245 208 97 96 99 88 96 99 88 245 208 97 245 208 97 96 99 88 96 99 88 245 208 97 96 99 88 96 99 88 96 99 88 43 33 23 43 33 23 43 33 23 43 33 23 43 33 23 43 33 23 43 33 23 43 33 23 43 33 23 43 33 23 43 33 23 43 33 23 43 33 23 43 33 23 43 33 23 43 33 23 43 33 23 43 33 23 43 33 23 43 33 23 43 33 23 43 33 23 43 33 23 43 33 23 43 33 23 43 33 23 43 33 23 43 33 23 43 33 23 43 33 23 43 33 23 43 33 23 43 33 23 43 33 23 43 33 23 43 33 23 43 33 23 43 33 23 43 33 23 43 33 23 43 33 23 43 33 23 43 33 23 43 33 23 43 33 23 43 33 23 43 33 23 43 33 23 43 33 23 43 33 23 43 33 23 43 33 23 43 33 23 43 33 23 43 33 23 43 33 23 43 33 23
43 33 23 43 33 23 43 33 23 43 33 23 43 33 23 43 33 23 43 33 23 43 33 23 43 33 23 43 33 23 43 33 23 43 33 23 43 33 23 43 33 23 43 33 23 43 33 23 43 33 23 43 33 23 43 33 23 43 33 23 43 33 23 43 33 23 43 33 23 43 33 23 43 33 23 43 33 23 43 33 23 43 33 23 43 33 23 43 33 23 43 33 23 43 33 23 43 33 23 43 33 23 43 33 23 43 33 23 43 33 23 43 33 23 43 33 23 43 33 23 43 33 23 43 33 23 43 33 23 43 33 23 43 33 23 43 33 23 43 33 23 43 33 23 43 33 23 43 33 23 43 33 23 43 33 23 43 33 23 43 33 23 43 33 23 43 33 23 43 33 23 96 99 88 96 99 88 96 99 88 245 208 97 96 99 88 96 99 88 245 208 97 245 208 97 96 99 88 96 99 88 245 208 97 96 99 88 96 99 88 96 99 88 43 33 23 43 33 23 43 33 23 43 33 23 43 33 23 43 33 23 43 33 23 43 33 23 43 33 23 43 33 23 43 33 23 43 33 23 43 33 23 43 33 23 43 33 23 43 33 23 43 33 23 43 33 23 43 33 23 43 33 23 43 33 23 43 33 23 43 33 23 43 33 23 43 33 23 43 33 23 43 33 23 43 33 23 43 33 23 43 33 23 43 33 23 43 33 23 43 33 23 43 33 23 43 33 23 43 33 23 43 33 23 43 33 23 43 33 23 43 33 23 43 33 23 43 33 23 43 33 23 43 33 23 43 33 23 43 33 23 43 33 23 43 33 23 43 33 23 43 33 23 43 33 23 43 33 23 43 33 23 43 33 23 43 33 23 43 33 23 43 33 23
43 33 23 43 33 23 43 33 23 43 33 23 43 33 23 43 33 23 43 33 23 43 33 23 43 33 23 43 33 23 43 33 23 43 33 23 43 33 23 43 33 23 43 33 23 43 33 23 43 33 23 43 33 23 43 33 23 43 33 23 43 33 23 43 33 23 43 33 23 43 33 23 43 33 23 43 33 23 43 33 23 43 33 23 43 33 23 43 33 23 43 33 23 43 33 23 43 33 23 43 33 23 43 33 23 43 33 23 43 33 23 43 33 23 43 33 23 43 33 23 43 33 23 43 33 23 43 33 23 43 33 23 43 33 23 43 33 23 43 33 23 43 33 23 43 33 23 43 33 23 43 33 23 43 33 23 43 33 23 43 33 23 43 33 23 43 33 23 43 33 23 96 99 88 96 99 88 96 99 88 245 208 97 96 99 88 96 99 88 245 208 97 245 208 97 96 99 88 96 99 88 245 208 97 96 99 88 96 99 88 96 99 88 43 33 23 43 33 23 43 33 23 43 33 23 43 33 23 43 33 23 43 33 23 43 33 23 43 33 23 43 33 23 43 33 23 43 33 23 43 33 23 43 33 23 43 33 23 43 33 23 43 33 23 43 33 23 43 33 23 43 33 23 43 33 23 43 33 23 43 33 23 43 33 23 43 33 23 43 33 23 43 33 23 43 33 23 43 33 23 43 33 23 43 33 23 43 33 23 43 33 23 43 33 23 43 33 23 43 33 23 43 33 23 43 33 23 43 33 23 43 33 23 43 33 23 43 33 23 43 33 23 43 33 23 43 33 23 43 33 23 43 33 23 43 33 23 43 33 23 43 33 23 43 33 23 43 33 23 43 33 23 43 33 23 43 33 23 43 33 23 43 33 23
43 33 23 43 33 23 43 33 23 43 33 23 43 33 23 43 33 23 43 33 23 43 33 23 43 33 23 43 33 23 43 33 23 43 33 23 43 33 23 43 33 23 43 33 23 43 33 23 43 33 23 43 33 23 43 33 23 43 33 23 43 33 23 43 33 23 43 33 23 43 33 23 43 33 23 43 33 23 43 33 23 43 33 23 43 33 23 43 33 23 43 33 23 43 33 23 43 33 23 43 33 23 43 33 23 43 33 23 43 33 23 43 33 23 43 33 23 43 33 23 43 33 23 43 33 23 43 33 23 43 33 23 43 33 23 43 33 23 43 33 23 43 33 23 43 33 23 43 33 23 43 33 23 43 33 23 43 33 23 43 33 23 43 33 23 43 33 23 43 33 23 96 99 88 96 99 88 96 99 88 245 208 97 96 99 88 96 99 88 245 208 97 245 208 97 96 99 88 96 99 88 245 208 97 96 99 88 96 99 88 96 99 88 43 33 23 43 33 23 43 33 23 43 33 23 43 33 23 43 33 23 43 33 23 43 33 23 43 33 23 43 33 23 43 33 23 43 33 23 43 33 23 43 33 23 43 33 23 43 33 23 43 33 23 43 33 23 43 33 23 43 33 23 43 33 23 43 33 23 43 33 23 43 33 23 43 33 23 43 33 23 43 33 23 43 33 23 43 33 23 43 33 23 43 33 23 43 33 23 43 33 23 43 33 23 43 33 23 43 33 23 43 33 23 43 33 23 43 33 23 43 33 23 43 33 23 43 33 23 43 33 23 43 33 23 43 33 23 43 33 23 43 33 23 43 33 23 43 33 23 43 33 23 43 33 23 43 33 23 43 33 23 43 33 23 43 33 23 43 33 23 43 33 23
43 33 23 43 33 23 43 33 23 43 33 23 43 33 23 43 33 23 43 33 23 43 33 23 43 33 23 43 33 23 43 33 23 43 33 23 43 33 23 43 33 23 43 33 23 43 33 23 43 33 23 43 33 23 43 33 23 43 33 23 43 33 23 43 33 23 43 33 23 43 33 23 43 33 23 43 33 23 43 33 23 43 33 23 43 33 23 43 33 23 43 33 23 43 33 23 43 33 23 43 33 23 43 33 23 43 33 23 43 33 23 43 33 23 43 33 23 43 33 23 43 33 23 43 33 23 43 33 23 43 33 23 43 33 23 43 33 23 43 33 23 43 33 23 43 33 23 43 33 23 43 33 23 43 33 23 43 33 23 43 33 23 43 33 23 43 33 23 43 33 23 96 99 88 96 99 88 96 99 88 245 208 97 96 99 88 96 99 88 245 208 97 245 208 97 96 99 88 96 99 88 245 208 97 96 99 88 96 99 88 96 99 88 43 33 23 43 33 23 43 33 23 43 33 23 43 33 23 43 33 23 43 33 23 43 33 23 43 33 23 43 33 23 43 33 23 43 33 23 43 33 23 43 33 23 43 33 23 43 33 23 43 33 23 43 33 23 43 33 23 43 33 23 43 33 23 43 33 23 43 33 23 43 33 23 43 33 23 43 33 23 43 33 23 43 33 23 43 33 23 43 33 23 43 33 23 43 33 23 43 33 23 43 33 23 43 33 23 43 33 23 43 33 23 43 33 23 43 33 23 43 33 23 43 33 23 43 33 23 43 33 23 43 33 23 43 33 23 43 33 23 43 33 23 43 33 23 43 33 23 43 33 23 43 33 23 43 33 23 43 33 23 43 33 23 43 33 23 43 33 23 43 33 23
43 33 23 43 33 23 43 33 23 43 33 23 43 33 23 43 33 23 43 33 23 43 33 23 43 33 23 43 33 23 43 33 23 43 33 23 43 33 23 43 33 23 43 33 23 43 33 23 43 33 23 43 33 23 43 33 23 43 33 23 43 33 23 43 33 23 43 33 23 43 33 23 43 33 23 43 33 23 43 33 23 43 33 23 43 33 23 43 33 23 43 33 23 43 33 23 43 33 23 43 33 23 43 33 23 43 33 23 43 33 23 43 33 23 43 33 23 43 33 23 43 33 23 43 33 23 43 33 23 43 33 23 43 33 23 43 33 23 43 33 23 43 33 23 43 33 23 43 33 23 43 33 23 43 33 23 43 33 23 43 33 23 43 33 23 43 33 23 43 33 23 96 99 88 96 99 88 96 99 88 245 208 97 96 99 88 96 99 88 245 208 97 245 208 97 96 99 88 96 99 88 245 208 97 96 99 88 96 99 88 96 99 88 43 33 23 43 33 23 43 33 23 43 33 23 43 33 23 43 33 23 43 33 23 43 33 23 43 33 23 43 33 23 43 33 23 43 33 23 43 33 23 43 33 23 43 33 23 43 33 23 43 33 23 43 33 23 43 33 23 43 33 23 43 33 23 43 33 23 43 33 23 43 33 23 43 33 23 43 33 23 43 33 23 43 33 23 43 33 23 43 33 23 43 33 23 43 33 23 43 33 23 43 33 23 43 33 23 43 33 23 43 33 23 43 33 23 43 33 23 43 33 23 43 33 23 43 33 23 43 33 23 43 33 23 43 33 23 43 33 23 43 33 23 43 33 23 43 33 23 43 33 23 43 33 23 43 33 23 43 33 23 43 33 23 43 33 23 43 33 23 43 33 23
43 33 23 43 33 23 43 33 23 43 33 23 43 33 23 43 33 23 43 33 23 43 33 23 43 33 23 43 33 23 43 33 23 43 33 23 43 33 23 43 33 23 43 33 23 43 33 23 43 33 23 43 33 23 43 33 23 43 33 23 43 33 23 43 33 23 43 33 23 43 33 23 43 33 23 43 33 23 43 33 23 43 33 23 43 33 23 43 33 23 43 33 23 43 33 23 43 33 23 43 33 23 43 33 23 43 33 23 43 33 23 43 33 23 43 33 23 43 33 23 43 33 23 43 33 23 43 33 23 43 33 23 43 33 23 43 33 23 43 33 23 43 33 23 43 33 23 43 33 23 43 33 23 43 33 23 43 33 23 43 33 23 43 33 23 43 33 23 43 33 23 96 99 88 96 99 88 96 99 88 245 208 97 96 99 88 96 99 88 245 208 97 245 208 97 96 99 88 96 99 88 245 208 97 96 99 88 96 99 88 96 99 88 43 33 23 43 33 23 43 33 23 43 33 23 43 33 23 43 33 23 43 33 23 43 33 23 43 33 23 43 33 23 43 33 23 43 33 23 43 33 23 43 33 23 43 33 23 43 33 23 43 33 23 43 33 23 43 33 23 43 33 23 43 33 23 43 33 23 43 33 23 43 33 23 43 33 23 43 33 23 43 33 23 43 33 23 43 33 23 43 33 23 43 33 23 43 33 23 43 33 23 43 33 23 43 33 23 43 33 23 43 33 23 43 33 23 43 33 23 43 33 23 43 33 23 43 33 23 43 33 23 43 33 23 43 33 23 43 33 23 43 33 23 43 33 23 43 33 23 43 33 23 43 33 23 43 33 23 43 33 23 43 33 23 43 33 23 43 33 23 43 33 23
43 33 23 43 33 23 43 33 23 43 33 23 43 33 23 43 33 23 43 33 23 43 33 23 43 33 23 43 33 23 43 33 23 43 33 23 43 33 23 43 33 23 43 33 23 43 33 23 43 33 23 43 33 23 43 33 23 43 33 23 43 33 23 43 33 23 43 33 23 43 33 23 43 33 23 43 33 23 43 33 23 43 33 23 43 33 23 43 33 23 43 33 23 43 33 23 43 33 23 43 33 23 43 33 23 43 33 23 43 33 23 43 33 23 43 33 23 43 33 23 43 33 23 43 33 23 43 33 23 43 33 23 43 33 23 43 33 23 43 33 23 43 33 23 43 33 23 43 33 23 43 33 23 43 33 23 43 33 23 43 33 23 43 33 23 43 33 23 43 33 23 96 99 88 96 99 88 96 99 88 245 208 97 96 99 88 96 99 88 245 208 97 245 208 97 96 99 88 96 99 88 245 208 97 96 99 88 96 99 88 96 99 88 15 124 115 15 124 115 43 33 23 43 33 23 43 33 23 43 33 23 43 33 23 43 33 23 43 33 23 43 33 23 43 33 23 43 33 23 43 33 23 43 33 23 43 33 23 43 33 23 43 33 23 43 33 23 43 33 23 43 33 23 43 33 23 43 33 23 43 33 23 43 33 23 43 33 23 43 33 23 43 33 23 43 33 23 43 33 23 43 33 23 43 33 23 43 33 23 43 33 23 43 33 23 43 33 23 43 33 23 43 33 23 43 33 23 43 33 23 43 33 23 43 33 23 43 33 23 43 33 23 43 33 23 43 33 23 43 33 23 43 33 23 43 33 23 43 33 23 43 33 23 43 33 23 43 33 23 43 33 23 43 33 23 43 33 23 43 33 23 43 33 23
43 33 23 43 33 23 43 33 23 43 33 23 43 33 23 43 33 23 43 33 23 43 33 23 43 33 23 43 33 23 43 33 23 43 33 23 43 33 23 43 33 23 43 33 23 43 33 23 43 33 23 43 33 23 43 33 23 43 33 23 43 33 23 43 33 23 43 33 23 43 33 23 43 33 23 43 33 23 43 33 23 43 33 23 43 33 23 43 33 23 43 33 23 43 33 23 43 33 23 43 33 23 43 33 23 43 33 23 43 33 23 43 33 23 43 33 23 43 33 23 43 33 23 43 33 23 43 33 23 43 33 23 43 33 23 43 33 23 43 33 23 43 33 23 43 33 23 43 33 23 43 33 23 43 33 23 43 33 23 43 33 23 43 33 23 43 33 23 43 33 23 96 99 88 96 99 88 96 99 88 245 208 97 96 99 88 96 99 88 245 208 97 245 208 97 96 99 88 96 99 88 245 208 97 96 99 88 96 99 88 96 99 88 43 33 23 43 33 23 43 33 23 43 33 23 43 33 23 43 33 23 43 33 23 43 33 23 43 33 23 43 33 23 43 33 23 43 33 23 43 33 23 43 33 23 43 33 23 43 33 23 43 33 23 43 33 23 43 33 23 43 33 23 43 33 23 43 33 23 43 33 23 43 33 23 43 33 23 43 33 23 43 33 23 43 33 23 43 33 23 43 33 23 43 33 23 43 33 23 43 33 23 43 33 23 43 33 23 43 33 23 43 33 23 43 33 23 43 33 23 43 33 23 43 33 23 43 33 23 43 33 23 43 33 23 43 33 23 43 33 23 43 33 23 43 33 23 43 33 23 43 33 23 43 33 23 43 33 23 43 33 23 43 33 23 43 33 23 43 33 23 43 33 23
43 33 23 43 33 23 43 33 23 43 33 23 43 33 23 43 33 23 43 33 23 43 33 23 43 33 23 43 33 23 43 33 23 43 33 23 43 33 23 43 33 23 43 33 23 43 33 23 43 33 23 43 33 23 43 33 23 43 33 23 43 33 23 43 33 23 43 33 23 43 33 23 43 33 23 43 33 23 43 33 23 43 33 23 43 33 23 43 33 23 43 33 23 43 33 23 43 33 23 43 33 23 43 33 23 43 33 23 43 33 23 43 33 23 43 33 23 43 33 23 43 33 23 43 33 23 43 33 23 43 33 23 43 33 23 43 33 23 43 33 23 43 33 23 43 33 23 43 33 23 43 33 23 43 33 23 43 33 23 43 33 23 43 33 23 43 33 23 43 33 23 96 99 88 96 99 88 96 99 88 245 208 97 96 99 88 96 99 88 245 208 97 245 208 97 96 99 88 96 99 88 245 208 97 96 99 88 96 99 88 96 99 88 43 33 23 43 33 23 43 33 23 43 33 23 43 33 23 43 33 23 43 33 23 43 33 23 43 33 23 43 33 23 43 33 23 43 33 23 43 33 23 43 33 23 43 33 23 43 33 23 43 33 23 43 33 23 43 33 23 43 33 23 43 33 23 43 33 23 43 33 23 43 33 23 43 33 23 43 33 23 43 33 23 43 33 23 43 33 23 43 33 23 43 33 23 43 33 23 43 33 23 43 33 23 43 33 23 43 33 23 43 33 23 43 33 23 43 33 23 43 33 23 43 33 23 43 33 23 43 33 23 43 33 23 43 33 23 43 33 23 43 33 23 43 33 23 43 33 23 43 33 23 43 33 23 43 33 23 43 33 23 43 33 23 43 33 23 43 33 23 43 33 23
43 33 23 43 33 23 43 33 23 43 33 23 43 33 23 43 33 23 43 33 23 43 33 23 43 33 23 43 33 23 43 33 23 43 33 23 43 33 23 43 33 23 43 33 23 43 33 23 43 33 23 43 33 23 43 33 23 43 33 23 43 33 23 43 33 23 43 33 23 43 33 23 43 33 23 43 33 23 43 33 23 43 33 23 43 33 23 43 33 23 43 33 23 43 33 23 43 33 23 43 33 23 43 33 23 43 33 23 43 33 23 43 33 23 43 33 23 43 33 23 43 33 23 43 33 23 43 33 23 43 33 23 43 33 23 43 33 23 43 33 23 43 33 23 43 33 23 43 33 23 43 33 23 43 33 23 43 33 23 43 33 23 43 33 23 43 33 23 43 33 23 96 99 88 96 99 88 96 99 88 245 208 97 96 99 88 96 99 88 245 208 97 245 208 97 96 99 88 96 99 88 245 208 97 96 99 88 96 99 88 96 99 88 43 33 23 43 33 23 43 33 23 43 33 23 43 33 23 43 33 23 43 33 23 43 33 23 43 33 23 43 33 23 43 33 23 43 33 23 43 33 23 43 33 23 43 33 23 43 33 23 43 33 23 43 33 23 43 33 23 43 33 23 43 33 23 43 33 23 43 33 23 43 33 23 43 33 23 43 33 23 43 33 23 43 33 23 43 33 23 43 33 23 43 33 23 43 33 23 43 33 23 43 33 23 43 33 23 43 33 23 43 33 23 43 33 23 43 33 23 43 33 23 43 33 23 43 33 23 43 33 23 43 33 23 43 33 23 43 33 23 43 33 23 43 33 23 43 33 23 43 33 23 43 33 23 43 33 23 43 33 23 43 33 23 43 33 23 43 33 23 43 33 23
43 33 23 43 33 23 43 33 23 43 33 23 43 33 23 43 33 23 43 33 23 43 33 23 43 33 23 43 33 23 43 33 23 43 33 23 43 33 23 43 33 23 43 33 23 43 33 23 43 33 23 43 33 23 43 33 23 43 33 23 43 33 23 43 33 23 43 33 23 43 33 23 43 33 23 43 33 23 43 33 23 43 33 23 43 33 23 43 33 23 43 33 23 43 33 23 43 33 23 43 33 23 43 33 23 43 33 23 43 33 23 43 33 23 43 33 23 43 33 23 43 33 23 43 33 23 43 33 23 43 33 23 43 33 23 43 33 23 43 33 23 43 33 23 43 33 23 43 33 23 43 33 23 43 33 23 43 33 23 43 33 23 43 33 23 43 33 23 43 33 23 96 99 88 96 99 88 96 99 88 245 208 97 96 99 88 96 99 88 245 208 97 245 208 97 96 99 88 96 99 88 245 208 97 96 99 88 96 99 88 96 99 88 43 33 23 43 33 23 43 33 23 43 33 23 43 33 23 43 33 23 43 33 23 43 33 23 43 33 23 43 33 23 43 33 23 43 33 23 43 33 23 43 33 23 43 33 23 43 33 23 43 33 23 43 33 23 43 33 23 43 33 23 43 33 23 43 33 23 43 33 23 43 33 23 43 33 23 43 33 23 43 33 23 43 33 23 43 33 23 43 33 23 43 33 23 43 33 23 43 33 23 43 33 23 43 33 23 43 33 23 43 33 23 43 33 23 43 33 23 43 33 23 43 33 23 43 33 23 43 33 23 43 33 23 43 33 23 43 33 23 43 33 23 43 33 23 43 33 23 43 33 23 43 33 23 43 33 23 43 33 23 43 33 23 43 33 23 43 33 23 43 33 23
43 33 23 43 33 23 43 33 23 43 33 23 43 33 23 43 33 23 43 33 23 43 33 23 43 33 23 43 33 23 43 33 23 43 33 23 43 33 23 43 33 23 43 33 23 43 33 23 43 33 23 43 33 23 43 33 23 43 33 23 43 33 23 43 33 23 43 33 23 43 33 23 43 33 23 43 33 23 43 33 23 43 33 23 43 33 23 43 33 23 43 33 23 43 33 23 43 33 23 43 33 23 43 33 23 43 33 23 43 33 23 43 33 23 43 33 23 43 33 23 43 33 23 43 33 23 43 33 23 43 33 23 43 33 23 43 33 23 43 33 23 43 33 23 43 33 23 43 33 23 43 33 23 43 33 23 43 33 23 43 33 23 43 33 23 43 33 23 43 33 23 96 99 88 96 99 88 96 99 88 245 208 97 96 99 88 96 99 88 245 208 97 245 208 97 96 99 88 96 99 88 245 208 97 96 99 88 96 99 88 96 99 88 43 33 23 43 33 23 43 33 23 43 33 23 43 33 23 43 33 23 43 33 23 43 33 23 43 33 23 43 33 23 43 33 23 43 33 23 43 33 23 43 33 23 43 33 23 43 33 23 43 33 23 43 33 23 43 33 23 43 33 23 43 33 23 43 33 23 43 33 23 43 33 23 43 33 23 43 33 23 43 33 23 43 33 23 43 33 23 43 33 23 43 33 23 43 33 23 43 33 23 43 33 23 43 33 23 43 33 23 43 33 23 43 33 23 43 33 23 43 33 23 43 33 23 43 33 23 43 33 23 43 33 23 43 33 23 43 33 23 43 33 23 43 33 23 43 33 23 43 33 23 43 33 23 43 33 23 43 33 23 43 33 23 43 33 23 43 33 23 43 33 23
43 33 23 43 33 23 43 33 23 43 33 23 43 33 23 43 33 23 43 33 23 43 33 23 43 33 23 43 33 23 43 33 23 43 33 23 43 33 23 43 33 23 43 33 23 43 33 23 43 33 23 43 33 23 43 33 23 43 33 23 43 33 23 43 33 23 43 33 23 43 33 23 43 33 23 43 33 23 43 33 23 43 33 23 43 33 23 43 33 23 43 33 23 43 33 23 43 33 23 43 33 23 43 33 23 43 33 23 43 33 23 43 33 23 43 33 23 43 33 23 43 33 23 43 33 23 43 33 23 43 33 23 43 33 23 43 33 23 43 33 23 43 33 23 43 33 23 43 33 23 43 33 23 43 33 23 43 33 23 43 33 23 43 33 23 43 33 23 43 33 23 96 99 88 96 99 88 96 99 88 245 208 97 96 99 88 96 99 88 245 208 97 245 208 97 96 99 88 96 99 88 245 208 97 96 99 88 96 99 88 96 99 88 43 33 23 43 33 23 43 33 23 43 33 23 43 33 23 43 33 23 43 33 23 43 33 23 43 33 23 43 33 23 43 33 23 43 33 23 43 33 23 43 33 23 43 33 23 43 33 23 43 33 23 43 33 23 43 33 23 43 33 23 43 33 23 43 33 23 43 33 23 43 33 23 43 33 23 43 33 23 43 33 23 43 33 23 43 33 23 43 33 23 43 33 23 43 33 23 43 33 23 43 33 23 43 33 23 43 33 23 43 33 23 43 33 23 43 33 23 43 33 23 43 33 23 43 33 23 43 33 23 43 33 23 43 33 23 43 33 23 43 33 23 43 33 23 43 33 23 43 33 23 43 33 23 43 33 23 43 33 23 43 33 23 43 33 23 43 33 23 43 33 23
43 33 23 43 33 23 43 33 23 43 33 23 43 33 23 43 33 23 43 33 23 43 33 23 43 33 23 43 33 23 43 33 23 43 33 23 43 33 23 43 33 23 43 33 23 43 33 23 43 33 23 43 33 23 43 33 23 43 33 23 43 33 23 43 33 23 43 33 23 43 33 23 43 33 23 43 33 23 43 33 23 43 33 23 43 33 23 43 33 23 43 33 23 43 33 23 43 33 23 43 33 23 43 33 23 43 33 23 43 33 23 43 33 23 43 33 23 43 33 23 43 33 23 43 33 23 43 33 23 43 33 23 43 33 23 43 33 23 43 33 23 43 33 23 43 33 23 43 33 23 43 33 23 43 33 23 43 33 23 43 33 23 43 33 23 43 33 23 43 33 23 96 99 88 96 99 88 96 99 88 245 208 97 96 99 88 96 99 88 245 208 97 245 208 97 96 99 88 96 99 88 245 208 97 96 99 88 96 99 88 96 99 88 43 33 23 43 33 23 43 33 23 43 33 23 43 33 23 43 33 23 43 33 23 43 33 23 43 33 23 43 33 23 43 33 23 43 33 23 43 33 23 43 33 23 43 33 23 43 33 23 43 33 23 43 33 23 43 33 23 43 33 23 43 33 23 43 33 23 43 33 23 43 33 23 43 33 23 43 33 23 43 33 23 43 33 23 43 33 23 43 33 23 43 33 23 43 33 23 43 33 23 43 33 23 43 33 23 43 33 23 43 33 23 43 33 23 43 33 23 43 33 23 43 33 23 43 33 23 43 33 23 43 33 23 43 33 23 43 33 23 43 33 23 43 33 23 43 33 23 43 33 23 43 33 23 43 33 23 43 33 23 43 33 23 43 33 23 43 33 23 43 33 23
43 33 23 43 33 23 43 33 23 43 33 23 43 33 23 43 33 23 43 33 23 43 33 23 43 33 23 43 33 23 43 33 23 43 33 23 43 33 23 43 33 23 43 33 23 43 33 23 43 33 23 43 33 23 43 33 23 43 33 23 43 33 23 43 33 23 43 33 23 43 33 23 43 33 23 43 33 23 43 33 23 43 33 23 43 33 23 43 33 23 43 33 23 43 33 23 43 33 23 43 33 23 43 33 23 43 33 23 43 33 23 43 33 23 43 33 23 43 33 23 43 33 23 43 33 23 43 33 23 43 33 23 43 33 23 43 33 23 43 33 23 43 33 23 43 33 23 43 33 23 43 33 23 43 33 23 43 33 23 43 33 23 43 33 23 43 33 23 43 33 23 96 99 88 96 99 88 96 99 88 245 208 97 96 99 88 96 99 88 245 208 97 245 208 97 96 99 88 96 99 88 245 208 97 96 99 88 96 99 88 96 99 88 43 33 23 43 33 23 43 33 23 43 33 23 43 33 23 43 33 23 43 33 23 43 33 23 43 33 23 43 33 23 43 33 23 43 33 23 43 33 23 43 33 23 43 33 23 43 33 23 43 33 23 43 33 23 43 33 23 43 33 23 43 33 23 43 33 23 43 33 23 43 33 23 43 33 23 43 33 23 43 33 23 43 33 23 43 33 23 43 33 23 43 33 23 43 33 23 43 33 23 43 33 23 43 33 23 43 33 23 43 33 23 43 33 23 43 33 23 43 33 23 43 33 23 43 33 23 43 33 23 43 33 23 43 33 23 43 33 23 43 33 23 43 33 23 43 33 23 43 33 23 43 33 23 43 33 23 43 33 23 43 33 23 43 33 23 43 33 23 43 33 23
43 33 23 43 33 23 43 33 23 43 33 23 43 33 23 43 33 23 43 33 23 43 33 23 43 33 23 43 33 23 43 33 23 43 33 23 43 33 23 43 33 23 43 33 23 43 33 23 43 33 23 43 33 23 43 33 23 43 33 23 43 33 23 43 33 23 43 33 23 43 33 23 43 33 23 43 33 23 43 33 23 43 33 23 43 33 23 43 33 23 43 33 23 43 33 23 43 33 23 43 33 23 43 33 23 43 33 23 43 33 23 43 33 23 43 33 23 43 33 23 43 33 23 43 33 23 43 33 23 43 33 23 43 33 23 43 33 23 43 33 23 43 33 23 43 33 23 43 33 23 43 33 23 43 33 23 43 33 23 43 33 23 43 33 23 43 33 23 43 33 23 96 99 88 96 99 88 96 99 88 245 208 97 96 99 88 96 99 88 245 208 97 245 208 97 96 99 88 96 99 88 245 208 97 96 99 88 96 99 88 96 99 88 43 33 23 43 33 23 43 33 23 43 33 23 43 33 23 43 33 23 43 33 23 43 33 23 43 33 23 43 33 23 43 33 23 43 33 23 43 33 23 43 33 23 43 33 23 43 33 23 43 33 23 43 33 23 43 33 23 43 33 23 43 33 23 43 33 23 43 33 23 43 33 23 43 33 23 43 33 23 43 33 23 43 33 23 43 33 23 43 33 23 43 33 23 43 33 23 43 33 23 43 33 23 43 33 23 43 33 23 43 33 23 43 33 23 43 33 23 43 33 23 43 33 23 43 33 23 43 33 23 43 33 23 43 33 23 43 33 23 43 33 23 43 33 23 43 33 23 43 33 23 43 33 23 43 33 23 43 33 23 43 33 23 43 33 23 43 33 23 43 33 23
43 33 23 43 33 23 43 33 23 43 33 23 43 33 23 43 33 23 43 33 23 43 33 23 43 33 23 43 33 23 43 33 23 43 33 23 43 33 23 43 33 23 43 33 23 43 33 23 43 33 23 43 33 23 43 33 23 43 33 23 43 33 23 43 33 23 43 33 23 43 33 23 43 33 23 43 33 23 43 33 23 43 33 23 43 33 23 43 33 23 43 33 23 43 33 23 43 33 23 43 33 23 43 33 23 43 33 23 43 33 23 43 33 23 43 33 23 43 33 23 43 33 23 43 33 23 43 33 23 43 33 23 43 33 23 43 33 23 43 33 23 43 33 23 43 33 23 43 33 23 43 33 23 43 33 23 43 33 23 43 33 23 43 33 23 43 33 23 43 33 23 96 99 88 96 99 88 96 99 88 245 208 97 96 99 88 96 99 88 245 208 97 245 208 97 96 99 88 96 99 88 245 208 97 96 99 88 96 99 88 96 99 88 43 33 23 43 33 23 43 33 23 43 33 23 43 33 23 43 33 23 43 33 23 43 33 23 43 33 23 43 33 23 43 33 23 43 33 23 43 33 23 43 33 23 43 33 23 43 33 23 43 33 23 43 33 23 43 33 23 43 33 23 43 33 23 43 33 23 43 33 23 43 33 23 43 33 23 43 33 23 43 33 23 43 33 23 43 33 23 43 33 23 43 33 23 43 33 23 43 33 23 43 33 23 43 33 23 43 33 23 43 33 23 43 33 23 43 33 23 43 33 23 43 33 23 43 33 23 43 33 23 43 33 23 43 33 23 43 33 23 43 33 23 43 33 23 43 33 23 43 33 23 43 33 23 43 33 23 43 33 23 43 33 23 43 33 23 43 33 23 43 33 23
43 33 23 43 33 23 43 33 23 43 33 23 43 33 23 43 33 23 43 33 23 43 33 23 43 33 23 43 33 23 43 33 23 43 33 23 43 33 23 43 33 23 43 33 23 43 33 23 43 33 23 43 33 23 43 33 23 43 33 23 43 33 23 43 33 23 43 33 23 43 33 23 43 33 23 43 33 23 43 33 23 43 33 23 43 33 23 43 33 23 43 33 23 43 33 23 43 33 23 43 33 23 43 33 23 43 33 23 43 33 23 43 33 23 43 33 23 43 33 23 43 33 23 43 33 23 43 33 23 43 33 23 43 33 23 43 33 23 43 33 23 43 33 23 43 33 23 43 33 23 43 33 23 43 33 23 43 33 23 43 33 23 43 33 23 43 33 23 43 33 23 96 99 88 96 99 88 96 99 88 245 208 97 96 99 88 96 99 88 245 208 97 245 208 97 96 99 88 96 99 88 245 208 97 96 99 88 96 99 88 96 99 88 43 33 23 43 33 23 43 33 23 43 33 23 43 33 23 43 33 23 43 33 23 43 33 23 43 33 23 43 33 23 43 33 23 43 33 23 43 33 23 43 33 23 43 33 23 43 33 23 43 33 23 43 33 23 43 33 23 43 33 23 43 33 23 43 33 23 43 33 23 43 33 23 43 33 23 43 33 23 43 33 23 43 33 23 43 33 23 43 33 23 43 33 23 43 33 23 43 33 23 43 33 23 43 33 23 43 33 23 43 33 23 43 33 23 43 33 23 43 33 23 43 33 23 43 33 23 43 33 23 43 33 23 43 33 23 43 33 23 43 33 23 43 33 23 43 33 23 43 33 23 43 33 23 43 33 23 43 33 23 43 33 23 43 33 23 43 33 23 43 33 23
43 33 23 43 33 23 43 33 23 43 33 23 43 33 23 43 33 23 43 33 23 43 33 23 43 33 23 43 33 23 43 33 23 43 33 23 43 33 23 43 33 23 43 33 23 43 33 23 43 33 23 43 33 23 43 33 23 43 33 23 43 33 23 43 33 23 43 33 23 43 33 23 43 33 23 43 33 23 43 33 23 43 33 23 43 33 23 43 33 23 43 33 23 43 33 23 43 33 23 43 33 23 43 33 23 43 33 23 43 33 23 43 33 23 43 33 23 43 33 23 43 33 23 43 33 23 43 33 23 43 33 23 43 33 23 43 33 23 43 33 23 43 33 23 43 33 23 43 33 23 43 33 23 43 33 23 43 33 23 43 33 23 43 33 23 43 33 23 43 33 23 96 99 88 96 99 88 96 99 88 245 208 97 96 99 88 96 99 88 245 208 97 245 208 97 96 99 88 96 99 88 245 208 97 96 99 88 96 99 88 96 99 88 43 33 23 43 33 23 43 33 23 43 33 23 43 33 23 43 33 23 43 33 23 43 33 23 43 33 23 43 33 23 43 33 23 43 33 23 43 33 23 43 33 23 43 33 23 43 33 23 43 33 23 43 33 23 43 33 23 43 33 23 43 33 23 43 33 23 43 33 23 43 33 23 43 33 23 43 33 23 43 33 23 43 33 23 43 33 23 43 33 23 43 33 23 43 33 23 43 33 23 43 33 23 43 33 23 43 33 23 43 33 23 43 33 23 43 33 23 43 33 23 43 33 23 43 33 23 43 33 23 43 33 23 43 33 23 43 33 23 43 33 23 43 33 23 43 33 23 43 33 23 43 33 23 43 33 23 43 33 23 43 33 23 43 33 23 43 33 23 43 33 23
43 33 23 43 33 23 43 33 23 43 33 23 43 33 23 43 33 23 43 33 23 43 33 23 43 33 23 43 33 23 43 33 23 43 33 23 43 33 23 43 33 23 43 33 23 43 33 23 43 33 23 43 33 23 43 33 23 43 33 23 43 33 23 43 33 23 43 33 23 43 33 23 43 33 23 43 33 23 43 33 23 43 33 23 43 33 23 43 33 23 43 33 23 43 33 23 43 33 23 43 33 23 43 33 23 43 33 23 43 33 23 43 33 23 43 33 23 43 33 23 43 33 23 43 33 23 43 33 23 43 33 23 43 33 23 43 33 23 43 33 23 43 33 23 43 33 23 43 33 23 43 33 23 43 33 23 43 33 23 43 33 23 43 33 23 43 33 23 43 33 23 96 99 88 96 99 88 96 99 88 245 208 97 96 99 88 96 99 88 245 208 97 245 208 97 96 99 88 96 99 88 245 208 97 96 99 88 96 99 88 96 99 88 43 33 23 43 33 23 43 33 23 43 33 23 43 33 23 43 33 23 43 33 23 43 33 23 43 33 23 43 33 23 43 33 23 43 33 23 43 33 23 43 33 23 43 33 23 43 33 23 43 33 23 43 33 23 43 33 23 43 33 23 43 33 23 43 33 23 43 33 23 43 33 23 43 33 23 43 33 23 43 33 23 43 33 23 43 33 23 43 33 23 43 33 23 43 33 23 43 33 23 43 33 23 43 33 23 43 33 23 43 33 23 43 33 23 43 33 23 43 33 23 43 33 23 43 33 23 43 33 23 43 33 23 43 33 23 43 33 23 43 33 23 43 33 23 43 33 23 43 33 23 43 33 23 43 33 23 43 33 23 43 33 23 43 33 23 43 33 23 43 33 23
43 33 23 43 33 23 43 33 23 43 33 23 43 33 23 43 33 23 43 33 23 43 33 23 43 33 23 43 33 23 43 33 23 43 33 23 43 33 23 43 33 23 43 33 23 43 33 23 43 33 23 43 33 23 43 33 23 43 33 23 43 33 23 43 33 23 43 33 23 43 33 23 43 33 23 43 33 23 43 33 23 43 33 23 43 33 23 43 33 23 43 33 23 43 33 23 43 33 23 43 33 23 43 33 23 43 33 23 43 33 23 43 33 23 43 33 23 43 33 23 43 33 23 43 33 23 43 33 23 43 33 23 43 33 23 43 33 23 43 33 23 43 33 23 43 33 23 43 33 23 43 33 23 43 33 23 43 33 23 43 33 23 43 33 23 43 33 23 43 33 23 96 99 88 96 99 88 96 99 88 245 208 97 96 99 88 96 99 88 245 208 97 245 208 97 96 99 88 96 99 88 245 208 97 96 99 88 96 99 88 96 99 88 43 33 23 43 33 23 43 33 23 43 33 23 43 33 23 43 33 23 43 33 23 43 33 23 43 33 23 43 33 23 43 33 23 43 33 23 43 33 23 43 33 23 43 33 23 43 33 23 43 33 23 43 33 23 43 33 23 43 33 23 43 33 23 43 33 23 43 33 23 43 33 23 43 33 23 43 33 23 43 33 23 43 33 23 43 33 23 43 33 23 43 33 23 43 33 23 43 33 23 43 33 23 43 33 23 43 33 23 43 33 23 43 33 23 43 33 23 43 33 23 43 33 23 43 33 23 43 33 23 43 33 23 43 33 23 43 33 23 43 33 23 43 33 23 43 33 23 43 33 23 43 33 23 43 33 23 43 33 23 43 33 23 43 33 23 43 33 23 43 33 23
43 33 23 43 33 23 43 33 23 43 33 23 43 33 23 43 33 23 43 33 23 43 33 23 43 33 23 43 33 23 43 33 23 43 33 23 43 33 23 43 33 23 43 33 23 43 33 23 43 33 23 43 33 23 43 33 23 43 33 23 43 33 23 43 33 23 43 33 23 43 33 23 43 33 23 43 33 23 43 33 23 43 33 23 43 33 23 43 33 23 43 33 23 43 33 23 43 33 23 43 33 23 43 33 23 43 33 23 43 33 23 43 33 23 43 33 23 43 33 23 43 33 23 43 33 23 43 33 23 43 33 23 43 33 23 43 33 23 43 33 23 43 33 23 43 33 23 43 33 23 43 33 23 43 33 23 43 33 23 43 33 23 43 33 23 43 33 23 43 33 23 96 99 88 96 99 88 96 99 88 245 208 97 96 99 88 96 99 88 245 208 97 245 208 97 96 99 88 96 99 88 245 208 97 96 99 88 96 99 88 96 99 88 43 33 23 43 33 23 43 33 23 43 33 23 43 33 23 43 33 23 43 33 23 43 33 23 43 33 23 43 33 23 43 33 23 43 33 23 43 33 23 43 33 23 43 33 23 43 33 23 43 33 23 43 33 23 43 33 23 43 33 23 43 33 23 43 33 23 43 33 23 43 33 23 43 33 23 43 33 23 43 33 23 43 33 23 43 33 23 43 33 23 43 33 23 43 33 23 43 33 23 43 33 23 43 33 23 43 33 23 43 33 23 43 33 23 43 33 23 43 33 23 43 33 23 43 33 23 43 33 23 43 33 23 43 33 23 43 33 23 43 33 23 43 33 23 43 33 23 43 33 23 43 33 23 43 33 23 43 33 23 43 33 23 43 33 23 43 33 23 43 33 23
43 33 23 43 33 23 43 33 23 43 33 23 43 33 23 43 33 23 43 33 23 43 33 23 43 33 23 43 33 23 43 33 23 43 33 23 43 33 23 43 33 23 43 33 23 43 33 23 43 33 23 43 33 23 43 33 23 43 33 23 43 33 23 43 33 23 43 33 23 43 33 23 43 33 23 43 33 23 43 33 23 43 33 23 43 33 23 43 33 23 43 33 23 43 33 23 43 33 23 43 33 23 43 33 23 43 33 23 43 33 23 43 33 23 43 33 23 43 33 23 43 33 23 43 33 23 43 33 23 43 33 23 43 33 23 43 33 23 43 33 23 43 33 23 43 33 23 43 33 23 43 33 23 43 33 23 43 33 23 43 33 23 43 33 23 43 33 23 43 33 23 96 99 88 96 99 88 96 99 88 245 208 97 96 99 88 96 99 88 245 208 97 245 208 97 96 99 88 96 99 88 245 208 97 96 99 88 96 99 88 96 99 88 43 33 23 43 33 23 43 33 23 43 33 23 43 33 23 43 33 23 43 33 23 43 33 23 43 33 23 43 33 23 43 33 23 43 33 23 43 33 23 43 33 23 43 33 23 43 33 23 43 33 23 43 33 23 43 33 23 43 33 23 43 33 23 43 33 23 43 33 23 43 33 23 43 33 23 43 33 23 43 33 23 43 33 23 43 33 23 43 33 23 43 33 23 43 33 23 43 33 23 43 33 23 43 33 23 43 33 23 43 33 23 43 33 23 43 33 23 43 33 23 43 33 23 43 33 23 43 33 23 43 33 23 43 33 23 43 33 23 43 33 23 43 33 23 43 33 23 43 33 23 43 33 23 43 33 23 43 33 23 43 33 23 43 33 23 43 33 23 43 33 23
43 33 23 43 33 23 43 33 23 43 33 23 43 33 23 43 33 23 43 33 23 43 33 23 43 33 23 43 33 23 43 33 23 43 33 23 43 33 23 43 33 23 43 33 23 43 33 23 43 33 23 43 33 23 43 33 23 43 33 23 43 33 23 43 33 23 43 33 23 43 33 23 43 33 23 43 33 23 43 33 23 43 33 23 43 33 23 43 33 23 43 33 23 43 33 23 43 33 23 43 33 23 43 33 23 43 33 23 43 33 23 43 33 23 43 33 23 43 33 23 43 33 23 43 33 23 43 33 23 43 33 23 43 33 23 43 33 23 43 33 23 43 33 23 43 33 23 43 33 23 43 33 23 43 33 23 43 33 23 43 33 23 43 33 23 43 33 23 43 33 23 96 99 88 96 99 88 96 99 88 245 208 97 96 99 88 96 99 88 245 208 97 245 208 97 96 99 88 96 99 88 245 208 97 96 99 88 96 99 88 96 99 88 43 33 23 43 33 23 43 33 23 43 33 23 43 33 23 43 33 23 43 33 23 43 33 23 43 33 23 43 33 23 43 33 23 43 33 23 43 33 23 43 33 23 43 33 23 43 33 23 43 33 23 43 33 23 43 33 23 43 33 23 43 33 23 43 33 23 43 33 23 43 33 23 43 33 23 43 33 23 43 33 23 43 33 23 43 33 23 43 33 23 43 33 23 43 33 23 43 33 23 43 33 23 43 33 23 43 33 23 43 33 23 43 33 23 43 33 23 43 33 23 43 33 23 43 33 23 43 33 23 43 33 23 43 33 23 43 33 23 43 33 23 43 33 23 43 33 23 43 33 23 43 33 23 43 33 23 43 33 23 43 33 23 43 33 23 43 33 23 43 33 23
43 33 23 43 33 23 43 33 23 43 33 23 43 33 23 43 33 23 43 33 23 43 33 23 43 33 23 43 33 23 43 33 23 43 33 23 43 33 23 43 33 23 43 33 23 43 33 23 43 33 23 43 33 23 43 33 23 43 33 23 43 33 23 43 33 23 43 33 23 43 33 23 43 33 23 43 33 23 43 33 23 43 33 23 43 33 23 43 33 23 43 33 23 43 33 23 43 33 23 43 33 23 43 33 23 43 33 23 43 33 23 43 33 23 43 33 23 43 33 23 43 33 23 43 33 23 43 33 23 43 33 23 43 33 23 43 33 23 43 33 23 43 33 23 43 33 23 43 33 23 43 33 23 43 33 23 43 33 23 43 33 23 43 33 23 43 33 23 43 33 23 96 99 88 96 99 88 96 99 88 245 208 97 96 99 88 96 99 88 245 208 97 245 208 97 96 99 88 96 99 88 245 208 97 96 99 88 96 99 88 96 99 88 43 33 23 43 33 23 43 33 23 43 33 23 43 33 23 43 33 23 43 33 23 43 33 23 43 33 23 43 33 23 43 33 23 43 33 23 43 33 23 43 33 23 43 33 23 43 33 23 43 33 23 43 33 23 43 33 23 43 33 23 43 33 23 43 33 23 43 33 23 43 33 23 43 33 23 43 33 23 43 33 23 43 33 23 43 33 23 43 33 23 43 33 23 43 33 23 43 33 23 43 33 23 43 33 23 43 33 23 43 33 23 43 33 23 43 33 23 43 33 23 43 33 23 43 33 23 43 33 23 43 33 23 43 33 23 43 33 23 43 33 23 43 33 23 43 33 23 43 33 23 43 33 23 43 33 23 43 33 23 43 33 23 43 33 23 43 33 23 43 33 23
43 33 23 43 33 23 43 33 23 43 33 23 43 33 23 43 33 23 43 33 23 43 33 23 43 33 23 43 33 23 43 33 23 43 33 23 43 33 23 43 33 23 43 33 23 43 33 23 43 33 23 43 33 23 43 33 23 43 33 23 43 33 23 43 33 23 43 33 23 43 33 23 43 33 23 43 33 23 43 33 23 43 33 23 43 33 23 43 33 23 43 33 23 43 33 23 43 33 23 43 33 23 43 33 23 43 33 23 43 33 23 43 33 23 43 33 23 43 33 23 43 33 23 43 33 23 43 33 23 43 33 23 43 33 23 43 33 23 43 33 23 43 33 23 43 33 23 43 33 23 43 33 23 43 33 23 43 33 23 43 33 23 43 33 23 43 33 23 43 33 23 96 99 88 96 99 88 96 99 88 245 208 97 96 99 88 96 99 88 245 208 97 245 208 97 96 99 88 96 99 88 245 208 97 96 99 88 96 99 88 96 99 88 43 33 23 43 33 23 43 33 23 43 33 23 43 33 23 43 33 23 43 33 23 43 33 23 43 33 23 43 33 23 43 33 23 43 33 23 43 33 23 43 33 23 43 33 23 43 33 23 43 33 23 43 33 23 43 33 23 43 33 23 43 33 23 43 33 23 43 33 23 43 33 23 43 33 23 43 33 23 43 33 23 43 33 23 43 33 23 43 33 23 43 33 23 43 33 23 43 33 23 43 33 23 43 33 23 43 33 23 43 33 23 43 33 23 43 33 23 43 33 23 43 33 23 43 33 23 43 33 23 43 33 23 43 33 23 43 33 23 43 33 23 43 33 23 43 33 23 43 33 23 43 33 23 43 33 23 43 33 23 43 33 23 43 33 23 43 33 23 43 33 23
43 33 23 43 33 23 43 33 23 43 33 23 43 33 23 43 33 23 43 33 23 43 33 23 43 33 23 43 33 23 43 33 23 43 33 23 43 33 23 43 33 23 43 33 23 43 33 23 43 33 23 43 33 23 43 33 23 43 33 23 43 33 23 43 33 23 43 33 23 43 33 23 43 33 23 43 33 23 43 33 23 43 33 23 43 33 23 43 33 23 43 33 23 43 33 23 43 33 23 43 33 23 43 33 23 43 33 23 43 33 23 43 33 23 43 33 23 43 33 23 43 33 23 43 33 23 43 33 23 43 33 23 43 33 23 43 33 23 43 33 23 43 33 23 43 33 23 43 33 23 43 33 23 43 33 23 43 33 23 43 33 23 43 33 23 43 33 23 43 33 23 96 99 88 96 99 88 96 99 88 245 208 97 96 99 88 96 99 88 245 208 97 245 208 97 96 99 88 96 99 88 245 208 97 96 99 88 96 99 88 96 99 88 43 33 23 43 33 23 43 33 23 43 33 23 43 33 23 43 33 23 43 33 23 43 33 23 43 33 23 43 33 23 43 33 23 43 33 23 43 33 23 43 33 23 43 33 23 43 33 23 43 33 23 43 33 23 43 33 23 43 33 23 43 33 23 43 33 23 43 33 23 43 33 23 43 33 23 43 33 23 43 33 23 43 33 23 43 33 23 43 33 23 43 33 23 43 33 23 43 33 23 43 33 23 43 33 23 43 33 23 43 33 23 43 33 23 43 33 23 43 33 23 43 33 23 43 33 23 43 33 23 43 33 23 43 33 23 43 33 23 43 33 23 43 33 23 43 33 23 43 33 23 43 33 23 43 33 23 43 33 23 43 33 23 43 33 23 43 33 23 43 33 23
43 33 23 43 33 23 43 33 23 43 33 23 43 33 23 43 33 23 43 33 23 43 33 23 43 33 23 43 33 23 43 33 23 43 33 23 43 33 23 43 33 23 43 33 23 43 33 23 43 33 23 43 33 23 43 33 23 43 33 23 43 33 23 43 33 23 43 33 23 43 33 23 43 33 23 43 33 23 43 33 23 43 33 23 43 33 23 43 33 23 43 33 23 43 33 23 43 33 23 43 33 23 43 33 23 43 33 23 43 33 23 43 33 23 43 33 23 43 33 23 43 33 23 43 33 23 43 33 23 43 33 23 43 33 23 43 33 23 43 33 23 43 33 23 43 33 23 43 33 23 43 33 23 43 33 23 43 33 23 43 33 23 43 33 23 43 33 23 43 33 23 96 99 88 96 99 88 96 99 88 245 208 97 96 99 88 96 99 88 245 208 97 245 208 97 96 99 88 96 99 88 245 208 97 96 99 88 96 99 88 96 99 88 43 33 23 43 33 23 43 33 23 43 33 23 43 33 23 43 33 23 43 33 23 43 33 23 43 33 23 43 33 23 43 33 23 43 33 23 43 33 23 43 33 23 43 33 23 43 33 23 43 33 23 43 33 23 43 33 23 43 33 23 43 33 23 43 33 23 43 33 23 43 33 23 43 33 23 43 33 23 43 33 23 43 33 23 43 33 23 43 33 23 43 33 23 43 33 23 43 33 23 43 33 23 43 33 23 43 33 23 43 33 23 43 33 23 43 33 23 43 33 23 43 33 23 43 33 23 43 33 23 43 33 23 43 33 23 43 33 23 43 33 23 43 33 23 43 33 23 43 33 23 43 33 23 43 33 23 43 33 23 43 33 23 43 33 23 43 33 23 43 33 23
43 33 23 43 33 23 43 33 23 43 33 23 43 33 23 43 33 23 43 33 23 43 33 23 43 33 23 43 33 23 43 33 23 43 33 23 43 33 23 43 33 23 43 33 23 43 33 23 43 33 23 43 33 23 43 33 23 43 33 23 43 33 23 43 33 23 43 33 23 43 33 23 43 33 23 43 33 23 43 33 23 43 33 23 43 33 23 43 33 23 43 33 23 43 33 23 43 33 23 43 33 23 43 33 23 43 33 23 43 33 23 43 33 23 43 33 23 43 33 23 43 33 23 43 33 23 43 33 23 43 33 23 43 33 23 43 33 23 43 33 23 43 33 23 43 33 23 43 33 23 43 33 23 43 33 23 43 33 23 43 33 23 43 33 23 43 33 23 43 33 23 96 99 88 96 99 88 96 99 88 245 208 97 96 99 88 96 99 88 245 208 97 245 208 97 96 99 88 96 99 88 245 208 97 96 99 88 96 99 88 96 99 88 43 33 23 43 33 23 43 33 23 43 33 23 43 33 23 43 33 23 43 33 23 43 33 23 43 33 23 43 33 23 43 33 23 43 33 23 43 33 23 43 33 23 43 33 23 43 33 23 43 33 23 43 33 23 43 33 23 43 33 23 43 33 23 43 33 23 43 33 23 43 33 23 43 33 23 43 33 23 43 33 23 43 33 23 43 33 23 43 33 23 43 33 23 43 33 23 43 33 23 43 33 23 43 33 23 43 33 23 43 33 23 43 33 23 43 33 23 43 33 23 43 33 23 43 33 23 43 33 23 43 33 23 43 33 23 43 33 23 43 33 23 43 33 23 43 33 23 43 33 23 43 33 23 43 33 23 43 33 23 43 33 23 43 33 23 43 33 23 43 33 23
43 33 23 43 33 23 43 33 23 43 33 23 43 33 23 43 33 23 43 33 23 43 33 23 43 33 23 43 33 23 43 33 23 43 33 23 43 33 23 43 33 23 43 33 23 43 33 23 43 33 23 43 33 23 43 33 23 43 33 23 43 33 23 43 33 23 43 33 23 43 33 23 43 33 23 43 33 23 43 33 23 43 33 23 43 33 23 43 33 23 43 33 23 43 33 23 43 33 23 43 33 23 43 33 23 43 33 23 43 33 23 43 33 23 43 33 23 43 33 23 43 33 23 43 33 23 43 33 23 43 33 23 43 33 23 43 33 23 43 33 23 43 33 23 43 33 23 43 33 23 43 33 23 43 33 23 43 33 23 43 33 23 43 33 23 43 33 23 43 33 23 96 99 88 96 99 88 96 99 88 245 208 97 96 99 88 96 99 88 245 208 97 245 208 97 96 99 88 96 99 88 245 208 97 96 99 88 96 99 88 96 99 88 43 33 23 43 33 23 43 33 23 43 33 23 43 33 23 43 33 23 43 33 23 43 33 23 43 33 23 43 33 23 43 33 23 43 33 23 43 33 23 43 33 23 43 33 23 43 33 23 43 33 23 43 33 23 43 33 23 43 33 23 43 33 23 43 33 23 43 33 23 43 33 23 43 33 23 43 33 23 43 33 23 43 33 23 43 33 23 43 33 23 43 33 23 43 33 23 43 33 23 43 33 23 43 33 23 43 33 23 43 33 23 43 33 23 43 33 23 43 33 23 43 33 23 43 33 23 43 33 23 43 33 23 43 33 23 43 33 23 43 33 23 43 33 23 43 33 23 43 33 23 43 33 23 43 33 23 43 33 23 43 33 23 43 33 23 43 33 23 43 33 23
43 33 23 43 33 23 43 33 23 43 33 23 43 33 23 43 33 23 43 33 23 43 33 23 43 33 23 43 33 23 43 33 23 43 33 23 43 33 23 43 33 23 43 33 23 43 33 23 43 33 23 43 33 23 43 33 23 43 33 23 43 33 23 43 33 23 43 33 23 43 33 23 43 33 23 43 33 23 43 33 23 43 33 23 43 33 23 43 33 23 43 33 23 43 33 23 43 33 23 43 33 23 43 33 23 43 33 23 43 33 23 43 33 23 43 33 23 43 33 23 43 33 23 43 33 23 43 33 23 43 33 23 43 33 23 43 33 23 43 33 23 43 33 23 43 33 23 43 33 23 43 33 23 43 33 23 43 33 23 43 33 23 43 33 23 43 33 23 43 33 23 96 99 88 96 99 88 96 99 88 245 208 97 96 99 88 96 99 88 245 208 97 245 208 97 96 99 88 96 99 88 245 208 97 96 99 88 96 99 88 96 99 88 43 33 23 43 33 23 43 33 23 43 33 23 43 33 23 43 33 23 43 33 23 43 33 23 43 33 23 43 33 23 43 33 23 43 33 23 43 33 23 43 33 23 43 33 23 43 33 23 43 33 23 43 33 23 43 33 23 43 33 23 43 33 23 43 33 23 43 33 23 43 33 23 43 33 23 43 33 23 43 33 23 43 33 23 43 33 23 43 33 23 43 33 23 43 33 23 43 33 23 43 33 23 43 33 23 43 33 23 43 33 23 43 33 23 43 33 23 43 33 23 43 33 23 43 33 23 43 33 23 43 33 23 43 33 23 43 33 23 43 33 23 43 33 23 43 33 23 43 33 23 43 33 23 43 33 23 43 33 23 43 33 23 43 33 23 43 33 23 43 33 23
43 33 23 43 33 23 43 33 23 43 33 23 43 33 23 43 33 23 43 33 23 43 33 23 43 33 23 43 33 23 43 33 23 43 33 23 43 33 23 43 33 23 43 33 23 43 33 23 43 33 23 43 33 23 43 33 23 43 33 23 43 33 23 43 33 23 43 33 23 43 33 23 43 33 23 43 33 23 43 33 23 43 33 23 43 33 23 43 33 23 43 33 23 43 33 23 43 33 23 43 33 23 43 33 23 43 33 23 43 33 23 43 33 23 43 33 23 43 33 23 43 33 23 43 33 23 43 33 23 43 33 23 43 33 23 43 33 23 43 33 23 43 33 23 43 33 23 43 33 23 43 33 23 43 33 23 43 33 23 43 33 23 43 33 23 43 33 23 43 33 23 96 99 88 96 99 88 96 99 88 245 208 97 96 99 88 96 99 88 245 208 97 245 208 97 96 99 88 96 99 88 245 208 97 96 99 88 96 99 88 96 99 88 43 33 23 43 33 23 43 33 23 43 33 23 43 33 23 43 33 23 43 33 23 43 33 23 43 33 23 43 33 23 43 33 23 43 33 23 43 33 23 43 33 23 43 33 23 43 33 23 43 33 23 43 33 23 43 33 23 43 33 23 43 33 23 43 33 23 43 33 23 43 33 23 43 33 23 43 33 23 43 33 23 43 33 23 43 33 23 43 33 23 43 33 23 43 33 23 43 33 23 43 33 23 43 33 23 43 33 23 43 33 23 43 33 23 43 33 23 43 33 23 43 33 23 43 33 23 43 33 23 43 33 23 43 33 23 43 33 23 43 33 23 43 33 23 43 33 23 43 33 23 43 33 23 43 33 23 43 33 23 43 33 23 43 33 23 43 33 23 43 33 23
43 33 23 43 33 23 43 33 23 43 33 23 43 33 23 43 33 23 43 33 23 43 33 23 43 33 23 43 33 23 43 33 23 43 33 23 43 33 23 43 33 23 43 33 23 43 33 23 43 33 23 43 33 23 43 33 23 43 33 23 43 33 23 43 33 23 43 33 23 43 33 23 43 33 23 43 33 23 43 33 23 43 33 23 43 33 23 43 33 23 43 33 23 43 33 23 43 33 23 43 33 23 43 33 23 43 33 23 43 33 23 43 33 23 43 33 23 43 33 23 43 33 23 43 33 23 43 33 23 43 33 23 43 33 23 43 33 23 43 33 23 43 33 23 43 33 23 43 33 23 43 33 23 43 33 23 43 33 23 43 33 23 43 33 23 43 33 23 43 33 23 96 99 88 96 99 88 96 99 88 245 208 97 96 99 88 96 99 88 245 208 97 245 208 97 96 99 88 96 99 88 245 208 97 96 99 88 96 99 88 96 99 88 43 33 23 43 33 23 43 33 23 43 33 23 43 33 23 43 33 23 43 33 23 43 33 23 43 33 23 43 33 23 43 33 23 43 33 23 43 33 23 43 33 23 43 33 23 43 33 23 43 33 23 43 33 23 43 33 23 43 33 23 43 33 23 43 33 23 43 33 23 43 33 23 43 33 23 43 33 23 43 33 23 43 33 23 43 33 23 43 33 23 43 33 23 43 33 23 43 33 23 43 33 23 43 33 23 43 33 23 43 33 23 43 33 23 43 33 23 43 33 23 43 33 23 43 33 23 43 33 23 43 33 23 43 33 23 43 33 23 43 33 23 43 33 23 43 33 23 43 33 23 43 33 23 43 33 23 43 33 23 43 33 23 43 33 23 43 33 23 43 33 23
43 33 23 43 33 23 43 33 23 43 33 23 43 33 23 43 33 23 43 33 23 43 33 23 43 33 23 43 33 23 43 33 23 43 33 23 43 33 23 43 33 23 43 33 23 43 33 23 43 33 23 43 33 23 43 33 23 43 33 23 43 33 23 43 33 23 43 33 23 43 33 23 43 33 23 43 33 23 43 33 23 43 33 23 43 33 23 43 33 23 43 33 23 43 33 23 43 33 23 43 33 23 43 33 23 43 33 23 43 33 23 43 33 23 43 33 23 43 33 23 43 33 23 43 33 23 43 33 23 43 33 23 43 33 23 43 33 23 43 33 23 43 33 23 43 33 23 43 33 23 43 33 23 43 33 23 43 33 23 43 33 23 43 33 23 43 33 23 43 33 23 96 99 88 96 99 88 96 99 88 245 208 97 96 99 88 96 99 88 245 208 97 245 208 97 96 99 88 96 99 88 245 208 97 96 99 88 96 99 88 96 99 88 43 33 23 43 33 23 43 33 23 43 33 23 43 33 23 43 33 23 43 33 23 43 33 23 43 33 23 43 33 23 43 33 23 43 33 23 43 33 23 43 33 23 43 33 23 43 33 23 43 33 23 43 33 23 43 33 23 43 33 23 43 33 23 43 33 23 43 33 23 43 33 23 43 33 23 43 33 23 43 33 23 43 33 23 43 33 23 43 33 23 43 33 23 43 33 23 43 33 23 43 33 23 43 33 23 43 33 23 43 33 23 43 33 23 43 33 23 43 33 23 43 33 23 43 33 23 43 33 23 43 33 23 43 33 23 43 33 23 43 33 23 43 33 23 43 33 23 43 33 23 43 33 23 43 33 23 43 33 23 43 33 23 43 33 23 43 33 23 43 33 23
43 33 23 43 33 23 43 33 23 43 33 23 43 33 23 43 33 23 43 33 23 43 33 23 43 33 23 43 33 23 43 33 23 43 33 23 43 33 23 43 33 23 43 33 23 43 33 23 43 33 23 43 33 23 43 33 23 43 33 23 43 33 23 43 33 23 43 33 23 43 33 23 43 33 23 43 33 23 43 33 23 43 33 23 43 33 23 43 33 23 43 33 23 43 33 23 43 33 23 43 33 23 43 33 23 43 33 23 43 33 23 43 33 23 43 33 23 43 33 23 43 33 23 43 33 23 43 33 23 43 33 23 43 33 23 43 33 23 43 33 23 43 33 23 43 33 23 43 33 23 43 33 23 43 33 23 43 33 23 43 33 23 43 33 23 43 33 23 43 33 23 96 99 88 96 99 88 96 99 88 245 208 97 96 99 88 96 99 88 245 208 97 245 208 97 96 99 88 96 99 88 245 208 97 96 99 88 96 99 88 96 99 88 43 33 23 43 33 23 43 33 23 43 33 23 43 33 23 43 33 23 43 33 23 43 33 23 43 33 23 43 33 23 43 33 23 43 33 23 43 33 23 43 33 23 43 33 23 43 33 23 43 33 23 43 33 23 43 33 23 43 33 23 43 33 23 43 33 23 43 33 23 43 33 23 43 33 23 43 33 23 43 33 23 43 33 23 43 33 23 43 33 23 43 33 23 43 33 23 43 33 23 43 33 23 43 33 23 43 33 23 43 33 23 43 33 23 43 33 23 43 33 23 43 33 23 43 33 23 43 33 23 43 33 23 43 33 23 43 33 23 43 33 23 43 33 23 43 33 23 43 33 23 43 33 23 43 33 23 43 33 23 43 33 23 43 33 23 43 33 23 43 33 23
43 33 23 43 33 23 43 33 23 43 33 23 43 33 23 43 33 23 43 33 23 43 33 23 43 33 23 43 33 23 43 33 23 43 33 23 43 33 23 43 33 23 43 33 23 43 33 23 43 33 23 43 33 23 43 33 23 43 33 23 43 33 23 43 33 23 43 33 23 43 33 23 43 33 23 43 33 23 43 33 23 43 33 23 43 33 23 43 33 23 43 33 23 43 33 23 43 33 23 43 33 23 43 33 23 43 33 23 43 33 23 43 33 23 43 33 23 43 33 23 43 33 23 43 33 23 43 33 23 43 33 23 43 33 23 43 33 23 43 33 23 43 33 23 43 33 23 43 33 23 43 33 23 43 33 23 43 33 23 43 33 23 43 33 23 43 33 23 43 33 23 96 99 88 96 99 88 96 99 88 245 208 97 96 99 88 96 99 88 245 208 97 245 208 97 96 99 88 96 99 88 245 208 97 96 99 88 96 99 88 96 99 88 43 33 23 43 33 23 43 33 23 43 33 23 43 33 23 43 33 23 43 33 23 43 33 23 43 33 23 43 33 23 43 33 23 43 33 23 43 33 23 43 33 23 43 33 23 43 33 23 43 33 23 43 33 23 43 33 23 43 33 23 43 33 23 43 33 23 43 33 23 43 33 23 43 33 23 43 33 23 43 33 23 43 33 23 43 33 23 43 33 23 43 33 23 43 33 23 43 33 23 43 33 23 43 33 23 43 33 23 43 33 23 43 33 23 43 33 23 43 33 23 43 33 23 43 33 23 43 33 23 43 33 23 43 33 23 43 33 23 43 33 23 43 33 23 43 33 23 43 33 23 43 33 23 43 33 23 43 33 23 43 33 23 43 33 23 43 33 23 43 33 23
43 33 23 43 33 23 43 33 23 43 33 23 43 33 23 43 33 23 43 33 23 43 33 23 43 33 23 43 33 23 43 33 23 43 33 23 43 33 23 43 33 23 43 33 23 43 33 23 43 33 23 43 33 23 43 33 23 43 33 23 43 33 23 43 33 23 43 33 23 43 33 23 43 33 23 43 33 23 43 33 23 43 33 23 43 33 23 43 33 23 43 33 23 43 33 23 43 33 23 43 33 23 43 33 23 43 33 23 43 33 23 43 33 23 43 33 23 43 33 23 43 33 23 43 33 23 43 33 23 43 33 23 43 33 23 43 33 23 43 33 23 43 33 23 43 33 23 43 33 23 43 33 23 43 33 23 43 33 23 43 33 23 43 33 23 43 33 23 43 33 23 96 99 88 96 99 88 96 99 88 245 208 97 96 99 88 96 99 88 245 208 97 245 208 97 96 99 88 96 99 88 245 208 97 96 99 88 96 99 88 96 99 88 43 33 23 43 33 23 43 33 23 43 33 23 43 33 23 43 33 23 43 33 23 43 33 23 43 33 23 43 33 23 43 33 23 43 33 23 43 33 23 43 33 23 43 33 23 43 33 23 43 33 23 43 33 23 43 33 23 43 33 23 43 33 23 43 33 23 43 33 23 43 33 23 43 33 23 43 33 23 43 33 23 43 33 23 43 33 23 43 33 23 43 33 23 43 33 23 43 33 23 43 33 23 43 33 23 43 33 23 43 33 23 43 33 23 43 33 23 43 33 23 43 33 23 43 33 23 43 33 23 43 33 23 43 33 23 43 33 23 43 33 23 43 33 23 43 33 23 43 33 23 43 33 23 43 33 23 43 33 23 43 33 23 43 33 23 43 33 23 43 33 23
43 33 23 43 33 23 43 33 23 43 33 23 43 33 23 43 33 23 43 33 23 43 33 23 43 33 23 43 33 23 43 33 23 43 33 23 43 33 23 43 33 23 43 33 23 43 33 23 43 33 23 43 33 23 43 33 23 43 33 23 43 33 23 43 33 23 43 33 23 43 33 23 43 33 23 43 33 23 43 33 23 43 33 23 43 33 23 43 33 23 43 33 23 43 33 23 43 33 23 43 33 23 43 33 23 43 33 23 43 33 23 43 33 23 43 33 23 43 33 23 43 33 23 43 33 23 43 33 23 43 33 23 43 33 23 43 33 23 43 33 23 43 33 23 43 33 23 43 33 23 43 33 23 43 33 23 43 33 23 43 33 23 43 33 23 43 33 23 43 33 23 96 99 88 96 99 88 96 99 88 245 208 97 96 99 88 96 99 88 245 208 97 245 208 97 96 99 88 96 99 88 245 208 97 96 99 88 96 99 88 96 99 88 43 33 23 43 33 23 43 33 23 43 33 23 43 33 23 43 33 23 43 33 23 43 33 23 43 33 23 43 33 23 43 33 23 43 33 23 43 33 23 43 33 23 43 33 23 43 33 23 43 33 23 43 33 23 43 33 23 43 33 23 43 33 23 43 33 23 43 33 23 43 33 23 43 33 23 43 33 23 43 33 23 43 33 23 43 33 23 43 33 23 43 33 23 43 33 23 43 33 23 43 33 23 43 33 23 43 33 23 43 33 23 43 33 23 43 33 23 43 33 23 43 33 23 43 33 23 43 33 23 43 33 23 43 33 23 43 33 23 43 33 23 43 33 23 43 33 23 43 33 23 43 33 23 43 33 23 43 33 23 43 33 23 43 33 23 43 33 23 43 33 23
43 33 23 43 33 23 43 33 23 43 33 23 43 33 23 43 33 23 43 33 23 43 33 23 43 33 23 43 33 23 43 33 23 43 33 23 43 33 23 43 33 23 43 33 23 43 33 23 43 33 23 43 33 23 43 33 23 43 33 23 43 33 23 43 33 23 43 33 23 43 33 23 43 33 23 43 33 23 43 33 23 43 33 23 43 33 23 43 33 23 43 33 23 43 33 23 43 33 23 43 33 23 43 33 23 43 33 23 43 33 23 43 33 23 43 33 23 43 33 23 43 33 23 43 33 23 43 33 23 43 33 23 43 33 23 43 33 23 43 33 23 43 33 23 43 33 23 43 33 23 43 33 23 43 33 23 43 33 23 43 33 23 43 33 23 43 33 23 43 33 23 96 99 88 96 99 88 96 99 88 245 208 97 96 99 88 96 99 88 245 208 97 245 208 97 96 99 88 96 99 88 245 208 97 96 99 88 96 99 88 96 99 88 43 33 23 43 33 23 43 33 23 43 33 23 43 33 23 43 33 23 43 33 23 43 33 23 43 33 23 43 33 23 43 33 23 43 33 23 43 33 23 43 33 23 43 33 23 43 33 23 43 33 23 43 33 23 43 33 23 43 33 23 43 33 23 43 33 23 43 33 23 43 33 23 43 33 23 43 33 23 43 33 23 43 33 23 43 33 23 43 33 23 43 33 23 43 33 23 43 33 23 43 33 23 43 33 23 43 33 23 43 33 23 43 33 23 43 33 23 43 33 23 43 33 23 43 33 23 43 33 23 43 33 23 43 33 23 43 33 23 43 33 23 43 33 23 43 33 23 43 33 23 43 33 23 43 33 23 43 33 23 43 33 23 43 33 23 43 33 23 43 33 23
43 33 23 43 33 23 43 33 23 43 33 23 43 33 23 43 33 23 43 33 23 43 33 23 43 33 23 43 33 23 43 33 23 43 33 23 43 33 23 43 33 23 43 33 23 43 33 23 43 33 23 43 33 23 43 33 23 43 33 23 43 33 23 43 33 23 43 33 23 43 33 23 43 33 23 43 33 23 43 33 23 43 33 23 43 33 23 43 33 23 43 33 23 43 33 23 43 33 23 43 33 23 43 33 23 43 33 23 43 33 23 43 33 23 43 33 23 43 33 23 43 33 23 43 33 23 43 33 23 43 33 23 43 33 23 43 33 23 43 33 23 43 33 23 43 33 23 43 33 23 43 33 23 43 33 23 43 33 23 43 33 23 43 33 23 43 33 23 43 33 23 96 99 88 96 99 88 96 99 88 245 208 97 96 99 88 96 99 88 245 208 97 245 208 97 96 99 88 96 99 88 245 208 97 96 99 88 96 99 88 96 99 88 43 33 23 43 33 23 43 33 23 43 33 23 43 33 23 43 33 23 43 33 23 43 33 23 43 33 23 43 33 23 43 33 23 43 33 23 43 33 23 43 33 23 43 33 23 43 33 23 43 33 23 43 33 23 43 33 23 43 33 23 43 33 23 43 33 23 43 33 23 43 33 23 43 33 23 43 33 23 43 33 23 43 33 23 43 33 23 43 33 23 43 33 23 43 33 23 43 33 23 43 33 23 43 33 23 43 33 23 43 33 23 43 33 23 43 33 23 43 33 23 43 33 23 43 33 23 43 33 23 43 33 23 43 33 23 43 33 23 43 33 23 43 33 23 43 33 23 43 33 23 43 33 23 43 33 23 43 33 23 43 33 23 43 33 23 43 33 23 43 33 23
