P2
128 128
255
43 34 12 10 20 15 31 13 15 223 12 248 18 33 7 38 35 48 42 0 20 16 41 17 11 0 0 5 41 0 45 45 9 25 27 39 5 48 12 9 15 36 6 16 15 222 42 26 0 32 0 25 46 15 35 18 26 95 86 95 20 96 123 212 200 113 118 206 110 113 132 0 48 19 35 2 46 30 0 48 32 20 0 28 33 6 23 32 40 3 0 28 8 0 45 23 10 44 23 46 2 8 15 25 2 7 0 20 11 249 10 0 24 30 0 48 14 33 7 48 40 39 0 46 26 7 15 24
2 27 11 20 16 20 37 45 32 0 12 47 0 24 42 13 29 42 18 12 19 24 39 26 8 21 44 32 20 44 24 12 24 9 22 0 15 38 0 33 8 0 39 33 26 15 0 36 0 7 42 20 25 14 20 16 13 103 20 20 176 118 134 205 165 20 133 196 133 131 111 47 19 249 14 3 20 0 23 39 36 7 0 46 17 28 20 5 20 40 43 7 39 27 21 1 27 178 23 0 7 46 20 23 15 26 24 34 0 31 35 3 0 41 8 20 17 42 0 41 20 16 48 28 26 39 40 15
23 40 14 32 40 39 4 40 20 32 0 5 43 38 0 16 12 14 30 33 20 22 26 34 38 1 8 0 31 41 0 28 0 0 8 16 27 22 35 18 10 0 20 19 20 19 32 0 48 40 24 0 20 23 20 12 12 118 100 99 210 112 135 177 20 93 97 173 134 109 89 41 28 18 20 0 11 39 37 0 0 0 21 36 20 24 9 40 17 13 40 25 214 19 22 0 28 1 8 0 42 0 40 25 185 25 0 3 35 21 8 38 28 0 30 25 25 6 25 29 6 46 8 0 8 11 20 0
4 34 42 14 22 7 31 16 0 23 42 0 33 20 0 32 37 5 18 48 13 21 39 20 27 40 43 47 17 5 36 20 47 0 37 36 29 6 46 1 8 17 16 11 1 36 27 25 31 10 28 17 47 0 181 0 39 92 111 20 170 20 112 197 167 109 96 210 119 138 92 42 0 45 11 40 0 29 2 4 24 47 14 0 0 176 2 29 21 0 35 44 0 26 31 20 32 21 28 5 0 33 31 31 42 24 6 8 46 44 42 0 0 33 6 24 30 20 24 18 0 1 1 29 38 15 6 0
0 254 42 17 0 1 0 38 34 4 9 38 34 27 0 20 33 22 45 5 13 0 12 27 48 45 31 38 0 185 26 16 29 9 18 34 42 16 0 24 34 19 40 11 11 19 31 0 21 47 23 40 21 10 5 41 19 111 85 110 164 91 115 184 193 110 20 216 104 89 128 42 38 26 5 37 0 45 22 233 24 10 10 9 38 2 0 46 0 21 44 43 35 1 37 23 42 0 36 0 34 17 36 229 12 32 8 29 14 20 12 22 31 36 0 8 19 37 45 42 42 12 2 40 31 25 15 0
27 10 34 36 0 44 31 16 31 30 41 20 42 20 3 35 40 1 40 7 0 8 45 0 16 17 17 20 7 14 13 5 0 39 14 22 20 26 33 20 22 35 25 34 46 30 40 13 9 36 201 172 9 26 37 20 40 20 125 137 218 106 101 162 175 131 118 162 96 130 85 28 34 30 37 4 0 0 45 36 34 17 0 0 38 0 40 33 9 15 26 47 16 5 2 0 20 20 25 20 6 0 25 231 0 9 39 0 41 23 42 47 31 36 15 31 39 34 44 18 0 36 42 33 34 30 20 0
20 20 23 18 8 25 20 36 0 0 23 19 21 13 23 0 8 8 0 47 41 38 27 43 0 20 0 23 14 37 0 4 6 20 23 5 2 8 47 12 28 0 0 0 29 26 16 9 7 37 20 6 41 20 20 44 0 96 20 88 205 90 138 183 214 89 94 20 99 99 112 2 24 32 13 32 48 6 13 24 23 24 24 21 43 30 30 41 33 40 0 20 0 20 23 3 41 11 0 7 13 0 33 9 14 16 10 27 20 46 35 20 10 23 0 42 20 20 24 40 22 15 0 11 20 40 32 20
25 0 27 33 45 0 31 24 0 21 35 0 0 32 38 30 0 8 48 26 20 0 47 14 2 45 1 3 0 0 0 45 48 38 28 47 19 0 11 0 28 20 20 46 28 0 42 33 41 248 20 22 34 35 204 7 46 102 89 119 183 82 107 191 178 128 93 186 114 112 134 32 19 0 24 39 44 32 25 37 10 9 14 2 45 20 6 0 10 16 23 249 26 5 37 12 39 252 16 25 6 6 14 41 180 239 44 16 42 12 10 0 43 20 26 33 9 4 16 0 1 22 47 33 11 0 35 33
4 45 19 0 15 33 7 18 41 27 1 10 24 0 26 24 8 20 6 0 1 4 20 16 26 9 45 32 20 15 10 29 30 27 24 0 0 0 0 35 12 0 45 0 0 0 26 21 13 27 20 48 33 48 3 3 0 126 132 20 181 125 111 167 169 114 93 195 20 114 126 12 48 2 14 9 26 6 28 3 33 36 15 5 7 5 225 0 5 1 16 24 5 7 43 32 4 0 20 16 36 23 19 5 20 252 20 0 10 0 1 20 2 20 47 14 26 19 42 7 0 31 30 20 29 28 26 19
0 13 20 0 238 1 47 0 20 41 44 36 8 2 43 44 0 39 31 20 29 33 32 47 0 39 1 20 31 2 0 0 8 15 0 0 0 20 14 36 176 11 22 2 10 19 0 45 255 19 0 16 6 20 27 5 16 131 117 121 174 112 113 172 178 136 121 186 133 102 132 20 12 23 30 32 12 12 37 0 23 13 16 20 0 6 41 42 35 34 24 45 20 35 28 33 20 0 0 31 33 16 37 18 39 43 20 17 20 173 25 11 42 0 28 38 11 45 28 45 197 0 36 46 20 15 46 47
25 10 20 10 37 20 36 29 27 39 21 46 43 19 2 45 8 11 18 38 2 17 48 1 4 20 45 8 42 20 26 42 28 12 0 17 20 30 0 27 20 37 48 15 12 35 13 26 5 7 22 4 0 47 9 48 41 88 191 92 176 102 125 175 182 84 118 180 102 138 114 0 48 46 15 25 34 13 25 0 1 0 48 25 42 13 38 1 20 40 0 17 37 6 12 43 18 31 17 20 16 0 24 26 43 41 0 47 0 19 28 46 6 31 11 0 0 18 31 19 20 0 39 0 37 23 2 7
36 12 25 29 46 20 16 0 25 0 19 43 0 35 0 35 15 0 21 12 17 12 25 38 2 39 8 2 18 20 7 26 20 38 0 0 14 0 16 6 26 44 5 8 26 6 24 18 18 37 27 26 5 40 185 14 48 132 100 101 175 136 100 175 214 121 192 213 92 122 111 20 0 0 37 47 46 40 20 26 37 12 11 35 0 20 26 15 0 38 45 38 10 20 12 11 42 0 0 36 35 25 32 14 13 20 3 20 0 33 20 26 26 11 4 20 37 0 24 12 33 20 32 28 8 42 46 20
2 2 37 31 3 44 39 17 184 37 36 20 20 11 0 24 9 38 11 3 6 0 32 42 1 42 48 0 18 20 7 200 3 0 6 12 22 15 19 34 26 0 21 25 0 6 14 216 20 24 25 28 28 0 233 9 20 128 92 119 169 133 119 165 211 137 84 165 20 135 108 41 6 33 28 28 0 0 4 43 23 0 32 25 44 42 25 42 20 37 12 30 0 15 4 2 8 9 48 10 12 20 8 45 18 2 38 20 45 19 47 37 0 10 35 23 46 29 15 18 48 8 5 19 38 36 0 36
40 0 29 0 37 255 20 0 33 12 0 26 48 20 10 17 166 20 27 0 4 0 0 27 31 25 0 20 2 0 4 220 29 31 25 7 20 0 47 25 0 47 252 44 8 44 10 48 22 14 1 0 11 5 37 15 21 94 89 136 195 115 20 173 252 20 113 178 131 20 86 20 48 10 25 27 42 40 47 28 14 24 16 1 12 4 15 8 16 12 10 33 45 19 26 9 26 20 20 32 28 22 0 2 13 36 36 15 27 19 35 31 0 34 48 45 35 172 29 13 5 20 0 8 188 16 20 17
11 7 31 3 44 38 25 255 16 0 239 44 0 191 0 16 36 0 20 25 4 20 35 17 46 23 2 19 8 35 48 1 10 44 0 19 0 43 45 38 37 40 20 43 47 41 25 12 0 13 5 4 20 21 0 34 8 94 112 87 165 129 107 173 186 104 185 20 125 115 124 0 0 0 27 0 8 15 20 0 20 28 19 34 33 0 39 28 20 0 36 0 46 42 20 20 0 44 26 18 8 43 44 0 0 36 14 2 20 0 25 32 0 47 26 42 0 0 0 0 11 43 0 10 37 48 6 0
15 27 15 0 48 44 14 20 44 48 45 20 1 30 20 11 42 0 29 27 0 41 28 18 48 38 30 13 12 7 22 23 0 23 48 39 16 28 0 42 32 0 23 0 14 48 20 32 4 11 0 40 38 0 17 23 0 20 20 133 20 114 136 190 218 121 82 177 94 116 97 1 22 14 13 28 5 0 46 9 0 212 0 8 0 5 47 41 10 0 30 4 0 5 45 11 9 32 20 20 0 0 32 17 40 3 0 16 0 1 17 30 38 18 11 11 0 25 0 1 23 32 0 0 16 6 42 20
47 25 36 40 0 27 1 36 23 39 186 41 12 19 0 0 20 47 34 33 36 40 38 222 228 39 2 0 24 9 46 29 27 4 0 0 18 42 8 0 30 19 28 20 12 34 29 27 34 19 13 48 13 34 20 19 46 119 82 102 166 109 88 208 196 82 108 184 133 126 113 0 33 30 40 0 36 13 0 8 7 245 20 14 37 39 8 20 0 35 13 191 42 1 42 0 2 46 10 19 34 38 24 1 33 41 4 207 4 44 20 15 0 17 0 30 40 34 0 44 17 16 0 0 13 42 45 5
10 36 2 21 9 39 0 3 31 19 40 0 45 20 20 0 45 31 0 43 22 18 0 40 20 25 6 27 28 30 43 20 10 20 19 19 8 22 17 28 33 4 7 48 0 3 2 8 41 17 23 29 0 21 21 19 37 117 91 96 193 87 118 194 162 103 102 176 137 129 137 47 20 4 0 24 29 11 22 250 22 4 43 12 207 197 20 15 23 20 6 26 0 1 0 10 1 16 10 2 46 0 3 45 11 5 2 18 9 2 0 16 1 0 0 31 20 41 20 209 24 34 31 21 19 21 0 29
45 0 34 0 17 11 7 34 36 47 44 0 11 8 46 6 21 30 3 33 10 25 35 11 15 43 11 48 215 31 0 47 30 27 23 17 22 29 47 0 2 23 29 37 35 14 46 33 33 25 4 9 31 33 20 46 8 121 20 102 177 93 100 218 179 120 106 201 98 87 138 5 0 0 23 29 44 19 45 13 29 0 0 26 3 22 0 200 12 30 204 33 20 43 45 0 8 0 36 0 17 4 20 19 7 45 8 4 20 9 12 39 31 6 1 44 43 48 45 234 7 6 36 48 18 0 33 20
30 8 20 31 0 223 45 40 2 20 42 31 19 0 29 29 42 13 34 217 8 46 10 26 47 0 39 3 7 29 0 47 15 36 25 15 33 11 1 15 18 6 32 17 14 11 0 46 45 21 12 40 12 24 6 37 37 105 86 124 227 99 116 184 201 106 20 216 86 134 137 29 0 0 42 19 30 0 45 21 20 12 25 235 46 28 0 33 12 13 36 38 45 8 39 0 5 6 18 22 165 13 14 17 17 0 41 8 5 35 10 38 8 11 23 35 8 41 23 0 5 6 0 7 0 19 0 45
6 0 0 20 35 33 7 1 41 20 25 36 21 37 20 23 6 23 1 39 20 0 20 8 0 10 13 26 11 46 168 3 24 32 1 38 43 21 25 39 1 48 21 32 26 25 244 13 46 0 20 9 2 42 44 216 34 129 94 135 188 89 128 201 174 98 98 182 107 109 128 21 5 36 28 6 37 4 28 43 16 27 23 0 20 36 25 45 13 38 30 29 38 11 0 0 2 0 25 0 0 33 26 22 44 43 0 8 7 20 22 0 12 17 3 24 23 19 0 15 10 31 2 3 18 0 0 20
11 169 33 4 45 28 36 11 20 32 23 0 0 20 20 23 198 0 27 18 48 20 28 30 1 28 5 3 0 27 7 47 24 11 0 20 7 0 42 22 3 36 0 6 32 35 36 14 5 190 8 221 23 11 0 16 0 108 136 125 172 135 110 177 207 134 98 181 110 114 116 35 36 30 45 18 4 20 13 38 13 0 33 42 34 0 10 42 22 2 18 20 34 0 29 19 31 43 47 30 16 29 34 212 7 16 45 45 23 37 19 14 41 38 16 10 5 21 0 21 36 47 29 38 45 29 16 13
40 1 39 29 24 44 0 34 20 0 41 26 15 41 34 5 19 7 22 8 37 30 21 2 3 9 0 17 36 35 13 9 201 1 45 20 0 3 24 44 203 20 0 9 28 35 2 9 25 13 0 46 20 7 30 208 36 20 104 134 171 96 128 171 176 20 128 190 89 101 132 20 0 4 0 4 20 6 20 32 40 0 7 47 41 8 37 32 14 38 16 4 19 48 47 38 251 0 25 17 7 30 4 11 38 1 41 3 41 46 26 17 45 15 42 13 20 10 46 24 43 40 26 26 29 14 13 39
36 20 46 12 12 0 42 34 23 34 6 48 18 9 210 0 20 18 0 48 17 36 14 45 8 0 41 2 29 20 5 0 26 10 40 15 0 36 34 7 10 16 42 33 25 31 25 36 0 39 22 21 9 20 0 20 31 90 174 138 216 96 83 165 171 122 129 170 92 123 137 28 47 0 47 30 30 20 42 22 41 46 0 30 46 26 45 0 10 7 32 16 26 40 27 20 40 38 42 19 10 36 18 27 15 0 16 37 17 25 2 20 42 12 30 0 39 0 0 0 0 0 31 0 29 14 2 24
27 8 0 0 26 39 22 15 9 5 20 0 41 0 38 25 23 21 4 20 6 48 9 20 16 0 0 5 21 12 13 7 40 7 20 0 25 8 0 7 20 31 33 0 13 13 20 37 0 24 0 9 23 33 27 7 20 123 20 94 215 118 123 179 212 115 20 168 123 87 82 40 34 17 38 42 0 15 20 0 40 38 13 46 21 2 20 33 22 9 8 14 37 0 10 25 0 20 0 18 7 185 19 1 8 14 44 6 36 5 23 1 8 0 32 45 0 0 14 4 35 24 36 18 0 24 29 5
26 14 24 14 23 34 0 43 30 17 27 8 42 33 3 32 18 37 0 41 6 13 17 1 39 29 15 47 15 0 15 8 41 31 12 46 1 9 11 9 5 241 11 38 20 20 6 19 10 17 17 40 44 24 8 3 0 136 89 134 207 97 135 169 177 89 109 181 122 107 88 48 0 17 5 40 35 5 25 12 27 20 20 14 14 39 11 37 3 27 10 37 27 3 45 42 23 0 44 39 0 0 14 0 20 17 12 29 15 46 5 29 37 20 8 22 3 33 33 48 0 3 25 42 48 0 2 27
11 27 3 39 12 35 30 14 0 29 35 1 20 20 20 42 15 47 47 48 15 9 48 3 18 48 23 16 25 20 14 0 12 38 25 42 45 15 21 1 40 17 38 16 10 21 14 7 15 20 0 39 21 10 17 3 20 109 118 166 187 97 90 198 172 94 127 203 88 113 96 12 0 17 20 20 36 18 4 7 0 184 20 17 39 0 45 19 0 25 33 5 29 24 32 42 20 6 0 45 3 22 20 27 3 28 44 26 48 32 20 36 19 3 25 30 8 18 37 208 29 0 0 208 31 22 38 42
46 17 38 18 21 27 40 48 40 12 22 14 11 19 12 41 10 9 27 43 35 20 44 25 46 33 30 1 18 42 0 30 21 0 48 43 29 20 27 20 5 20 27 1 48 18 7 14 29 19 12 0 10 0 20 12 31 126 136 125 182 129 132 210 178 100 88 203 101 20 20 0 27 0 44 0 27 0 0 0 20 0 5 33 3 21 240 168 19 26 10 11 40 1 23 13 37 19 30 9 45 25 9 0 37 42 0 21 11 19 34 22 11 20 0 16 48 33 171 9 6 8 32 46 25 29 42 35
20 41 23 13 42 3 8 47 1 8 10 250 10 29 26 48 39 22 16 0 4 8 40 32 20 43 19 17 34 26 3 11 4 44 4 24 45 162 0 0 1 25 20 20 36 0 23 25 16 30 2 14 0 13 6 20 0 133 131 120 215 111 91 209 184 135 115 191 97 136 120 15 21 18 0 44 0 25 23 22 20 42 0 20 24 2 12 29 20 27 9 26 19 16 11 42 35 1 0 29 1 27 40 39 1 17 36 35 0 7 20 0 22 7 12 18 29 2 24 29 42 12 11 37 48 0 17 45
11 28 14 187 29 44 0 18 17 40 19 20 0 32 37 0 0 33 45 0 0 9 3 11 39 0 0 20 21 0 2 35 4 20 1 19 31 8 6 48 0 42 0 241 30 41 30 0 24 6 0 11 27 4 47 21 48 97 82 132 204 118 117 213 211 99 102 205 20 110 102 22 22 28 39 24 30 42 42 28 0 0 3 8 23 8 33 24 9 237 6 238 0 48 30 5 41 241 11 20 48 0 24 28 25 45 36 23 0 3 17 21 0 37 42 35 14 20 45 22 0 4 33 47 16 21 0 0
20 48 44 40 40 2 17 27 20 20 13 21 21 48 42 16 2 20 186 20 17 10 33 32 28 38 0 3 33 0 0 192 14 9 20 17 30 39 29 0 247 18 19 46 0 45 30 5 14 31 4 1 0 0 25 25 0 20 87 130 179 133 84 191 162 20 110 174 118 129 103 46 20 45 22 34 40 42 14 22 17 5 39 0 9 14 0 33 46 20 19 31 0 3 37 21 12 26 0 24 251 22 186 0 12 20 36 11 29 16 23 32 24 0 3 48 3 25 4 45 44 0 45 15 7 3 33 37
15 35 209 23 27 0 32 9 0 0 7 17 14 6 16 14 8 20 10 47 14 24 9 23 8 0 28 16 1 2 17 21 7 26 31 26 41 39 32 18 0 197 11 24 28 25 20 17 45 22 22 23 31 39 45 23 37 107 116 20 215 100 222 192 200 104 96 198 110 107 20 6 13 14 42 47 0 28 233 0 35 44 47 30 1 10 12 209 4 19 0 26 9 42 20 34 0 20 3 36 6 8 21 35 23 42 18 28 29 234 45 9 48 31 20 12 13 43 19 5 15 45 0 27 40 0 216 25
31 30 20 44 0 35 0 0 22 11 2 14 0 33 0 9 36 20 5 10 6 31 0 20 19 38 39 21 28 2 3 34 35 21 38 24 35 28 24 35 36 18 43 31 8 48 0 26 6 11 0 46 25 20 39 20 26 119 118 20 195 125 114 213 190 130 102 165 132 82 128 1 32 3 20 40 45 44 30 0 0 3 4 29 0 0 2 20 20 214 33 17 32 4 27 35 4 41 18 31 11 28 0 5 4 36 39 45 19 20 26 0 0 30 41 0 18 8 39 18 14 40 20 7 10 0 44 27
35 46 0 39 16 6 35 26 47 0 0 17 22 47 44 11 0 20 37 20 11 30 25 31 45 41 40 14 0 0 20 25 35 1 9 18 40 14 2 32 25 8 45 31 9 10 7 9 34 40 36 37 40 28 166 33 21 88 92 116 197 94 123 20 177 115 112 174 120 92 85 0 30 8 20 10 0 0 2 17 30 34 30 0 40 19 0 0 9 2 4 226 32 18 20 20 27 44 16 13 27 12 28 17 11 47 12 37 11 0 16 0 1 37 4 17 48 15 42 21 187 20 31 48 2 25 34 27
34 18 36 20 0 32 6 42 29 45 0 27 29 33 0 43 4 47 22 32 0 0 0 2 43 29 41 6 43 0 25 0 33 0 0 12 14 0 13 0 24 27 20 22 7 15 0 37 2 20 20 45 19 0 33 38 23 113 82 123 230 108 115 162 214 121 90 183 123 20 87 38 0 42 10 8 13 20 24 38 20 34 15 28 16 20 15 24 0 48 1 12 38 48 13 14 14 18 46 0 40 0 25 20 27 6 27 19 7 7 29 20 9 20 9 12 0 11 32 37 25 1 0 0 40 14 34 25
2 23 22 0 12 41 21 20 11 0 20 27 16 13 1 1 0 21 33 0 39 6 0 0 38 2 11 9 1 21 42 46 0 17 30 229 20 21 2 17 16 17 27 4 0 19 32 12 25 32 29 31 28 20 1 26 38 119 98 83 202 99 95 215 217 99 100 20 112 125 98 5 21 28 11 38 43 18 29 35 20 12 0 20 0 0 17 4 10 40 20 19 1 4 24 39 23 15 4 175 8 0 20 3 5 44 34 45 3 19 5 36 0 33 29 48 2 16 15 0 24 37 48 46 0 39 6 0
5 38 0 30 18 2 0 47 26 20 3 28 20 32 0 12 4 42 8 0 42 31 6 37 15 20 32 11 36 3 21 28 16 16 0 16 173 8 0 32 14 21 24 37 16 20 38 5 38 10 0 26 0 20 5 33 0 113 107 20 193 94 247 183 20 108 133 162 20 91 110 29 235 5 1 6 32 39 19 46 34 43 3 251 36 35 42 21 13 41 0 0 30 13 48 22 4 26 22 20 48 47 36 23 24 12 6 34 0 28 29 19 42 44 0 15 34 10 10 36 47 27 8 36 20 16 38 16
17 18 45 39 46 28 0 10 17 29 32 0 0 43 15 14 31 32 2 8 20 38 37 36 19 0 40 9 20 20 20 0 19 0 5 6 5 20 27 18 20 20 30 17 0 0 37 1 8 38 12 2 0 4 22 38 43 128 117 207 211 102 82 194 20 20 109 202 130 130 82 15 16 0 33 10 20 0 37 8 20 11 34 0 20 37 24 183 45 25 15 3 16 6 18 22 37 23 36 37 7 18 16 39 45 8 21 29 34 18 163 7 48 8 13 47 35 28 31 0 7 0 0 33 8 0 4 0
45 9 0 2 5 20 0 39 38 44 10 17 40 8 14 0 27 15 8 0 3 10 9 0 35 31 0 44 44 8 1 47 0 44 35 0 192 20 20 0 41 13 14 14 28 12 26 2 38 0 45 40 40 20 35 4 3 119 114 87 192 127 133 171 174 131 130 184 94 114 137 0 13 14 9 44 0 0 0 24 29 17 30 17 0 12 20 17 22 3 0 42 33 15 0 41 4 39 10 13 23 12 11 28 16 10 33 20 16 21 14 17 0 28 24 0 17 37 23 22 3 0 29 20 10 47 1 20
0 34 43 10 0 18 48 7 24 0 0 9 0 184 0 10 44 38 48 7 32 34 39 29 7 7 28 16 47 32 24 41 0 41 18 20 47 0 0 21 14 20 16 32 28 8 27 43 245 4 0 0 22 0 0 21 16 102 97 94 206 89 137 171 190 82 84 197 121 111 92 29 20 48 0 6 34 17 24 24 5 5 20 43 45 254 44 46 45 22 18 0 4 10 20 13 0 20 46 46 0 168 0 0 17 19 15 28 22 23 0 20 0 27 0 19 33 13 9 174 0 34 48 41 46 4 45 0
0 46 28 26 1 0 206 0 10 180 10 24 0 187 0 35 24 15 33 3 22 21 185 30 9 47 0 34 23 25 33 26 26 35 16 11 0 44 0 13 8 32 4 0 4 42 9 27 33 6 10 0 46 32 46 215 48 113 131 167 204 121 83 190 213 138 119 187 109 94 97 9 39 40 46 36 19 29 6 26 42 14 35 20 16 19 34 2 0 20 23 17 34 29 3 45 42 0 18 31 5 14 47 24 4 0 15 1 32 40 36 37 10 27 17 47 29 0 0 0 15 0 35 20 21 10 18 44
20 34 40 236 45 20 18 11 4 26 0 32 12 0 0 7 14 11 9 20 47 47 11 15 20 20 5 4 35 46 0 1 33 0 1 43 25 20 0 2 9 48 12 9 29 3 0 41 42 28 26 3 48 48 3 19 0 86 109 85 208 118 20 20 168 98 104 195 83 104 115 1 20 8 41 7 42 22 20 0 4 20 2 0 0 17 5 20 0 1 27 44 7 33 13 0 10 16 14 2 0 23 17 27 0 29 0 13 0 20 1 33 1 40 20 47 38 42 0 39 42 1 0 7 10 22 8 214
10 20 0 17 46 48 0 34 20 223 34 44 3 0 219 8 9 40 0 20 7 194 9 1 37 0 25 11 188 3 11 10 3 45 36 0 16 6 238 12 20 23 0 13 20 41 15 45 0 28 26 19 9 27 17 8 48 134 112 190 233 93 129 213 175 110 90 171 20 98 114 15 20 10 41 3 20 4 12 41 15 3 31 20 168 13 3 13 10 42 33 217 0 14 16 35 43 15 37 44 7 12 30 0 44 41 0 2 12 34 36 20 17 22 0 0 44 34 1 3 10 44 20 16 15 165 12 19
19 0 0 22 6 41 33 15 0 4 42 40 19 19 16 37 0 10 0 27 20 0 33 17 20 0 9 20 0 35 14 17 0 7 23 5 229 27 191 0 45 20 16 15 36 18 6 44 19 35 37 39 7 6 42 0 6 116 97 104 201 136 134 200 208 87 125 20 101 121 111 24 30 13 0 27 20 28 237 3 31 44 18 25 12 0 35 22 1 176 13 8 41 0 20 35 48 26 0 3 12 0 39 18 22 16 44 34 48 19 0 25 15 29 34 27 43 14 35 20 40 5 7 0 20 43 44 43
0 0 2 19 45 0 41 34 35 11 9 0 22 46 32 6 10 20 0 36 20 2 0 0 20 44 14 0 13 32 1 38 44 10 0 17 6 0 19 42 20 25 16 30 45 13 20 36 34 10 6 17 4 0 48 47 0 93 125 125 195 85 136 171 196 100 133 175 20 110 205 224 243 0 46 1 8 28 20 4 39 45 10 13 30 199 187 13 0 0 26 32 29 13 4 6 34 25 25 44 10 24 19 16 15 22 21 3 40 15 2 0 0 0 5 48 4 19 37 0 3 43 0 38 35 45 19 1
29 16 253 21 48 34 236 37 38 30 13 46 7 0 5 33 43 36 38 20 33 44 0 20 29 43 47 38 20 35 35 45 15 5 31 7 7 5 24 11 27 39 20 0 31 29 2 0 44 3 29 36 46 31 40 4 184 117 100 138 20 118 176 185 207 118 109 191 107 135 20 5 0 20 26 3 0 2 33 22 40 16 6 47 35 0 0 18 23 20 0 0 14 3 4 0 42 5 0 29 0 47 254 16 3 10 16 28 48 246 0 34 27 0 41 31 0 25 27 26 14 46 0 19 24 20 20 0
201 0 33 6 0 20 16 40 46 13 40 6 21 24 27 4 19 0 7 171 22 35 44 0 0 7 44 8 43 20 41 40 25 39 11 0 29 8 24 37 0 37 1 42 0 33 25 29 39 20 43 45 11 41 8 3 23 102 83 90 187 109 115 209 211 121 98 193 127 120 105 19 31 0 35 0 8 28 42 0 3 20 24 14 36 0 36 4 23 15 20 12 15 12 48 14 25 19 30 0 15 0 48 46 3 0 18 35 0 38 21 30 0 2 17 11 0 14 1 24 46 20 31 33 20 12 0 32
0 40 25 24 35 33 16 28 0 10 8 20 34 36 0 15 34 11 17 39 20 20 20 0 45 47 47 0 0 38 20 43 48 18 43 37 22 27 39 40 41 13 3 1 210 20 39 26 31 35 26 4 45 34 0 18 33 101 129 105 167 113 102 211 196 109 99 207 95 121 104 20 42 29 16 43 6 1 7 20 2 0 5 0 7 28 0 47 20 0 27 39 39 27 0 33 41 37 24 6 0 20 0 195 22 18 28 17 13 34 28 2 33 44 8 36 9 7 9 45 0 41 31 38 34 48 20 44
0 0 16 0 34 23 44 42 17 46 19 0 35 40 30 29 15 10 0 23 19 31 20 4 6 34 18 20 40 0 0 0 0 36 0 28 48 13 20 18 0 39 0 240 245 40 20 14 16 11 20 0 20 0 29 0 0 113 111 102 181 99 124 172 209 118 135 209 115 129 206 32 41 43 0 13 47 1 12 24 33 20 0 17 0 36 36 13 39 46 34 7 0 36 0 236 26 230 7 27 15 36 0 29 30 31 9 37 28 6 20 0 28 34 9 8 11 39 45 33 38 18 17 3 0 48 43 26
24 0 0 0 27 46 9 0 13 3 38 18 21 0 33 33 12 11 22 21 192 17 0 41 46 22 45 9 21 12 0 20 4 45 18 13 36 31 9 36 21 1 4 20 30 45 32 210 30 40 44 34 25 29 15 12 42 94 113 95 178 126 118 163 184 86 94 194 105 91 104 12 26 0 28 0 39 44 38 30 0 0 0 13 33 18 13 10 10 17 27 38 18 41 163 5 20 0 9 38 20 15 5 38 12 42 27 0 24 43 2 5 37 37 37 0 31 41 20 42 27 35 20 39 37 15 17 27
0 28 9 232 0 0 20 35 44 33 5 4 3 0 35 29 1 8 48 46 46 0 0 20 44 26 40 48 47 22 5 20 27 35 11 20 41 27 0 20 20 0 191 0 29 48 26 5 15 5 16 46 4 20 48 5 23 123 88 20 187 117 110 215 180 132 125 162 20 96 82 13 20 20 0 32 23 6 43 3 44 46 20 19 13 20 0 6 5 36 28 24 0 196 28 20 4 19 48 23 4 20 2 0 31 13 31 4 43 39 3 9 9 7 20 19 20 27 5 44 23 175 11 14 29 21 25 35
6 23 40 48 26 25 32 27 24 219 14 21 7 36 3 47 4 6 0 19 48 17 17 19 2 14 43 9 0 15 19 41 37 2 0 32 11 25 22 10 11 45 10 26 37 20 37 26 33 0 8 48 28 30 27 39 10 90 100 20 218 85 127 20 215 134 111 167 193 20 97 14 13 20 40 0 24 10 24 36 8 20 37 0 37 251 0 4 0 11 25 39 10 16 20 44 18 4 11 0 46 28 0 13 30 18 20 24 7 6 22 237 9 8 30 35 37 1 40 8 14 4 45 38 32 25 8 20
237 30 0 12 20 20 24 13 20 38 47 47 19 9 32 32 0 15 47 0 45 0 20 23 18 43 9 44 43 19 45 8 26 30 10 47 43 0 13 42 4 6 6 2 31 39 35 45 0 38 20 16 224 20 0 12 44 108 132 124 213 129 122 177 185 133 119 168 94 110 118 20 14 28 36 20 20 40 36 11 28 38 0 35 9 16 35 22 27 16 11 18 0 24 20 33 215 13 46 27 7 0 11 28 20 3 19 10 0 19 43 12 19 6 17 4 0 14 5 20 170 3 44 27 19 0 2 0
0 32 20 22 17 9 12 20 47 15 35 24 45 5 40 30 0 6 9 4 0 35 41 3 21 21 48 40 15 0 0 0 5 16 29 31 0 21 20 26 24 1 5 7 19 0 6 34 5 0 3 26 39 34 20 39 12 125 86 134 169 20 91 218 185 137 125 212 115 99 103 31 38 4 43 27 0 14 18 30 27 44 29 34 0 27 7 2 13 15 17 30 29 0 0 0 47 6 20 3 36 1 25 45 32 4 28 20 31 46 31 0 5 38 48 42 17 19 39 10 0 34 20 34 20 33 4 243
28 18 25 31 20 40 20 48 38 15 37 7 46 40 0 24 47 0 17 6 29 12 9 3 21 20 29 9 39 12 20 9 28 3 43 0 0 12 45 46 43 14 30 46 251 23 31 22 36 43 6 13 0 29 27 37 19 129 112 88 163 126 125 199 208 87 118 218 94 109 117 20 0 41 0 6 34 206 39 38 18 28 43 19 9 198 0 11 8 13 3 37 6 0 43 32 22 38 41 0 19 13 10 0 30 38 28 43 15 17 1 5 4 233 45 14 0 20 166 10 35 0 32 30 40 13 0 9
45 0 5 44 3 46 16 27 20 8 39 10 25 7 38 32 41 47 5 238 9 0 11 15 19 0 0 7 14 221 4 2 8 18 20 23 20 0 30 245 1 20 8 20 37 12 31 32 36 0 28 17 23 45 22 21 20 96 101 123 195 84 92 203 218 91 90 166 82 82 135 20 0 17 23 1 46 3 7 0 2 26 28 2 22 0 33 9 11 7 200 36 44 12 28 37 0 5 6 20 31 40 21 7 41 38 41 5 31 20 40 27 13 8 47 19 9 36 47 9 8 25 12 36 0 36 20 29
15 42 0 4 36 21 15 24 1 10 10 32 43 29 32 31 2 20 5 16 9 35 0 35 7 21 20 20 4 246 33 26 11 0 23 0 19 20 201 37 14 40 2 26 34 19 23 19 10 0 37 0 42 0 21 41 46 103 103 98 211 109 117 170 173 111 137 188 106 86 89 27 0 38 28 0 48 33 22 1 0 9 11 13 6 12 43 1 14 20 20 43 0 20 0 48 203 242 17 13 5 35 18 33 47 30 35 45 0 20 20 0 1 24 0 8 8 13 20 41 20 12 0 23 35 17 6 20
100 111 125 96 90 135 121 100 121 88 95 84 105 221 20 85 101 136 87 110 233 114 91 20 86 125 125 97 118 102 132 165 82 95 103 92 87 101 107 137 104 104 111 118 130 181 88 20 101 128 129 86 110 85 129 127 20 91 103 98 209 96 136 171 203 112 97 208 112 134 107 89 255 238 255 85 82 128 92 240 236 221 103 86 108 187 135 101 136 104 130 20 131 112 131 104 224 255 254 128 108 120 126 20 118 92 226 86 100 94 124 108 87 92 134 120 111 20 113 89 20 89 125 111 136 94 135 120
97 129 108 136 109 131 132 220 113 20 101 20 133 103 83 124 20 122 88 82 95 20 121 95 123 109 102 89 97 108 99 133 134 121 220 193 136 98 127 82 110 114 131 115 112 97 121 97 101 108 111 135 163 96 219 96 120 111 123 20 204 96 119 209 210 131 91 187 101 127 93 255 233 238 255 117 112 212 226 238 239 219 126 120 99 108 118 120 88 91 85 95 98 108 124 228 231 249 255 110 114 85 101 126 106 96 129 118 103 115 98 105 88 84 131 113 20 118 95 101 125 112 120 106 109 98 94 97
92 84 122 94 137 88 94 96 96 92 85 133 111 110 110 131 124 93 20 114 103 82 133 117 103 127 122 104 20 83 132 127 120 110 130 175 112 82 121 137 130 91 89 113 123 131 105 107 88 128 133 97 85 130 136 126 129 96 134 113 218 110 135 204 164 136 102 192 137 84 138 255 251 166 247 131 133 20 252 255 255 231 133 92 130 87 97 90 20 108 108 132 84 116 113 241 20 240 255 131 104 106 112 127 104 114 97 89 136 87 20 93 109 98 89 137 127 20 120 117 20 138 127 97 85 110 91 122
205 202 187 197 212 20 20 174 162 209 175 178 201 163 192 181 186 20 186 205 198 173 181 20 190 181 188 205 168 184 195 165 184 195 20 189 209 174 216 214 165 189 20 213 214 192 162 195 214 179 165 213 217 188 210 180 201 103 20 129 210 20 113 162 170 99 128 170 104 126 89 177 179 176 20 166 203 167 171 213 187 184 170 189 198 194 209 205 173 168 194 208 163 165 189 184 190 190 190 20 213 184 205 169 174 182 209 209 188 184 174 187 207 200 191 203 171 187 166 179 233 178 176 201 176 191 169 209
126 96 105 109 137 225 113 113 108 104 102 101 130 121 104 82 98 133 236 88 90 114 82 115 105 106 98 94 85 88 105 118 125 100 93 128 111 110 118 99 108 93 119 106 111 123 20 137 136 116 113 88 108 117 126 127 93 114 133 122 174 121 99 204 196 84 86 190 83 86 104 102 112 105 91 131 106 92 83 20 101 90 254 108 102 104 86 220 227 250 255 20 137 131 106 101 86 107 138 123 86 94 103 107 90 90 124 83 121 97 110 87 83 92 131 105 96 119 125 111 83 113 113 95 113 98 138 128
84 91 127 92 117 20 103 86 116 132 124 99 88 99 103 132 104 105 236 135 88 20 131 116 20 114 91 126 87 123 99 86 91 107 102 99 89 96 117 132 82 135 120 103 126 89 95 133 87 114 105 133 118 105 115 138 89 119 109 82 170 91 102 164 210 90 130 168 120 89 96 128 131 131 84 127 94 135 106 131 137 20 129 94 20 136 89 237 255 253 235 104 133 86 87 20 94 89 112 126 89 126 109 246 90 113 130 111 132 90 127 20 107 138 96 99 137 129 130 106 93 132 135 92 95 98 117 117
177 165 217 200 20 218 162 255 209 215 184 186 214 196 213 162 179 210 183 170 213 167 194 170 184 163 197 189 165 167 215 20 204 214 203 187 188 180 166 209 208 205 181 193 167 203 207 198 166 182 179 192 183 193 191 184 214 114 99 114 189 137 120 174 166 82 131 193 118 20 131 194 218 168 163 193 169 172 181 169 195 202 201 20 196 210 218 255 249 255 203 176 185 189 189 209 187 210 173 173 173 209 196 211 176 212 180 166 180 197 173 202 209 179 218 166 190 199 198 184 172 168 181 186 209 205 211 198
165 178 251 208 20 217 163 220 193 197 176 207 208 217 196 167 162 197 184 190 202 165 176 169 211 179 20 181 20 191 196 166 217 195 217 211 186 208 204 20 209 163 216 204 206 203 191 214 172 214 182 165 20 208 166 20 179 20 111 111 165 126 97 197 214 126 20 206 86 113 107 190 174 20 216 170 181 215 198 172 180 184 164 175 215 176 175 210 169 192 172 188 187 198 189 215 193 175 185 190 203 187 179 209 177 194 164 197 170 178 181 213 164 169 171 201 213 185 205 170 196 197 20 183 170 180 204 181
125 91 110 102 123 85 95 102 99 121 125 20 134 112 93 126 128 132 120 113 103 124 123 112 119 20 83 87 89 127 129 96 128 103 103 96 132 123 138 117 126 109 138 123 20 99 124 121 109 87 88 112 135 132 125 107 122 125 20 112 164 98 83 185 193 122 132 217 86 20 88 114 98 111 127 85 112 114 136 117 133 110 121 117 110 113 105 133 98 124 84 119 110 135 111 102 135 227 20 82 132 100 115 130 135 114 135 124 133 106 20 126 20 137 105 135 134 131 117 118 136 96 87 135 129 101 96 211
85 104 100 112 133 84 108 91 100 96 89 82 112 129 128 130 87 96 111 136 137 107 121 89 124 112 127 138 107 124 82 98 131 89 106 90 91 83 100 130 136 129 131 82 96 20 118 95 137 120 137 107 103 129 91 90 116 112 119 110 215 134 104 207 20 128 105 207 112 109 86 123 119 128 20 119 125 134 126 94 20 113 125 88 137 104 122 20 121 118 127 104 84 120 82 110 109 113 82 20 20 130 115 104 121 96 133 20 96 20 91 135 116 82 105 117 113 226 101 103 92 129 96 84 94 122 100 103
198 171 200 179 20 205 195 216 162 200 192 196 213 194 172 191 166 162 179 207 201 215 20 205 200 182 209 174 202 179 167 189 182 218 211 192 163 191 168 180 176 175 190 167 189 181 196 217 206 185 206 163 214 193 162 20 212 94 95 84 162 94 95 201 216 123 96 178 20 99 105 184 187 195 192 165 206 204 200 167 188 195 218 209 176 20 198 199 211 167 213 218 217 212 214 20 187 163 174 216 212 218 217 196 174 175 183 201 166 183 189 208 172 208 167 177 195 164 216 213 162 208 213 204 174 188 202 171
115 122 83 97 89 131 20 105 85 123 104 20 115 250 115 130 117 112 205 98 86 135 97 108 89 113 99 93 136 137 90 100 115 112 202 91 111 99 90 107 92 117 110 134 107 101 95 94 132 115 121 237 122 130 137 102 106 103 129 127 191 244 102 165 187 83 138 209 123 106 117 20 84 116 103 126 121 82 94 110 87 92 20 20 90 121 100 130 99 83 134 112 101 99 113 107 109 101 94 129 20 129 110 177 89 122 83 108 115 123 125 94 129 134 112 119 93 100 98 120 20 96 109 136 125 128 119 114
107 86 134 83 86 132 94 83 108 91 83 127 103 96 102 127 108 103 90 99 108 113 120 95 107 187 120 94 120 20 113 114 228 116 102 98 93 20 115 127 112 120 184 117 83 89 20 131 84 125 127 100 127 122 90 130 99 96 83 122 20 20 83 163 188 120 99 188 102 20 112 89 107 85 132 129 90 132 100 100 94 106 123 111 99 102 131 87 20 20 82 124 129 100 83 98 114 122 118 126 109 101 95 107 136 99 101 125 132 132 104 93 84 119 105 127 99 179 122 182 125 93 20 82 135 116 91 119
89 98 20 96 102 83 97 132 102 93 121 133 122 123 103 88 107 20 20 93 135 135 129 85 97 107 92 96 96 115 83 100 95 129 91 129 117 110 104 124 135 20 123 125 104 118 95 20 84 131 127 109 20 132 92 115 99 131 188 128 176 109 128 203 192 130 118 213 109 124 121 96 90 111 20 128 126 119 133 99 130 129 117 127 118 127 105 127 116 123 85 96 83 104 118 88 123 125 105 124 129 119 131 131 82 120 20 104 20 98 123 86 111 88 130 123 82 131 89 132 116 123 99 129 130 118 102 20
22 11 46 19 43 41 26 20 20 6 0 5 244 238 225 10 7 19 42 38 27 20 12 20 0 37 20 190 14 8 0 39 23 219 26 41 20 0 31 39 38 14 48 32 24 25 18 0 47 46 20 20 3 4 6 45 34 133 124 103 212 109 89 215 168 101 107 188 117 114 92 9 35 41 20 17 0 20 31 0 45 43 32 0 44 39 13 40 1 44 28 22 20 14 30 32 42 16 48 28 2 21 191 0 43 34 18 44 0 32 32 33 2 16 20 3 1 42 0 20 26 25 9 17 38 20 20 22
15 0 25 166 0 4 20 29 27 0 20 41 206 250 0 14 24 20 14 48 9 38 29 38 5 20 15 25 0 10 19 33 40 19 0 10 48 29 0 184 20 45 0 36 40 38 28 24 13 6 16 41 41 10 31 41 32 82 121 83 185 128 90 180 191 105 100 203 119 85 20 24 15 30 35 2 0 19 4 0 1 164 0 10 34 27 29 20 36 2 0 22 28 27 31 16 28 181 5 0 36 7 29 27 0 17 32 7 44 47 216 15 14 0 42 10 43 25 9 42 48 39 47 27 29 35 7 21
0 43 31 21 30 26 27 218 40 27 26 3 5 36 6 3 14 5 0 42 48 20 34 32 37 29 10 2 8 40 5 48 200 29 12 18 45 10 27 31 30 6 0 26 0 10 1 26 16 3 31 0 0 16 14 27 42 124 94 181 173 114 95 204 202 133 20 202 115 96 88 26 20 30 0 42 226 41 20 42 13 0 36 34 1 22 28 9 170 11 20 17 4 37 20 42 8 47 46 18 35 48 0 46 43 17 39 39 47 15 41 38 7 0 23 20 47 0 3 20 10 34 27 38 23 22 46 28
20 28 21 36 2 28 40 31 38 39 2 21 13 20 23 0 36 15 20 39 20 3 8 35 44 20 16 37 3 20 7 39 17 42 0 6 37 14 20 42 15 39 198 5 20 34 22 34 41 27 33 28 17 30 6 12 18 112 133 90 179 103 90 179 182 110 124 175 116 87 84 41 28 23 8 41 14 34 20 24 28 37 29 10 0 17 27 7 9 20 20 20 22 0 0 20 8 32 29 41 0 24 31 181 28 35 44 43 4 2 43 8 24 0 4 21 28 0 39 25 28 0 0 0 0 1 35 39
15 12 22 32 47 3 32 0 7 0 38 13 23 18 4 20 2 44 8 5 20 48 36 46 26 11 12 15 26 48 20 8 39 21 47 33 25 43 38 3 7 20 20 3 0 20 32 20 44 23 6 4 3 30 37 5 44 115 103 89 168 97 86 208 216 126 20 204 125 125 82 11 0 39 7 10 9 0 38 7 38 27 14 20 20 0 1 0 13 18 30 10 3 38 5 0 37 173 29 0 11 17 20 34 2 1 37 8 25 0 39 25 28 43 33 0 44 44 0 228 23 9 9 36 1 35 38 46
31 0 8 6 7 236 8 20 20 43 10 4 22 37 28 1 19 37 176 43 9 28 15 0 13 8 0 0 43 34 12 0 14 0 0 19 4 0 36 15 5 14 31 35 7 20 19 171 44 27 17 17 0 40 44 27 21 112 83 137 209 129 114 206 164 128 138 211 89 135 118 32 8 13 44 9 20 41 21 14 12 19 24 179 1 47 16 0 6 6 0 26 23 4 35 10 3 9 20 29 20 0 193 39 29 43 17 0 14 6 8 48 15 47 0 0 20 1 21 2 16 5 4 9 12 7 42 0
7 24 0 4 21 14 12 38 10 3 3 6 31 0 0 34 11 38 0 17 17 28 16 14 45 2 38 23 15 24 0 34 0 18 1 45 19 7 27 14 0 13 0 42 42 6 20 15 2 24 38 22 9 43 38 0 34 86 116 91 199 105 122 163 20 220 103 186 82 124 136 12 26 41 7 0 20 20 42 0 9 192 0 24 19 23 20 46 30 15 32 16 15 21 9 27 9 9 26 17 15 23 0 13 30 26 4 20 19 40 29 8 37 20 20 1 12 29 37 22 25 30 0 24 5 20 33 255
5 25 38 16 0 0 9 28 6 17 32 0 46 45 0 7 9 10 0 16 48 0 0 7 0 27 16 10 32 7 9 0 21 38 16 15 27 0 20 41 22 27 0 42 16 2 2 20 44 7 22 1 35 6 171 20 47 97 100 124 214 121 116 202 212 132 114 175 86 107 124 7 44 24 37 18 41 0 0 11 7 35 5 19 179 13 45 15 19 27 1 25 34 24 0 14 47 13 0 6 20 0 38 7 16 0 0 39 39 7 7 34 0 192 15 19 27 20 22 40 20 29 32 25 44 0 0 248
38 46 29 173 230 33 0 20 29 33 23 29 46 48 14 48 0 5 38 37 31 9 21 6 24 28 27 32 239 2 40 3 39 24 20 1 43 1 36 18 24 37 46 0 2 18 0 20 6 20 15 46 0 41 29 41 30 115 125 117 175 20 119 170 169 97 20 217 20 133 127 11 32 20 11 23 31 45 30 0 20 33 11 0 35 38 17 41 7 43 29 1 25 0 4 41 41 48 0 0 41 42 4 16 46 38 36 22 48 0 1 31 40 2 47 46 0 40 0 38 41 20 0 9 8 19 6 13
0 0 2 13 0 0 1 37 19 0 0 0 0 24 24 3 8 46 4 0 0 45 1 16 5 23 31 26 15 0 19 18 32 28 4 27 25 246 0 200 10 35 0 0 42 33 39 47 41 16 12 48 32 9 26 0 42 109 131 116 181 126 119 165 198 134 109 205 123 136 129 9 40 30 0 3 20 20 0 38 37 20 46 20 47 0 47 39 22 0 0 42 0 8 28 2 37 239 20 22 0 39 0 32 29 0 15 2 39 18 47 42 24 20 45 15 10 34 0 38 37 20 0 20 25 1 1 42
48 34 38 0 20 27 25 46 48 28 20 22 22 1 38 5 18 11 6 48 2 0 32 16 2 7 8 15 11 0 3 0 45 6 48 15 0 39 20 39 7 1 18 19 47 26 0 48 48 0 0 42 11 1 0 221 3 97 108 134 208 93 103 215 188 129 115 215 125 135 86 36 0 0 30 38 8 4 42 44 35 46 0 20 0 4 0 32 0 28 253 32 33 31 11 35 30 23 5 20 3 45 0 167 36 8 30 43 8 25 37 28 37 38 44 41 47 18 17 0 23 39 0 41 195 22 204 0
27 15 42 29 20 28 16 20 16 20 20 3 176 20 32 48 42 26 4 45 29 29 4 20 4 44 19 9 31 41 20 17 0 21 35 14 0 13 11 0 14 0 43 45 29 14 40 23 0 0 7 38 21 33 20 0 48 84 20 136 223 134 112 183 191 127 136 207 106 98 94 30 23 248 9 46 0 15 38 39 19 25 0 41 20 42 0 16 6 2 27 29 9 20 0 20 16 251 23 33 41 48 25 14 42 10 39 35 47 34 27 1 0 7 28 20 9 33 47 17 10 18 11 30 6 224 44 31
1 0 33 27 27 43 8 39 48 20 26 47 31 45 17 1 40 20 18 1 1 5 25 23 6 29 21 23 25 10 28 0 18 20 4 47 0 23 17 0 36 17 12 0 4 0 39 8 13 3 35 28 25 38 33 20 20 118 113 132 162 82 92 168 169 138 121 212 127 102 119 23 1 0 29 14 47 8 15 8 17 0 0 20 40 11 43 17 19 1 48 0 13 43 42 19 12 0 20 248 31 20 10 14 43 39 13 44 28 0 23 4 29 47 2 36 38 12 29 28 25 20 0 25 28 3 8 24
34 30 41 30 35 14 39 28 30 10 21 12 48 20 27 27 0 14 180 0 48 27 32 0 7 47 20 20 6 0 9 41 20 1 0 194 3 35 20 0 45 40 40 37 44 25 26 20 11 17 17 22 44 0 9 35 47 83 20 85 165 123 134 190 215 111 117 183 103 121 112 4 47 16 4 41 24 29 18 23 22 16 9 27 0 34 48 6 36 15 1 30 28 11 17 47 6 0 10 29 223 0 1 43 43 42 0 19 5 0 3 39 19 0 15 42 0 42 0 42 20 169 39 5 3 14 30 15
8 0 0 30 22 11 44 11 2 35 35 27 22 30 38 31 4 20 36 0 4 7 42 22 32 45 42 20 46 10 198 48 21 23 16 41 39 18 28 6 0 2 13 20 2 33 29 41 31 5 23 24 0 16 37 0 39 120 87 115 197 136 98 197 202 116 116 218 114 20 87 0 33 8 19 30 15 48 20 0 7 32 20 43 12 42 42 45 47 27 35 8 1 43 24 0 38 46 13 8 45 3 7 20 22 31 0 0 0 222 0 42 34 25 0 6 34 5 3 23 25 25 0 34 0 40 2 2
8 39 19 0 45 20 22 0 16 32 0 24 21 25 37 39 25 26 10 0 23 13 14 22 45 16 3 11 20 45 0 4 6 0 4 38 16 171 0 36 34 34 6 31 7 42 23 47 8 32 19 33 41 0 32 25 10 133 138 104 187 127 112 215 173 133 105 191 91 136 122 8 8 37 36 39 42 0 0 3 40 45 23 40 12 15 0 39 7 6 255 34 0 26 28 20 0 44 0 6 14 21 8 26 20 15 16 5 42 22 30 28 25 40 18 12 14 238 0 11 48 7 3 34 34 39 0 17
1 3 20 13 11 38 14 19 0 36 16 36 20 0 27 18 23 20 37 30 2 39 14 39 9 17 43 29 8 13 25 0 34 25 0 20 25 33 42 6 32 46 0 41 6 25 30 46 21 6 36 0 15 35 10 0 23 126 20 90 216 92 91 195 175 20 107 206 130 114 131 40 35 1 43 46 0 46 20 27 44 1 48 48 0 1 29 47 18 8 229 24 44 0 31 3 19 245 9 0 32 0 38 0 36 45 47 32 21 32 16 248 31 47 207 48 2 37 36 11 48 20 0 26 0 0 1 11
205 19 48 39 10 9 31 20 20 8 36 34 30 26 11 5 33 34 34 11 21 22 47 20 0 29 0 27 7 15 30 38 11 20 12 18 29 0 19 44 12 20 21 22 10 30 36 6 5 17 1 21 15 0 26 0 1 136 207 83 180 119 107 184 20 109 89 247 102 117 110 5 20 16 41 9 19 13 28 0 0 38 0 46 20 22 17 46 8 21 5 33 2 0 23 4 6 7 46 27 41 21 48 0 0 20 28 16 13 30 23 0 17 41 6 19 41 38 30 43 7 0 24 30 39 6 48 32
48 46 11 18 0 21 5 9 43 22 14 8 40 8 17 33 20 20 13 2 0 0 3 0 16 0 0 34 20 0 46 47 2 1 14 7 22 28 205 12 0 41 0 0 45 37 28 26 0 39 8 1 21 8 20 40 28 107 85 127 162 97 131 189 217 123 134 181 88 100 108 20 0 12 40 10 11 16 41 23 33 0 3 35 2 18 35 39 47 37 9 9 0 46 164 10 33 17 34 0 10 10 47 47 32 39 7 14 24 46 24 46 0 23 37 42 39 39 31 178 6 47 37 2 0 0 43 45
0 13 24 0 45 48 43 20 195 6 24 34 36 41 23 0 47 3 32 15 7 43 41 34 40 5 17 11 38 6 25 22 0 40 39 31 24 6 7 39 34 29 8 40 0 39 0 4 20 2 20 31 42 7 0 42 39 90 90 100 170 133 91 175 20 105 96 196 97 86 133 0 13 8 4 0 185 7 27 46 0 9 20 3 24 3 26 31 16 20 0 29 33 9 33 28 30 16 21 28 20 23 44 9 20 1 9 28 39 44 35 18 0 0 29 24 16 29 9 26 14 9 23 8 4 16 40 0
39 21 25 20 24 0 38 11 43 31 17 1 29 17 29 44 31 48 0 22 0 12 45 0 16 5 27 16 0 19 1 28 30 29 2 0 24 6 14 47 27 43 19 21 20 0 0 8 39 0 0 44 0 36 20 27 4 117 109 163 200 108 118 196 213 136 194 198 113 130 100 45 31 11 7 0 27 45 20 27 25 33 33 37 8 39 36 45 23 5 0 36 37 21 0 39 14 24 27 25 39 18 20 20 5 29 20 13 7 9 20 0 0 20 2 0 40 8 13 20 47 5 13 38 17 36 10 23
12 0 20 32 1 20 18 1 11 28 37 22 34 19 19 14 19 19 30 38 13 33 1 20 36 2 12 45 12 0 0 43 20 11 0 2 2 20 32 16 10 8 14 0 1 17 5 20 39 38 21 23 33 29 10 40 4 83 126 83 165 130 133 163 187 88 114 197 104 107 109 18 6 30 7 39 26 41 41 30 43 29 23 35 20 38 234 25 14 20 38 3 188 48 24 4 32 5 2 0 39 40 0 45 16 0 20 46 30 13 5 31 48 11 30 20 15 21 28 31 0 35 46 1 39 43 20 0
20 0 40 41 47 7 39 27 13 11 0 25 34 18 40 22 0 22 0 4 28 47 35 22 24 28 188 31 38 20 9 9 0 17 25 39 0 0 0 31 45 35 29 27 9 0 31 26 0 0 20 35 21 0 29 12 20 110 105 83 191 94 137 214 226 94 103 206 20 95 114 4 0 43 40 0 13 33 7 29 3 20 20 0 18 0 3 30 22 24 31 20 4 45 27 0 28 20 26 20 11 3 41 20 21 42 20 0 20 12 40 48 12 18 20 46 20 13 19 0 224 4 20 0 0 0 0 34
0 30 0 41 17 0 17 24 22 29 23 11 33 12 0 45 34 0 34 30 11 44 0 0 20 6 34 20 0 15 44 33 0 10 25 42 1 16 1 13 25 8 41 35 43 12 17 26 35 20 6 35 11 44 26 47 8 136 132 110 185 130 108 175 204 116 121 20 120 87 109 209 209 20 28 8 48 5 22 48 40 33 35 38 38 6 0 48 0 253 210 46 9 12 7 13 0 43 37 19 7 18 11 4 11 43 18 0 8 20 0 29 48 45 23 38 10 17 8 41 179 44 30 48 9 13 16 35
43 26 36 4 0 0 31 19 0 2 19 43 0 39 9 32 0 2 0 25 48 23 43 10 36 12 5 9 36 37 36 4 45 0 5 19 22 20 30 46 11 20 27 8 41 11 13 0 32 24 27 24 34 12 173 20 20 103 128 101 215 97 137 216 195 130 130 167 20 118 120 1 37 0 27 48 15 7 46 11 18 0 31 34 20 36 19 32 4 32 34 46 27 41 31 19 28 35 36 0 0 35 3 12 0 0 39 230 38 2 25 28 44 27 33 0 39 0 3 32 14 6 48 21 17 5 17 22
232 31 9 220 0 22 45 0 6 10 20 4 39 0 11 16 39 1 26 37 25 34 8 42 13 0 12 10 38 26 11 30 22 42 20 38 37 203 18 0 21 44 20 2 16 22 24 25 47 40 28 20 1 20 0 37 20 130 20 132 221 108 133 197 215 136 115 192 98 102 84 33 40 20 20 41 43 32 9 20 13 20 39 41 8 16 8 24 39 0 4 18 43 30 48 20 18 39 0 26 27 18 11 33 9 9 3 0 2 38 46 30 45 28 3 0 34 27 13 0 39 24 42 46 0 40 8 37
16 45 0 39 6 2 36 18 20 42 20 20 22 2 33 0 21 42 0 11 23 32 15 0 20 31 29 38 42 38 25 9 166 14 9 31 41 45 13 6 33 0 22 26 14 10 6 185 48 0 29 45 2 28 42 4 37 104 136 127 174 91 226 190 20 126 125 210 119 100 83 45 187 19 32 27 14 0 36 19 11 0 20 1 15 12 29 173 43 11 31 38 26 13 42 251 2 46 28 32 38 4 14 206 25 28 20 0 2 40 26 26 0 36 30 28 8 14 20 37 20 15 39 39 24 47 42 11
221 38 27 31 43 33 201 28 11 46 40 36 28 20 252 21 41 0 8 0 35 6 39 20 0 8 0 30 0 18 1 1 36 37 23 5 17 43 41 19 4 40 33 4 27 10 7 9 39 43 43 197 30 18 34 42 44 134 119 117 175 110 131 170 168 123 84 190 133 100 118 16 39 35 30 20 46 33 2 44 21 40 41 39 20 9 0 8 2 42 20 10 40 20 27 5 13 39 27 23 0 8 25 0 174 29 10 10 22 13 1 26 25 38 44 38 19 20 35 20 35 21 31 0 26 32 45 9
16 1 16 28 24 25 7 0 14 38 28 34 247 18 32 43 3 20 0 21 1 38 4 20 0 43 38 0 20 8 17 28 34 13 44 7 28 40 22 27 0 0 48 35 18 38 39 6 0 4 2 48 28 24 0 45 0 126 212 102 218 107 251 204 193 91 188 168 102 126 98 0 43 0 29 31 7 231 47 30 47 18 0 0 8 24 6 35 20 46 0 41 47 203 37 19 27 42 35 32 40 29 5 37 0 45 44 8 39 0 33 8 20 3 0 37 4 0 21 0 1 0 234 4 0 34 0 8
9 44 39 32 30 33 32 6 22 1 164 46 48 25 37 38 31 19 0 0 1 35 236 42 7 17 46 33 40 42 0 0 34 22 28 25 23 2 0 43 26 28 36 0 9 39 12 28 5 21 27 3 177 47 33 31 24 112 106 117 20 85 245 213 176 20 125 208 134 112 133 7 0 42 1 0 10 0 14 9 17 230 0 0 3 45 27 6 30 0 42 0 46 47 9 0 0 37 23 32 15 42 16 5 15 29 5 25 37 18 4 32 0 2 22 0 39 0 20 6 47 165 45 8 3 32 0 47
0 38 0 7 19 0 34 44 20 25 47 5 0 14 40 43 31 2 38 0 45 15 1 39 20 14 23 48 8 237 10 27 29 31 20 0 7 21 24 7 39 13 26 18 46 45 22 38 18 46 5 13 19 27 5 46 23 109 99 20 181 166 115 211 167 135 101 172 95 120 98 0 36 28 19 0 4 23 22 25 28 42 0 0 23 48 3 26 12 44 6 9 22 47 0 15 237 16 0 38 33 0 6 20 8 21 43 30 24 16 9 0 0 18 12 16 8 32 0 45 28 0 20 22 47 26 41 47
0 19 44 43 0 21 0 0 2 10 0 0 0 36 19 6 9 188 36 38 18 10 164 38 33 2 0 0 33 0 43 1 38 39 8 47 10 12 32 25 16 42 8 41 46 5 9 16 30 44 26 0 0 14 41 3 15 121 100 132 210 117 92 165 162 92 100 216 138 118 108 14 9 0 45 37 39 11 26 0 48 0 12 7 34 28 18 3 36 4 29 22 11 10 0 0 42 0 6 40 7 35 8 35 6 20 27 29 15 11 18 20 8 0 37 20 11 0 46 13 46 34 0 1 20 5 47 14
38 0 20 5 22 45 20 20 32 31 15 32 32 23 7 5 0 0 24 32 30 2 12 3 8 17 0 39 12 7 47 5 28 12 2 0 45 0 17 0 4 13 28 14 6 175 14 46 33 11 0 26 0 0 20 45 41 122 83 138 186 88 118 185 213 96 120 204 122 133 86 28 6 46 48 22 28 24 45 44 30 43 0 3 5 1 33 25 7 12 2 20 2 18 33 29 42 36 0 48 22 13 24 1 30 231 0 0 0 19 23 32 4 36 20 206 0 25 41 18 10 29 0 26 6 10 12 30
33 46 41 11 0 0 30 35 8 10 23 8 21 17 11 36 3 1 15 12 0 167 16 45 27 47 29 28 9 0 46 0 37 33 14 47 33 27 44 12 6 20 40 0 18 12 44 12 47 15 28 15 37 20 22 32 20 111 128 109 173 99 136 164 177 130 112 167 133 119 126 23 37 28 46 0 160 0 0 21 17 32 0 41 0 10 33 44 37 45 28 27 36 31 0 11 30 17 27 46 0 44 14 14 0 22 35 27 33 1 30 40 20 163 5 5 23 3 10 20 8 31 1 7 33 13 37 0
10 37 37 44 5 35 31 15 36 254 28 0 48 11 35 42 36 0 34 15 37 9 15 26 47 0 16 0 39 31 20 44 0 40 28 20 13 19 20 0 40 26 34 0 38 0 19 5 12 45 14 37 45 240 0 1 24 20 114 97 184 135 118 174 203 127 83 218 100 92 106 6 22 16 27 20 41 25 2 3 20 28 44 199 7 34 20 20 6 5 0 0 12 18 48 32 38 43 10 14 35 23 24 226 20 22 0 32 47 20 0 23 18 40 2 0 10 33 39 18 6 0 40 7 0 26 20 42
29 28 13 0 0 27 21 41 1 27 176 0 2 6 0 0 18 3 19 43 17 20 15 29 30 45 37 37 48 0 28 38 0 48 7 31 45 14 13 0 39 24 2 0 24 33 20 16 32 22 35 27 0 27 19 27 34 127 119 106 193 92 137 207 209 112 20 196 94 86 89 0 30 20 23 0 33 20 20 19 13 34 46 1 243 11 19 30 13 45 0 32 16 169 40 40 32 28 27 0 27 13 17 47 0 47 23 0 39 3 7 40 20 6 32 1 9 32 48 35 46 28 0 6 48 9 13 28
7 20 9 15 39 9 29 8 20 20 11 0 1 47 39 19 0 20 11 39 0 23 20 31 28 40 21 45 25 38 11 36 3 0 0 43 38 41 22 0 24 35 47 23 5 6 10 18 28 46 178 28 28 36 32 5 0 113 20 137 207 111 240 175 205 108 97 248 97 122 106 47 0 10 46 20 20 40 0 2 28 23 20 20 11 0 20 23 31 0 26 45 7 182 0 20 0 0 47 21 0 2 32 17 47 0 48 13 27 27 22 5 33 47 3 10 20 36 37 19 20 0 32 19 0 20 45 25
33 24 19 39 33 2 6 21 15 0 10 0 20 28 9 0 8 26 29 48 39 12 3 20 12 32 6 0 26 6 47 0 22 32 20 38 35 47 0 181 32 39 46 0 0 36 31 4 33 13 8 16 17 31 23 44 36 94 108 120 170 92 230 209 190 131 95 196 20 108 20 0 11 20 0 10 20 19 39 0 0 17 32 44 18 13 20 45 41 20 19 4 11 34 0 26 27 6 35 210 9 8 21 0 22 38 0 20 11 40 10 20 8 45 19 12 14 0 41 0 32 25 35 19 43 31 43 22
48 25 2 26 4 38 12 13 0 6 34 20 172 0 25 42 20 0 19 20 46 15 0 5 32 21 14 38 1 44 23 36 28 17 15 30 0 7 20 5 25 30 20 0 14 13 19 0 13 48 7 0 25 0 37 2 26 120 124 85 163 103 102 20 20 118 107 172 100 20 95 28 17 3 38 6 4 4 5 10 23 12 5 40 20 36 0 20 0 20 5 1 1 31 37 0 21 5 39 11 47 22 0 14 27 20 28 37 20 29 7 28 0 44 21 14 0 0 4 31 23 0 17 17 20 25 46 11
29 48 16 0 37 1 13 6 27 0 30 0 20 204 13 28 12 0 226 4 14 21 1 11 44 42 46 5 15 37 0 32 0 45 22 40 17 11 37 14 22 2 7 39 34 39 7 4 0 5 47 6 21 42 45 23 20 108 84 99 216 111 134 244 173 251 121 193 100 108 247 43 0 45 34 27 20 0 3 26 35 24 42 17 34 47 183 24 0 29 20 33 22 48 46 14 44 20 8 15 20 45 1 0 14 19 12 19 24 46 6 19 23 15 47 0 31 48 16 44 39 11 30 38 33 32 15 18
14 28 4 20 5 20 10 44 20 31 16 48 31 29 9 31 42 0 13 7 0 47 0 46 30 28 17 0 48 4 16 48 6 20 0 0 34 32 0 16 174 17 15 29 10 35 20 26 5 0 6 22 29 237 28 0 11 98 88 97 20 82 136 217 183 20 114 205 111 98 131 39 24 27 0 4 37 232 15 16 6 39 0 7 6 0 41 20 45 2 0 27 35 36 26 38 32 38 0 22 11 31 0 30 32 35 45 10 0 0 0 30 15 238 13 0 32 0 0 32 42 29 0 37 8 46 1 0
0 41 11 0 13 0 3 20 20 4 9 184 15 0 40 16 21 26 22 0 0 181 0 12 18 20 25 16 25 26 38 20 11 33 11 19 15 7 20 20 20 36 22 46 8 11 0 9 10 41 11 7 20 29 15 22 30 20 85 97 169 98 125 213 183 131 110 217 95 105 93 15 0 0 37 8 6 8 191 35 40 20 0 12 20 20 14 15 12 3 252 27 17 2 47 3 18 40 28 26 23 0 40 0 7 36 14 8 33 46 16 40 10 6 6 0 20 0 4 40 20 20 11 0 0 24 0 21
0 13 47 5 27 0 30 13 11 9 20 46 10 4 5 2 3 37 30 0 34 36 46 22 10 11 23 45 35 10 17 11 12 42 11 27 48 11 16 41 33 34 38 48 38 26 0 11 32 20 17 40 0 6 39 21 0 125 121 92 218 85 111 168 187 91 114 167 98 121 83 12 43 10 37 234 3 12 42 1 20 42 35 18 4 24 7 1 13 38 1 4 11 20 20 38 21 34 15 4 28 15 23 23 0 35 40 37 0 20 5 27 6 47 45 21 0 0 18 20 38 9 30 0 0 5 0 46
48 0 21 20 36 26 25 44 20 10 28 6 0 10 24 33 1 20 0 43 6 0 12 30 7 23 35 15 6 32 0 35 21 26 20 15 0 10 36 21 7 20 14 48 20 20 46 17 43 23 16 203 11 15 0 20 30 128 137 98 162 99 99 170 191 133 124 20 84 20 86 36 28 25 7 0 38 189 8 48 40 47 20 15 35 16 0 19 37 29 45 26 11 17 21 20 10 48 39 3 47 0 5 0 3 2 17 39 44 43 12 34 44 4 9 24 0 28 43 20 29 6 33 29 15 8 15 23
28 18 13 34 13 12 4 40 40 0 9 41 24 4 14 7 2 30 24 39 9 19 27 4 10 216 14 47 9 0 20 40 13 10 10 169 4 0 20 0 0 5 28 43 0 41 0 34 20 0 210 19 12 20 0 29 22 123 90 125 201 130 101 167 189 138 133 167 118 115 101 33 38 0 2 46 31 23 42 20 177 12 37 36 12 14 16 1 10 20 0 15 25 17 19 0 13 44 9 30 32 27 35 14 36 28 0 0 18 17 8 15 0 15 19 0 41 14 4 40 24 11 18 21 9 35 0 189
7 30 22 32 43 35 10 41 29 26 0 11 7 29 20 28 12 11 27 31 10 28 0 0 0 34 25 44 24 33 2 21 19 41 26 47 15 17 35 24 0 38 8 0 16 10 160 0 6 38 0 48 7 26 0 16 15 116 89 113 191 120 130 204 186 164 111 203 104 91 135 0 42 22 1 28 0 25 23 25 0 18 0 30 20 31 35 5 39 31 0 48 41 34 41 36 34 0 28 14 18 32 24 2 21 39 3 0 45 2 15 20 6 1 45 13 13 35 173 29 48 20 37 46 13 4 20 20
169 36 29 35 29 0 19 26 11 35 1 28 20 23 2 9 0 34 20 0 19 15 18 0 6 1 42 1 0 17 0 29 0 41 19 0 0 223 21 20 41 36 30 31 0 20 6 14 34 4 31 20 42 1 47 48 8 106 135 106 207 97 103 216 165 134 129 179 132 96 135 32 28 20 39 7 10 4 14 38 44 0 27 18 45 12 4 35 25 160 27 7 25 11 8 13 34 0 0 4 0 47 10 45 28 30 0 19 0 11 3 0 19 34 0 11 28 29 4 21 16 3 44 1 13 12 9 26
23 15 47 15 48 32 17 44 17 38 0 35 33 7 42 10 38 7 0 36 21 12 3 30 0 0 0 0 0 0 42 26 5 20 8 25 233 3 12 44 45 42 45 37 29 4 35 4 48 0 24 0 48 238 5 10 34 107 122 163 213 134 135 190 165 88 121 20 82 106 125 0 42 45 20 0 31 10 7 35 19 26 31 36 36 21 250 1 0 0 0 12 29 20 22 2 3 32 0 199 32 20 20 48 43 20 44 18 0 18 39 26 38 207 3 32 20 14 12 35 0 0 19 174 39 43 46 46
20 48 28 25 46 28 2 30 43 11 4 40 45 14 13 7 33 19 20 40 44 35 0 11 4 37 32 41 20 0 38 0 9 3 20 0 23 226 34 44 34 28 40 31 33 0 40 20 42 184 8 37 41 3 48 15 41 176 86 101 181 102 86 176 186 127 119 210 125 115 100 31 33 28 43 0 0 44 29 30 14 0 44 43 32 33 2 10 0 38 43 20 7 8 0 24 1 8 38 46 42 41 43 26 3 8 10 6 5 47 37 25 0 4 10 47 40 20 27 46 31 0 0 31 27 33 35 29
19 47 0 25 23 16 47 45 9 42 19 2 24 19 29 0 20 48 39 47 20 0 3 34 42 27 16 10 20 45 20 0 47 24 44 185 11 12 17 0 24 7 3 31 1 1 0 10 17 0 32 20 25 19 27 41 24 137 131 84 174 98 91 189 214 120 90 187 126 131 120 33 3 31 37 7 1 24 2 4 16 47 1 218 47 42 31 0 33 27 20 39 38 40 46 9 37 0 37 0 3 13 35 42 4 0 6 46 0 40 20 4 9 42 3 6 0 13 29 0 40 2 16 0 42 47 9 26
42 0 27 32 45 40 20 6 29 48 26 38 20 45 38 0 11 28 25 26 46 17 20 32 7 48 48 1 22 13 45 0 45 28 47 3 32 25 29 0 45 36 20 43 4 0 24 29 23 0 5 176 15 32 32 21 24 133 118 222 184 96 97 201 162 116 98 187 103 125 108 0 28 35 0 26 242 45 32 40 192 46 45 48 9 0 45 10 42 32 44 16 27 20 35 35 4 20 18 38 17 6 11 44 0 46 17 0 44 32 23 9 11 0 24 10 33 0 11 36 41 40 48 22 36 6 37 19
0 33 29 13 42 28 43 32 38 14 43 37 14 0 0 0 9 26 47 19 21 1 33 0 44 28 13 15 20 3 46 47 0 17 29 42 5 31 36 13 10 7 40 38 20 42 36 44 30 31 44 20 1 8 0 0 7 122 116 87 192 93 100 216 163 112 102 200 100 119 117 0 3 17 20 35 46 10 39 18 22 15 42 12 44 25 16 23 41 20 14 2 20 10 40 41 30 0 6 31 26 27 20 14 33 24 20 43 20 7 22 31 16 39 8 16 37 40 17 13 14 42 44 6 15 18 5 2
35 45 45 160 42 204 31 41 22 2 12 17 12 0 20 28 20 29 35 24 29 44 0 22 0 40 22 9 45 38 36 16 32 28 13 16 27 7 20 31 40 6 0 41 17 4 0 237 0 43 0 3 20 13 20 0 41 88 83 125 206 136 104 194 173 193 113 189 131 114 111 21 7 15 23 12 0 42 44 1 0 0 0 17 41 0 29 6 27 36 45 20 20 12 40 24 22 16 29 4 1 45 175 33 43 0 22 0 3 21 2 20 8 0 4 7 226 7 4 0 28 2 0 15 20 30 29 33
20 29 1 21 42 0 45 10 48 20 0 47 0 34 20 28 33 37 0 14 20 43 48 37 0 25 20 2 16 23 0 32 12 47 26 41 0 48 0 44 15 40 0 35 16 5 18 18 41 39 16 15 30 8 0 0 0 89 99 131 163 119 105 192 189 85 97 196 137 116 123 39 30 38 29 13 39 0 46 18 16 13 20 9 43 41 36 45 22 0 5 39 47 35 31 22 17 39 3 33 35 18 25 35 24 4 21 24 47 21 181 2 15 8 18 223 31 5 48 8 23 5 9 38 0 45 7 0
21 20 20 33 36 0 19 18 17 4 40 42 0 41 34 0 20 46 7 27 35 20 38 40 20 0 20 0 20 0 0 0 6 12 37 45 2 10 33 39 17 20 35 18 35 20 4 242 30 0 20 0 44 11 246 9 0 96 122 99 215 20 106 199 20 168 97 169 91 124 89 17 6 7 24 45 0 46 41 20 10 38 0 31 14 16 32 8 18 40 0 42 34 44 34 29 43 21 12 17 194 9 0 36 20 0 7 0 33 33 48 15 48 44 0 1 14 1 4 34 6 6 11 6 8 13 3 237
20 17 19 40 16 3 32 14 2 0 4 31 35 3 0 19 0 25 23 0 16 20 25 15 24 42 45 5 20 0 30 0 0 12 20 5 45 0 43 20 35 6 2 20 0 6 23 19 34 28 15 45 1 28 17 43 21 134 94 110 188 128 122 184 187 133 120 189 134 129 127 22 7 44 20 8 20 25 13 0 41 17 9 37 0 9 48 16 10 26 242 36 17 8 20 40 21 39 20 28 9 5 29 2 39 0 13 17 48 2 45 21 46 45 4 35 45 15 30 34 1 44 0 22 0 6 29 16
0 7 0 23 32 0 0 33 30 39 31 23 47 0 40 46 8 8 20 224 183 11 12 26 6 33 34 6 6 20 0 48 15 6 0 44 0 35 21 20 28 17 30 1 25 32 24 23 0 32 30 2 40 3 44 0 0 130 104 133 185 128 130 162 166 111 82 181 124 123 86 36 30 0 33 45 5 4 2 7 32 20 1 7 47 42 0 27 16 8 20 8 20 5 0 162 21 4 41 0 31 1 0 48 20 47 163 20 7 22 0 17 0 6 10 193 30 14 35 17 38 31 43 0 29 24 183 48
